;FLAVOR:Marlin
;TIME:47349
;Filament used: 33.8642m
;Layer height: 0.2
;MINX:3.156
;MINY:29.9
;MINZ:0.35
;MAXX:196.848
;MAXY:170.088
;MAXZ:21.15
;TARGET_MACHINE.NAME:XYZprinting da Vinci 1.0 Pro
;Generated with Cura_SteamEngine 5.6.0
M140 S45
M105
M190 S45
M104 S190
M105
M109 S190
M82 ;absolute extrusion mode
G28 ; home all axes
G1 Z15 F5000 ; lift nozzle
G92 E0
G1 F200 E3

G92 E0
G92 E0
G1 F1800 E-4
;LAYER_COUNT:105
;LAYER:0
M106 S255
;MESH:Chassis_1_V1.STL
G0 F3000 X131.516 Y167.224 Z0.35
;TYPE:WALL-INNER
G1 F1800 E0
G1 F900 X131.682 Y167.025 E0.0181
G1 X131.812 Y166.948 E0.02865
G1 X132.05 Y166.9 E0.04561
G1 X147.932 Y166.905 E1.15491
G1 X148.116 Y166.961 E1.16834
G1 X148.332 Y167.142 E1.18803
G1 X148.45 Y167.379 E1.20652
G1 X148.45 Y169.4 E1.34768
G1 X196.448 Y169.4 E4.70016
G1 X196.448 Y30.6 E14.39482
G1 X148.45 Y30.6 E17.74731
G1 X148.45 Y32.619 E17.88833
G1 X148.333 Y32.858 E17.90691
G1 X148.116 Y33.039 E17.92665
G1 X147.929 Y33.1 E17.94039
G1 X131.937 Y33.09 E19.05737
G1 X131.682 Y32.975 E19.07691
G1 X131.564 Y32.853 E19.08876
G1 X131.45 Y32.618 E19.10701
G1 X131.45 Y30.6 E19.24796
G1 X83.45 Y30.6 E22.60058
G1 X83.45 Y32.5 E22.73329
G1 X83.384 Y32.776 E22.75311
G1 X83.218 Y32.975 E22.77121
G1 X82.919 Y33.097 E22.79376
G1 X66.959 Y33.094 E23.90851
G1 X66.681 Y32.974 E23.92966
G1 X66.563 Y32.852 E23.94151
G1 X66.45 Y32.617 E23.95973
G1 X66.45 Y30.6 E24.10061
G1 X18.45 Y30.6 E27.45323
G1 X18.45 Y32.627 E27.59481
G1 X18.284 Y32.915 E27.61802
G1 X18.074 Y33.058 E27.63577
G1 X17.918 Y33.097 E27.647
G1 X4.416 Y33.1 E28.59007
G1 X4.417 Y166.9 E37.9355
G1 X17.918 Y166.903 E38.87849
G1 X18.18 Y166.998 E38.89796
G1 X18.33 Y167.138 E38.91229
G1 X18.45 Y167.379 E38.93109
G1 X18.45 Y169.4 E39.07225
G1 X66.45 Y169.4 E42.42488
G1 X66.45 Y167.5 E42.55758
G1 X66.516 Y167.225 E42.57734
G1 X66.737 Y166.987 E42.60002
G1 X66.975 Y166.9 E42.61772
G1 X82.959 Y166.909 E43.73414
G1 X83.218 Y167.025 E43.75397
G1 X83.336 Y167.147 E43.76582
G1 X83.45 Y167.382 E43.78406
G1 X83.45 Y169.4 E43.92501
G1 X131.45 Y169.4 E47.27764
G1 X131.45 Y167.5 E47.41034
G1 X131.516 Y167.224 E47.43016
G0 F3000 X131.15 Y167.224
G0 X148.678 Y166.672
G0 X148.05 Y167.456
;TYPE:WALL-OUTER
G1 F900 X148.05 Y169.8 E47.59388
G1 X196.848 Y169.8 E51.00224
G1 X196.848 Y30.2 E60.75278
G1 X148.05 Y30.2 E64.16114
G1 X148.05 Y32.539 E64.32451
G1 X147.971 Y32.66 E64.33461
G1 X147.885 Y32.698 E64.34117
G1 X131.979 Y32.688 E65.45215
G1 X131.85 Y32.541 E65.46581
G1 X131.85 Y30.2 E65.62932
G1 X83.05 Y30.2 E69.03782
G1 X83.05 Y32.541 E69.20133
G1 X82.963 Y32.666 E69.21197
G1 X82.891 Y32.7 E69.21753
G1 X66.979 Y32.688 E70.32892
G1 X66.85 Y32.54 E70.34263
G1 X66.85 Y30.2 E70.50607
G1 X18.05 Y30.2 E73.91457
G1 X18.05 Y32.579 E74.08074
G1 X17.883 Y32.698 E74.09506
G1 X4.016 Y32.7 E75.06362
G1 X4.017 Y167.3 E84.46493
G1 X17.883 Y167.302 E85.43342
G1 X17.995 Y167.361 E85.44226
G1 X18.05 Y167.457 E85.44999
G1 X18.05 Y169.8 E85.61364
G1 X66.85 Y169.8 E89.02214
G1 X66.85 Y167.462 E89.18544
G1 X66.915 Y167.351 E89.19442
G1 X67.001 Y167.305 E89.20123
G1 X82.921 Y167.312 E90.31319
G1 X83.05 Y167.459 E90.32685
G1 X83.05 Y169.8 E90.49036
G1 X131.85 Y169.8 E93.89885
G1 X131.85 Y167.459 E94.06236
G1 X131.937 Y167.334 E94.073
G1 X132.009 Y167.3 E94.07856
G1 X147.916 Y167.31 E95.18961
G1 X148.05 Y167.456 E95.20345
G0 F3000 X148.05 Y167.656
G0 X148.75 Y167.656
G0 X148.678 Y166.672
G0 X66.222 Y166.672
G0 X66.255 Y166.924
;TYPE:SKIN
G1 F900 X66.07 Y167.348 E95.23576
G1 X66.07 Y169.02 E95.35254
G1 X18.83 Y169.02 E98.65208
G1 X18.83 Y167.5 E98.75825
G1 X18.772 Y167.179 E98.78103
G1 X18.57 Y166.834 E98.80896
G1 X18.23 Y166.595 E98.83798
G1 X17.918 Y166.522 E98.86036
G1 X4.797 Y166.52 E99.77682
G1 X4.796 Y33.48 E109.06917
G1 X17.917 Y33.478 E109.98562
G1 X18.171 Y33.427 E110.00372
G1 X18.403 Y33.308 E110.02193
G1 X18.638 Y33.085 E110.04455
G1 X18.778 Y32.809 E110.06617
G1 X18.828 Y32.525 E110.08631
G1 X18.83 Y30.98 E110.19422
G1 X66.07 Y30.98 E113.49376
G1 X66.07 Y32.652 E113.61055
G1 X66.27 Y33.096 E113.64456
G1 X66.559 Y33.349 E113.67139
G1 X66.895 Y33.466 E113.69624
G1 X82.903 Y33.479 E114.81434
G1 X83.188 Y33.421 E114.83465
G1 X83.382 Y33.325 E114.84977
G1 X83.622 Y33.103 E114.8726
G1 X83.83 Y32.702 E114.90416
G1 X83.83 Y30.98 E115.02443
G1 X131.07 Y30.98 E118.32397
G1 X131.07 Y32.652 E118.44075
G1 X131.237 Y33.047 E118.47071
G1 X131.389 Y33.226 E118.48711
G1 X131.67 Y33.404 E118.51034
G1 X131.893 Y33.468 E118.52655
G1 X147.894 Y33.48 E119.64416
G1 X148.245 Y33.4 E119.6693
G1 X148.56 Y33.177 E119.69626
G1 X148.773 Y32.816 E119.72553
G1 X148.828 Y32.526 E119.74615
G1 X148.83 Y30.98 E119.85413
G1 X196.068 Y30.98 E123.15353
G1 X196.068 Y169.02 E132.79511
G1 X148.83 Y169.02 E136.09451
G1 X148.828 Y167.47 E136.20277
G1 X148.773 Y167.184 E136.22312
G1 X148.56 Y166.821 E136.25251
G1 X148.34 Y166.65 E136.27198
G1 X147.963 Y166.527 E136.29967
G1 X131.924 Y166.529 E137.41994
G1 X131.523 Y166.675 E137.44974
G1 X131.26 Y166.917 E137.47471
G1 X131.07 Y167.298 E137.50444
G1 X131.07 Y169.02 E137.62472
G1 X83.83 Y169.02 E140.92426
G1 X83.83 Y167.348 E141.04104
G1 X83.64 Y166.917 E141.07394
G1 X83.392 Y166.683 E141.09776
G1 X83.16 Y166.57 E141.11578
G1 X82.882 Y166.519 E141.13552
G1 X66.998 Y166.521 E142.24496
G1 X66.594 Y166.632 E142.27422
G1 X66.255 Y166.924 E142.30547
G0 F3000 X66.15 Y166.924
G0 X5.098 Y166.319
G1 F900 X4.996 Y166.216 E142.3156
G0 F3000 X4.996 Y165.651
G1 F900 X5.664 Y166.319 E142.38158
G0 F3000 X6.23 Y166.319
G1 F900 X4.996 Y165.085 E142.50347
G0 F3000 X4.996 Y164.519
G1 F900 X6.796 Y166.319 E142.68127
G0 F3000 X7.361 Y166.319
G1 F900 X4.996 Y163.954 E142.91488
G0 F3000 X4.996 Y163.388
G1 F900 X7.927 Y166.319 E143.2044
G0 F3000 X8.493 Y166.319
G1 F900 X4.996 Y162.822 E143.54982
G0 F3000 X4.996 Y162.256
G1 F900 X9.058 Y166.319 E143.95111
G0 F3000 X9.624 Y166.319
G1 F900 X4.996 Y161.691 E144.40825
G0 F3000 X4.996 Y161.125
G1 F900 X10.19 Y166.319 E144.9213
G0 F3000 X10.755 Y166.319
G1 F900 X4.996 Y160.559 E145.49021
G0 F3000 X4.996 Y159.994
G1 F900 X11.321 Y166.319 E146.11498
G0 F3000 X11.887 Y166.32
G1 F900 X4.996 Y159.428 E146.7957
G0 F3000 X4.996 Y158.862
G1 F900 X12.453 Y166.32 E147.53234
G0 F3000 X13.019 Y166.32
G1 F900 X4.996 Y158.297 E148.32483
G0 F3000 X4.996 Y157.731
G1 F900 X13.584 Y166.32 E149.17318
G0 F3000 X14.15 Y166.32
G1 F900 X4.996 Y157.165 E150.07744
G0 F3000 X4.996 Y156.6
G1 F900 X14.716 Y166.32 E151.03756
G0 F3000 X15.281 Y166.32
G1 F900 X4.996 Y156.034 E152.05354
G0 F3000 X4.996 Y155.468
G1 F900 X15.847 Y166.32 E153.12542
G0 F3000 X16.413 Y166.32
G1 F900 X4.996 Y154.903 E154.25316
G0 F3000 X4.996 Y154.337
G1 F900 X16.979 Y166.32 E155.43681
G0 F3000 X17.544 Y166.32
G1 F900 X4.996 Y153.771 E156.67633
G0 F3000 X4.996 Y153.205
G1 F900 X18.182 Y166.392 E157.97886
G1 X18.252 Y166.462
G0 F3000 X18.963 Y167.173
G1 F900 X20.609 Y168.818 E158.14139
G0 F3000 X20.043 Y168.818
G1 F900 X19.029 Y167.804 E158.24155
G0 F3000 X19.029 Y168.37
G1 F900 X19.477 Y168.818 E158.28581
G0 F3000 X21.175 Y168.818
G1 F900 X4.996 Y152.64 E159.88388
G0 F3000 X4.996 Y152.074
G1 F900 X21.74 Y168.818 E161.53781
G0 F3000 X22.306 Y168.818
G1 F900 X4.996 Y151.508 E163.24765
G0 F3000 X4.996 Y150.943
G1 F900 X22.872 Y168.818 E165.01335
G0 F3000 X23.437 Y168.818
G1 F900 X4.996 Y150.377 E166.83491
G0 F3000 X4.996 Y149.811
G1 F900 X24.003 Y168.818 E168.71237
G0 F3000 X24.569 Y168.818
G1 F900 X4.996 Y149.246 E170.64569
G0 F3000 X4.996 Y148.68
G1 F900 X25.134 Y168.818 E172.63488
G0 F3000 X25.7 Y168.818
G1 F900 X4.996 Y148.114 E174.67997
G0 F3000 X4.996 Y147.549
G1 F900 X26.266 Y168.818 E176.78092
G0 F3000 X26.831 Y168.818
G1 F900 X4.996 Y146.983 E178.93773
G0 F3000 X4.996 Y146.417
G1 F900 X27.397 Y168.818 E181.15044
G0 F3000 X27.963 Y168.818
G1 F900 X4.996 Y145.852 E183.41902
G0 F3000 X4.996 Y145.286
G1 F900 X28.528 Y168.818 E185.74345
G0 F3000 X29.094 Y168.818
G1 F900 X4.996 Y144.72 E188.12379
G0 F3000 X4.996 Y144.155
G1 F900 X29.66 Y168.818 E190.55999
G0 F3000 X30.225 Y168.818
G1 F900 X4.996 Y143.589 E193.05205
G0 F3000 X4.996 Y143.023
G1 F900 X30.791 Y168.818 E195.60002
G0 F3000 X31.357 Y168.818
G1 F900 X4.996 Y142.457 E198.20389
G0 F3000 X4.996 Y141.892
G1 F900 X31.923 Y168.818 E200.86363
G0 F3000 X32.488 Y168.818
G1 F900 X4.996 Y141.326 E203.57922
G0 F3000 X4.996 Y140.76
G1 F900 X33.054 Y168.818 E206.35072
G0 F3000 X33.62 Y168.818
G1 F900 X4.996 Y140.195 E209.17808
G0 F3000 X4.996 Y139.629
G1 F900 X34.185 Y168.818 E212.0613
G0 F3000 X34.751 Y168.818
G1 F900 X4.996 Y139.063 E215.00043
G0 F3000 X4.996 Y138.498
G1 F900 X35.317 Y168.818 E217.99541
G0 F3000 X35.882 Y168.818
G1 F900 X4.996 Y137.932 E221.04625
G0 F3000 X4.996 Y137.366
G1 F900 X36.448 Y168.818 E224.15301
G0 F3000 X37.014 Y168.818
G1 F900 X4.996 Y136.801 E227.31562
G0 F3000 X4.996 Y136.235
G1 F900 X37.579 Y168.818 E230.53409
G0 F3000 X38.145 Y168.818
G1 F900 X4.996 Y135.669 E233.80846
G0 F3000 X4.996 Y135.104
G1 F900 X38.711 Y168.818 E237.1387
G0 F3000 X39.276 Y168.818
G1 F900 X4.996 Y134.538 E240.52479
G0 F3000 X4.996 Y133.972
G1 F900 X39.842 Y168.818 E243.9668
G0 F3000 X40.408 Y168.818
G1 F900 X4.996 Y133.407 E247.46466
G0 F3000 X4.996 Y132.841
G1 F900 X40.974 Y168.818 E251.01843
G0 F3000 X41.539 Y168.818
G1 F900 X4.996 Y132.275 E254.62806
G0 F3000 X4.996 Y131.709
G1 F900 X42.105 Y168.818 E258.29359
G0 F3000 X42.671 Y168.818
G1 F900 X4.996 Y131.144 E262.01499
G0 F3000 X4.996 Y130.578
G1 F900 X43.236 Y168.818 E265.79224
G0 F3000 X43.802 Y168.818
G1 F900 X4.996 Y130.012 E269.6254
G0 F3000 X4.996 Y129.447
G1 F900 X44.368 Y168.818 E273.51443
G0 F3000 X44.933 Y168.818
G1 F900 X4.996 Y128.881 E277.4593
G0 F3000 X4.996 Y128.315
G1 F900 X45.499 Y168.818 E281.46009
G0 F3000 X46.065 Y168.818
G1 F900 X4.996 Y127.75 E285.51674
G0 F3000 X4.996 Y127.184
G1 F900 X46.63 Y168.818 E289.62924
G0 F3000 X47.196 Y168.818
G1 F900 X4.996 Y126.618 E293.79766
G0 F3000 X4.996 Y126.053
G1 F900 X47.762 Y168.818 E298.02193
G0 F3000 X48.327 Y168.818
G1 F900 X4.996 Y125.487 E302.30206
G0 F3000 X4.996 Y124.921
G1 F900 X48.893 Y168.818 E306.6381
G0 F3000 X49.459 Y168.818
G1 F900 X4.996 Y124.356 E311.03
G0 F3000 X4.996 Y123.79
G1 F900 X50.024 Y168.818 E315.47775
G0 F3000 X50.59 Y168.818
G1 F900 X4.996 Y123.224 E319.98142
G0 F3000 X4.996 Y122.658
G1 F900 X51.156 Y168.818 E324.54099
G0 F3000 X51.722 Y168.818
G1 F900 X4.996 Y122.093 E329.15642
G0 F3000 X4.996 Y121.527
G1 F900 X52.287 Y168.818 E333.82771
G0 F3000 X52.853 Y168.818
G1 F900 X4.996 Y120.961 E338.55491
G0 F3000 X4.996 Y120.396
G1 F900 X53.419 Y168.818 E343.33796
G0 F3000 X53.984 Y168.818
G1 F900 X4.996 Y119.83 E348.17688
G0 F3000 X4.996 Y119.264
G1 F900 X54.55 Y168.818 E353.0717
G0 F3000 X55.116 Y168.818
G1 F900 X4.996 Y118.699 E358.02238
G0 F3000 X4.996 Y118.133
G1 F900 X55.681 Y168.818 E363.02892
G0 F3000 X56.247 Y168.818
G1 F900 X4.996 Y117.567 E368.09137
G0 F3000 X4.996 Y117.002
G1 F900 X56.813 Y168.818 E373.20968
G0 F3000 X57.378 Y168.818
G1 F900 X4.996 Y116.436 E378.38385
G0 F3000 X4.996 Y115.87
G1 F900 X57.944 Y168.818 E383.61392
G0 F3000 X58.51 Y168.818
G1 F900 X4.996 Y115.305 E388.89985
G0 F3000 X4.996 Y114.739
G1 F900 X59.075 Y168.818 E394.24165
G0 F3000 X59.641 Y168.818
G1 F900 X4.996 Y114.173 E399.63935
G0 F3000 X4.996 Y113.608
G1 F900 X60.207 Y168.818 E405.0929
G0 F3000 X60.772 Y168.818
G1 F900 X4.996 Y113.042 E410.60232
G0 F3000 X4.996 Y112.476
G1 F900 X61.338 Y168.818 E416.16765
G0 F3000 X61.904 Y168.818
G1 F900 X4.996 Y111.91 E421.78888
G0 F3000 X4.996 Y111.345
G1 F900 X62.47 Y168.818 E427.46597
G0 F3000 X63.035 Y168.818
G1 F900 X4.996 Y110.779 E433.19892
G0 F3000 X4.996 Y110.213
G1 F900 X63.601 Y168.818 E438.98778
G0 F3000 X64.167 Y168.818
G1 F900 X4.996 Y109.648 E444.8325
G0 F3000 X4.996 Y109.082
G1 F900 X64.732 Y168.818 E450.73308
G0 F3000 X65.298 Y168.818
G1 F900 X4.996 Y108.516 E456.68956
G0 F3000 X4.996 Y107.951
G1 F900 X65.864 Y168.818 E462.7019
G0 F3000 X65.87 Y168.259
G1 F900 X4.996 Y107.385 E468.71489
G0 F3000 X4.996 Y106.819
G1 F900 X65.87 Y167.693 E474.72787
G0 F3000 X65.911 Y167.169
G1 F900 X4.996 Y106.254 E480.74491
G0 F3000 X4.996 Y105.688
G1 F900 X66.103 Y166.795 E486.78091
G0 F3000 X66.4 Y166.527
G1 F900 X4.996 Y105.122 E492.8463
G0 F3000 X4.996 Y104.557
G1 F900 X66.807 Y166.368 E498.95184
G0 F3000 X67.326 Y166.321
G1 F900 X4.996 Y103.991 E505.10864
G0 F3000 X4.996 Y103.425
G1 F900 X67.892 Y166.321 E511.32136
G0 F3000 X68.457 Y166.321
G1 F900 X4.996 Y102.859 E517.58993
G0 F3000 X4.996 Y102.294
G1 F900 X69.023 Y166.321 E523.91436
G0 F3000 X69.589 Y166.321
G1 F900 X4.996 Y101.728 E530.2947
G0 F3000 X4.996 Y101.162
G1 F900 X70.154 Y166.32 E536.73085
G0 F3000 X70.719 Y166.32
G1 F900 X4.996 Y100.597 E543.2228
G0 F3000 X4.996 Y100.031
G1 F900 X71.285 Y166.32 E549.77067
G0 F3000 X71.851 Y166.32
G1 F900 X4.996 Y99.465 E556.37444
G0 F3000 X4.996 Y98.9
G1 F900 X72.416 Y166.32 E563.03403
G0 F3000 X72.981 Y166.32
G1 F900 X4.996 Y98.334 E569.74947
G0 F3000 X4.996 Y97.768
G1 F900 X73.547 Y166.32 E576.52082
G0 F3000 X74.113 Y166.32
G1 F900 X4.996 Y97.203 E583.34803
G0 F3000 X4.996 Y96.637
G1 F900 X74.678 Y166.32 E590.23109
G0 F3000 X75.243 Y166.319
G1 F900 X4.996 Y96.071 E597.16997
G0 F3000 X4.996 Y95.506
G1 F900 X75.809 Y166.319 E604.16471
G0 F3000 X76.375 Y166.319
G1 F900 X4.996 Y94.94 E611.21535
G0 F3000 X4.996 Y94.374
G1 F900 X76.94 Y166.319 E618.32185
G0 F3000 X77.506 Y166.319
G1 F900 X4.996 Y93.809 E625.48421
G0 F3000 X4.996 Y93.243
G1 F900 X78.071 Y166.318 E632.70238
G0 F3000 X78.637 Y166.318
G1 F900 X4.996 Y92.677 E639.97646
G0 F3000 X4.996 Y92.111
G1 F900 X79.203 Y166.318 E647.30645
G0 F3000 X79.768 Y166.318
G1 F900 X4.996 Y91.546 E654.69224
G0 F3000 X4.996 Y90.98
G1 F900 X80.333 Y166.317 E662.13385
G0 F3000 X80.899 Y166.317
G1 F900 X4.996 Y90.414 E669.63136
G0 F3000 X4.996 Y89.849
G1 F900 X81.465 Y166.317 E677.18474
G0 F3000 X82.03 Y166.317
G1 F900 X4.996 Y89.283 E684.79397
G0 F3000 X4.996 Y88.717
G1 F900 X82.596 Y166.317 E692.4591
G0 F3000 X83.232 Y166.388
G1 F900 X4.996 Y88.152 E700.18707
G0 F3000 X4.996 Y87.586
G1 F900 X86.228 Y168.818 E708.21096
G0 F3000 X85.663 Y168.818
G1 F900 X83.963 Y167.119 E708.37884
G0 F3000 X84.029 Y167.751
G1 F900 X85.097 Y168.818 E708.48428
G0 F3000 X84.531 Y168.818
G1 F900 X84.029 Y168.316 E708.53387
G0 F3000 X86.794 Y168.818
G1 F900 X4.996 Y87.02 E716.61368
G0 F3000 X4.996 Y86.455
G1 F900 X87.36 Y168.818 E724.74934
G0 F3000 X87.925 Y168.818
G1 F900 X4.996 Y85.889 E732.94087
G0 F3000 X4.996 Y85.323
G1 F900 X88.491 Y168.818 E741.1883
G0 F3000 X89.057 Y168.818
G1 F900 X4.996 Y84.758 E749.49159
G0 F3000 X4.996 Y84.192
G1 F900 X89.622 Y168.818 E757.85074
G0 F3000 X90.188 Y168.818
G1 F900 X4.996 Y83.626 E766.2658
G0 F3000 X4.996 Y83.061
G1 F900 X90.754 Y168.818 E774.73671
G0 F3000 X91.32 Y168.818
G1 F900 X4.996 Y82.495 E783.26354
G0 F3000 X4.996 Y81.929
G1 F900 X91.885 Y168.818 E791.84622
G0 F3000 X92.451 Y168.818
G1 F900 X4.996 Y81.363 E800.48481
G0 F3000 X4.996 Y80.798
G1 F900 X93.017 Y168.818 E809.17926
G0 F3000 X93.582 Y168.818
G1 F900 X4.996 Y80.232 E817.92957
G0 F3000 X4.996 Y79.666
G1 F900 X94.148 Y168.818 E826.73579
G0 F3000 X94.714 Y168.818
G1 F900 X4.996 Y79.101 E835.59787
G0 F3000 X4.996 Y78.535
G1 F900 X95.279 Y168.818 E844.5158
G0 F3000 X95.845 Y168.818
G1 F900 X4.996 Y77.969 E853.48964
G0 F3000 X4.996 Y77.404
G1 F900 X96.411 Y168.818 E862.51935
G0 F3000 X96.976 Y168.818
G1 F900 X4.996 Y76.838 E871.60491
G0 F3000 X4.996 Y76.272
G1 F900 X97.542 Y168.818 E880.74637
G0 F3000 X98.108 Y168.818
G1 F900 X4.996 Y75.707 E889.9437
G0 F3000 X4.996 Y75.141
G1 F900 X98.673 Y168.818 E899.19689
G0 F3000 X99.239 Y168.818
G1 F900 X4.996 Y74.575 E908.50598
G0 F3000 X4.996 Y74.01
G1 F900 X99.805 Y168.818 E917.87093
G0 F3000 X100.37 Y168.818
G1 F900 X4.996 Y73.444 E927.29174
G0 F3000 X4.996 Y72.878
G1 F900 X100.936 Y168.818 E936.76846
G0 F3000 X101.502 Y168.818
G1 F900 X4.996 Y72.312 E946.30109
G0 F3000 X4.996 Y71.747
G1 F900 X102.068 Y168.818 E955.88958
G0 F3000 X102.633 Y168.818
G1 F900 X4.996 Y71.181 E965.53392
G0 F3000 X4.996 Y70.615
G1 F900 X103.199 Y168.818 E975.23417
G0 F3000 X103.765 Y168.818
G1 F900 X4.996 Y70.05 E984.99029
G0 F3000 X4.996 Y69.484
