;FLAVOR:Marlin
;TIME:5334
;Filament used: 3.55495m
;Layer height: 0.2
;MINX:72.985
;MINY:79.211
;MINZ:0.25
;MAXX:127.015
;MAXY:120.788
;MAXZ:10.95
;TARGET_MACHINE.NAME:XYZprinting da Vinci 1.0 Pro
;Generated with Cura_SteamEngine 5.6.0
M140 S45
M105
M190 S45
M104 S190
M105
M109 S190
M82 ;absolute extrusion mode
G28 ; home all axes
G1 Z15 F5000 ; lift nozzle
G92 E0
G1 F200 E3

G92 E0
G92 E0
G1 F1800 E-4
;LAYER_COUNT:54
;LAYER:0
M106 S255
G0 F3000 X87.164 Y92.958 Z0.35
;TYPE:SKIRT
G1 F1800 E0
G1 X87.448 Y92.731 E0.02539
G1 X87.772 Y92.554 E0.05118
G1 X88.115 Y92.438 E0.07647
G1 X88.479 Y92.381 E0.10221
G1 X88.845 Y92.391 E0.12778
G1 X89.206 Y92.463 E0.15349
G1 X89.538 Y92.592 E0.17837
G1 X89.856 Y92.785 E0.20435
G1 X90.13 Y93.025 E0.22979
G1 X90.356 Y93.308 E0.25509
G1 X90.533 Y93.632 E0.28087
G1 X90.649 Y93.975 E0.30616
G1 X90.706 Y94.339 E0.3319
G1 X90.696 Y94.706 E0.35754
G1 X90.625 Y95.062 E0.3829
G1 X90.495 Y95.398 E0.40806
G1 X90.302 Y95.716 E0.43404
G1 X90.062 Y95.99 E0.45948
G1 X89.772 Y96.221 E0.48538
G1 X89.463 Y96.391 E0.51001
G1 X89.11 Y96.51 E0.53603
G1 X88.749 Y96.566 E0.56155
G1 X88.379 Y96.557 E0.5874
G1 X88.026 Y96.486 E0.61255
G1 X87.686 Y96.354 E0.63802
G1 X87.373 Y96.166 E0.66352
G1 X87.097 Y95.923 E0.68921
G1 X86.871 Y95.64 E0.7145
G1 X86.694 Y95.316 E0.74029
G1 X86.578 Y94.973 E0.76558
G1 X86.521 Y94.606 E0.79152
G1 X86.531 Y94.242 E0.81696
G1 X86.603 Y93.88 E0.84274
G1 X86.732 Y93.547 E0.86768
G1 X86.922 Y93.233 E0.89331
G1 X87.164 Y92.958 E0.9189
G0 F3000 X87.44 Y93.249
G1 F1800 X87.669 Y93.066 E0.93937
G1 X87.934 Y92.921 E0.96047
G1 X88.212 Y92.828 E0.98095
G1 X88.502 Y92.782 E1.00146
G1 X88.803 Y92.79 E1.02249
G1 X89.091 Y92.847 E1.04299
G1 X89.36 Y92.952 E1.06316
G1 X89.618 Y93.109 E1.08426
G1 X89.842 Y93.305 E1.10505
G1 X90.021 Y93.529 E1.12507
G1 X90.166 Y93.794 E1.14617
G1 X90.259 Y94.072 E1.16665
G1 X90.305 Y94.362 E1.18716
G1 X90.297 Y94.664 E1.20826
G1 X90.241 Y94.947 E1.22841
G1 X90.134 Y95.222 E1.24902
G1 X89.98 Y95.476 E1.26976
G1 X89.785 Y95.698 E1.2904
G1 X89.549 Y95.887 E1.31152
G1 X89.299 Y96.024 E1.33143
G1 X89.013 Y96.12 E1.3525
G1 X88.725 Y96.165 E1.37286
G1 X88.422 Y96.158 E1.39403
G1 X88.141 Y96.102 E1.41405
G1 X87.863 Y95.993 E1.4349
G1 X87.611 Y95.842 E1.45542
G1 X87.386 Y95.644 E1.47636
G1 X87.206 Y95.419 E1.49648
G1 X87.061 Y95.154 E1.51758
G1 X86.968 Y94.876 E1.53805
G1 X86.922 Y94.583 E1.55877
G1 X86.93 Y94.285 E1.57959
G1 X86.988 Y93.994 E1.60032
G1 X87.094 Y93.722 E1.62071
G1 X87.246 Y93.47 E1.64126
G1 X87.44 Y93.249 E1.6618
G0 F3000 X87.721 Y93.538
G1 F1800 X87.896 Y93.398 E1.67746
G1 X88.092 Y93.29 E1.69309
G1 X88.309 Y93.217 E1.70908
G1 X88.527 Y93.183 E1.72449
G1 X88.754 Y93.189 E1.74035
G1 X88.981 Y93.234 E1.75651
G1 X89.184 Y93.313 E1.77173
G1 X89.377 Y93.43 E1.78749
G1 X89.554 Y93.585 E1.80392
G1 X89.688 Y93.752 E1.81888
G1 X89.797 Y93.952 E1.83479
G1 X89.87 Y94.169 E1.85078
G1 X89.904 Y94.387 E1.86619
G1 X89.898 Y94.615 E1.88212
G1 X89.854 Y94.838 E1.898
G1 X89.772 Y95.047 E1.91368
G1 X89.658 Y95.235 E1.92903
G1 X89.505 Y95.41 E1.94527
G1 X89.327 Y95.552 E1.96117
G1 X89.135 Y95.657 E1.97646
G1 X88.918 Y95.731 E1.99247
G1 X88.701 Y95.764 E2.0078
G1 X88.465 Y95.759 E2.02429
G1 X88.253 Y95.716 E2.0394
G1 X88.039 Y95.633 E2.05543
G1 X87.848 Y95.518 E2.071
G1 X87.677 Y95.367 E2.08694
G1 X87.539 Y95.196 E2.10229
G1 X87.43 Y94.996 E2.11819
G1 X87.357 Y94.779 E2.13419
G1 X87.323 Y94.56 E2.14967
G1 X87.329 Y94.333 E2.16553
G1 X87.375 Y94.104 E2.18184
G1 X87.453 Y93.902 E2.19696
G1 X87.569 Y93.71 E2.21263
G1 X87.721 Y93.538 E2.22867
G1 F1800 E-1.77133
G0 F3000 X97.092 Y88.379
G1 F1800 E2.22867
G1 X96.976 Y88.036 E2.25396
G1 X96.919 Y87.668 E2.27997
G1 X96.929 Y87.305 E2.30533
G1 X97.001 Y86.942 E2.33118
G1 X97.128 Y86.614 E2.35574
G1 X97.323 Y86.294 E2.38192
G1 X97.563 Y86.02 E2.40736
G1 X97.846 Y85.794 E2.43266
G1 X98.17 Y85.617 E2.45844
G1 X98.513 Y85.501 E2.48373
G1 X98.877 Y85.444 E2.50947
G1 X99.244 Y85.454 E2.53511
G1 X99.605 Y85.526 E2.56082
G1 X99.937 Y85.655 E2.5857
G1 X100.255 Y85.848 E2.61168
G1 X100.529 Y86.088 E2.63712
G1 X100.755 Y86.371 E2.66242
G1 X100.932 Y86.695 E2.6882
G1 X101.048 Y87.038 E2.71349
G1 X101.105 Y87.402 E2.73923
G1 X101.095 Y87.769 E2.76487
G1 X101.023 Y88.129 E2.79051
G1 X100.894 Y88.461 E2.81539
G1 X100.699 Y88.783 E2.84169
G1 X100.465 Y89.05 E2.86648
G1 X100.176 Y89.28 E2.89228
G1 X99.858 Y89.455 E2.91763
G1 X99.509 Y89.573 E2.94337
G1 X99.145 Y89.63 E2.9691
G1 X98.777 Y89.62 E2.99481
G1 X98.423 Y89.549 E3.02003
G1 X98.084 Y89.417 E3.04544
G1 X97.771 Y89.229 E3.07094
G1 X97.495 Y88.986 E3.09663
G1 X97.269 Y88.703 E3.12192
G1 X97.092 Y88.379 E3.14771
G0 F3000 X97.459 Y88.217
G1 F1800 X97.365 Y87.939 E3.16821
G1 X97.32 Y87.645 E3.18898
G1 X97.328 Y87.347 E3.2098
G1 X97.386 Y87.057 E3.23046
G1 X97.488 Y86.793 E3.25023
G1 X97.646 Y86.533 E3.27148
G1 X97.843 Y86.308 E3.29236
G1 X98.067 Y86.129 E3.31239
G1 X98.332 Y85.984 E3.33349
G1 X98.61 Y85.891 E3.35397
G1 X98.9 Y85.845 E3.37447
G1 X99.202 Y85.853 E3.39558
G1 X99.49 Y85.91 E3.41608
G1 X99.759 Y86.015 E3.43625
G1 X100.017 Y86.172 E3.45735
G1 X100.241 Y86.368 E3.47813
G1 X100.42 Y86.592 E3.49816
G1 X100.565 Y86.857 E3.51926
G1 X100.658 Y87.135 E3.53974
G1 X100.704 Y87.425 E3.56024
G1 X100.696 Y87.726 E3.58128
G1 X100.639 Y88.014 E3.60178
G1 X100.533 Y88.286 E3.62217
G1 X100.377 Y88.543 E3.64317
G1 X100.188 Y88.758 E3.66316
G1 X99.953 Y88.946 E3.68418
G1 X99.694 Y89.088 E3.70482
G1 X99.412 Y89.183 E3.7256
G1 X99.12 Y89.229 E3.74625
G1 X98.821 Y89.221 E3.76714
G1 X98.538 Y89.164 E3.7873
G1 X98.261 Y89.056 E3.80807
G1 X98.009 Y88.905 E3.82859
G1 X97.784 Y88.707 E3.84952
G1 X97.604 Y88.482 E3.86965
G1 X97.459 Y88.217 E3.89074
G0 F3000 X97.828 Y88.059
G1 F1800 X97.755 Y87.842 E3.90674
G1 X97.721 Y87.622 E3.92228
G1 X97.727 Y87.396 E3.93808
G1 X97.773 Y87.166 E3.95446
G1 X97.85 Y86.966 E3.96943
G1 X97.967 Y86.775 E3.98507
G1 X98.123 Y86.596 E4.00166
G1 X98.29 Y86.462 E4.01661
G1 X98.49 Y86.353 E4.03252
G1 X98.707 Y86.28 E4.04851
G1 X98.925 Y86.246 E4.06392
G1 X99.153 Y86.252 E4.07985
G1 X99.38 Y86.297 E4.09602
G1 X99.583 Y86.376 E4.11123
G1 X99.776 Y86.493 E4.12699
G1 X99.953 Y86.648 E4.14343
G1 X100.087 Y86.815 E4.15838
G1 X100.196 Y87.015 E4.17429
G1 X100.269 Y87.232 E4.19028
G1 X100.303 Y87.45 E4.20569
G1 X100.297 Y87.678 E4.22162
G1 X100.252 Y87.904 E4.23772
G1 X100.172 Y88.111 E4.25322
G1 X100.053 Y88.306 E4.26918
G1 X99.909 Y88.47 E4.28442
G1 X99.731 Y88.612 E4.30032
G1 X99.535 Y88.72 E4.31595
G1 X99.317 Y88.793 E4.33201
G1 X99.097 Y88.828 E4.34757
G1 X98.864 Y88.822 E4.36385
G1 X98.65 Y88.779 E4.3791
G1 X98.437 Y88.696 E4.39506
G1 X98.246 Y88.581 E4.41064
G1 X98.075 Y88.43 E4.42657
G1 X97.937 Y88.259 E4.44192
G1 X97.828 Y88.059 E4.45783
G1 F1800 E0.45783
G0 F3000 X108.336 Y92.149
G1 F1800 E4.45783
G1 X108.53 Y91.831 E4.48384
G1 X108.77 Y91.557 E4.50929
G1 X109.053 Y91.331 E4.53458
G1 X109.377 Y91.154 E4.56037
G1 X109.72 Y91.038 E4.58566
G1 X110.084 Y90.981 E4.61139
G1 X110.451 Y90.991 E4.63704
G1 X110.811 Y91.063 E4.66268
G1 X111.143 Y91.192 E4.68756
G1 X111.465 Y91.387 E4.71385
G1 X111.732 Y91.621 E4.73865
G1 X111.962 Y91.91 E4.76444
G1 X112.14 Y92.233 E4.7902
G1 X112.253 Y92.568 E4.8149
G1 X112.312 Y92.941 E4.84127
G1 X112.302 Y93.308 E4.86692
G1 X112.231 Y93.661 E4.89207
G1 X112.098 Y94.004 E4.91776
G1 X111.912 Y94.312 E4.94289
G1 X111.668 Y94.59 E4.96873
G1 X111.383 Y94.817 E4.99418
G1 X111.065 Y94.992 E5.01953
G1 X110.715 Y95.11 E5.04533
G1 X110.353 Y95.166 E5.07091
G1 X109.984 Y95.157 E5.09669
G1 X109.631 Y95.086 E5.12184
G1 X109.291 Y94.954 E5.14732
G1 X108.978 Y94.766 E5.17282
G1 X108.702 Y94.523 E5.19851
G1 X108.476 Y94.24 E5.2238
G1 X108.299 Y93.916 E5.24959
G1 X108.183 Y93.573 E5.27488
G1 X108.126 Y93.209 E5.30061
G1 X108.136 Y92.842 E5.32626
G1 X108.208 Y92.48 E5.35204
G1 X108.336 Y92.149 E5.37682
G0 F3000 X108.698 Y92.323
G1 F1800 X108.85 Y92.073 E5.39726
G1 X109.05 Y91.845 E5.41844
G1 X109.274 Y91.666 E5.43847
G1 X109.539 Y91.521 E5.45957
G1 X109.817 Y91.428 E5.48004
G1 X110.107 Y91.382 E5.50055
G1 X110.408 Y91.39 E5.52158
G1 X110.696 Y91.447 E5.54209
G1 X110.968 Y91.553 E5.56248
G1 X111.225 Y91.709 E5.58348
G1 X111.44 Y91.898 E5.60347
G1 X111.628 Y92.133 E5.62449
G1 X111.773 Y92.397 E5.64553
G1 X111.863 Y92.665 E5.66528
G1 X111.911 Y92.966 E5.68656
G1 X111.903 Y93.265 E5.70746
G1 X111.847 Y93.546 E5.72747
G1 X111.738 Y93.826 E5.74846
G1 X111.59 Y94.072 E5.76851
G1 X111.391 Y94.298 E5.78954
G1 X111.16 Y94.483 E5.81021
G1 X110.899 Y94.626 E5.831
G1 X110.62 Y94.72 E5.85156
G1 X110.329 Y94.765 E5.87213
G1 X110.027 Y94.758 E5.89323
G1 X109.746 Y94.702 E5.91324
G1 X109.468 Y94.593 E5.9341
G1 X109.216 Y94.442 E5.95462
G1 X108.991 Y94.244 E5.97555
G1 X108.811 Y94.019 E5.99568
G1 X108.666 Y93.754 E6.01677
G1 X108.573 Y93.476 E6.03725
G1 X108.527 Y93.186 E6.05776
G1 X108.535 Y92.885 E6.07879
G1 X108.593 Y92.594 E6.09951
G1 X108.698 Y92.323 E6.11981
G0 F3000 X109.057 Y92.503
G1 F1800 X109.174 Y92.312 E6.13546
G1 X109.33 Y92.133 E6.15204
G1 X109.497 Y91.999 E6.167
G1 X109.697 Y91.89 E6.18291
G1 X109.914 Y91.817 E6.1989
G1 X110.132 Y91.783 E6.21431
G1 X110.36 Y91.789 E6.23024
G1 X110.586 Y91.834 E6.24633
G1 X110.793 Y91.914 E6.26183
G1 X110.988 Y92.033 E6.27779
G1 X111.152 Y92.177 E6.29303
G1 X111.294 Y92.355 E6.30894
G1 X111.404 Y92.554 E6.32482
G1 X111.474 Y92.762 E6.34015
G1 X111.51 Y92.99 E6.35627
G1 X111.504 Y93.221 E6.37241
G1 X111.462 Y93.432 E6.38744
G1 X111.377 Y93.649 E6.40372
G1 X111.263 Y93.839 E6.41919
G1 X111.115 Y94.007 E6.43483
G1 X110.934 Y94.151 E6.45098
G1 X110.741 Y94.258 E6.4664
G1 X110.525 Y94.33 E6.4823
G1 X110.305 Y94.364 E6.49785
G1 X110.07 Y94.359 E6.51427
G1 X109.858 Y94.316 E6.52938
G1 X109.644 Y94.233 E6.54541
G1 X109.453 Y94.118 E6.56098
G1 X109.282 Y93.967 E6.57691
G1 X109.144 Y93.796 E6.59226
G1 X109.034 Y93.593 E6.60839
G1 X108.962 Y93.379 E6.62416
G1 X108.928 Y93.161 E6.63957
G1 X108.934 Y92.933 E6.6555
G1 X108.98 Y92.702 E6.67195
G1 X109.057 Y92.503 E6.68686
G1 F1800 E2.68686
G0 F3000 X110.892 Y103.455
G1 F1800 E6.68686
G1 X111.259 Y103.465 E6.7125
G1 X111.62 Y103.537 E6.73821
G1 X111.952 Y103.666 E6.76309
G1 X112.27 Y103.859 E6.78907
G1 X112.544 Y104.099 E6.81451
G1 X112.77 Y104.382 E6.83981
G1 X112.947 Y104.706 E6.86559
G1 X113.063 Y105.049 E6.89088
G1 X113.12 Y105.413 E6.91662
G1 X113.11 Y105.779 E6.94219
G1 X113.038 Y106.139 E6.96783
G1 X112.909 Y106.472 E6.99278
G1 X112.716 Y106.79 E7.01876
G1 X112.476 Y107.064 E7.0442
G1 X112.193 Y107.29 E7.0695
G1 X111.869 Y107.467 E7.09528
G1 X111.526 Y107.583 E7.12057
G1 X111.161 Y107.64 E7.14638
G1 X110.792 Y107.631 E7.17216
G1 X110.439 Y107.56 E7.19731
G1 X110.099 Y107.428 E7.22278
G1 X109.787 Y107.24 E7.24822
G1 X109.513 Y106.998 E7.27376
G1 X109.284 Y106.712 E7.29935
G1 X109.107 Y106.391 E7.32495
G1 X108.991 Y106.047 E7.35031
G1 X108.934 Y105.681 E7.37618
G1 X108.944 Y105.315 E7.40175
G1 X109.016 Y104.957 E7.42726
G1 X109.147 Y104.62 E7.45251
G1 X109.336 Y104.307 E7.47805
G1 X109.578 Y104.031 E7.50369
G1 X109.861 Y103.805 E7.52898
G1 X110.185 Y103.628 E7.55477
G1 X110.528 Y103.512 E7.58006
G1 X110.892 Y103.455 E7.6058
G0 F3000 X110.915 Y103.856
G1 F1800 X111.217 Y103.864 E7.6269
G1 X111.505 Y103.921 E7.6474
G1 X111.774 Y104.026 E7.66757
G1 X112.032 Y104.183 E7.68867
G1 X112.256 Y104.379 E7.70946
G1 X112.435 Y104.603 E7.72948
G1 X112.58 Y104.868 E7.75058
G1 X112.673 Y105.146 E7.77106
G1 X112.719 Y105.436 E7.79157
G1 X112.711 Y105.736 E7.81253
G1 X112.654 Y106.022 E7.8329
G1 X112.548 Y106.296 E7.85342
G1 X112.394 Y106.55 E7.87416
G1 X112.196 Y106.776 E7.89515
G1 X111.972 Y106.955 E7.91518
G1 X111.707 Y107.1 E7.93628
G1 X111.429 Y107.193 E7.95675
G1 X111.137 Y107.239 E7.9774
G1 X110.835 Y107.232 E7.9985
G1 X110.554 Y107.176 E8.01851
G1 X110.276 Y107.067 E8.03937
G1 X110.022 Y106.914 E8.06008
G1 X109.804 Y106.722 E8.08037
G1 X109.617 Y106.488 E8.10129
G1 X109.474 Y106.23 E8.12189
G1 X109.381 Y105.952 E8.14237
G1 X109.335 Y105.658 E8.16315
G1 X109.343 Y105.359 E8.18404
G1 X109.401 Y105.072 E8.20449
G1 X109.509 Y104.795 E8.22526
G1 X109.658 Y104.547 E8.24547
G1 X109.858 Y104.319 E8.26665
G1 X110.082 Y104.14 E8.28668
G1 X110.347 Y103.995 E8.30778
G1 X110.625 Y103.902 E8.32825
G1 X110.915 Y103.856 E8.34876
G0 F3000 X110.94 Y104.257
G1 F1800 X111.168 Y104.263 E8.36469
G1 X111.395 Y104.308 E8.38086
G1 X111.598 Y104.387 E8.39607
G1 X111.791 Y104.504 E8.41183
G1 X111.968 Y104.659 E8.42827
G1 X112.102 Y104.826 E8.44322
G1 X112.211 Y105.026 E8.45913
G1 X112.284 Y105.243 E8.47512
G1 X112.318 Y105.461 E8.49053
G1 X112.312 Y105.688 E8.50639
G1 X112.267 Y105.914 E8.52249
G1 X112.186 Y106.121 E8.53801
G1 X112.072 Y106.309 E8.55337
G1 X111.916 Y106.488 E8.56996
G1 X111.749 Y106.622 E8.58491
G1 X111.549 Y106.731 E8.60082
G1 X111.332 Y106.804 E8.61681
G1 X111.113 Y106.838 E8.63229
G1 X110.878 Y106.833 E8.64871
G1 X110.666 Y106.79 E8.66382
G1 X110.459 Y106.709 E8.67934
G1 X110.262 Y106.591 E8.69538
G1 X110.091 Y106.44 E8.71132
G1 X109.952 Y106.267 E8.72682
G1 X109.841 Y106.066 E8.74285
G1 X109.771 Y105.856 E8.75832
G1 X109.736 Y105.633 E8.77408
G1 X109.742 Y105.402 E8.79022
G1 X109.785 Y105.187 E8.80554
G1 X109.868 Y104.974 E8.8215
G1 X109.983 Y104.784 E8.83702
G1 X110.138 Y104.607 E8.85345
G1 X110.305 Y104.473 E8.8684
G1 X110.505 Y104.364 E8.88431
G1 X110.722 Y104.291 E8.9003
G1 X110.94 Y104.257 E8.91571
G1 F1800 E4.91571
G0 F3000 X102.371 Y111.319
G1 F1800 E8.91571
G1 X102.548 Y111.643 E8.9415
G1 X102.664 Y111.986 E8.96679
G1 X102.721 Y112.351 E8.99259
G1 X102.712 Y112.719 E9.01831
G1 X102.642 Y113.071 E9.04337
G1 X102.509 Y113.411 E9.06887
G1 X102.321 Y113.724 E9.09438
G1 X102.08 Y113.999 E9.11991
G1 X101.793 Y114.228 E9.14556
G1 X101.47 Y114.404 E9.17125
G1 X101.127 Y114.52 E9.19654
G1 X100.763 Y114.577 E9.22228
G1 X100.397 Y114.567 E9.24785
G1 X100.035 Y114.495 E9.27363
G1 X99.702 Y114.366 E9.29857
G1 X99.388 Y114.176 E9.32421
G1 X99.113 Y113.934 E9.34979
G1 X98.886 Y113.65 E9.37519
G1 X98.709 Y113.326 E9.40097
G1 X98.593 Y112.983 E9.42626
G1 X98.536 Y112.619 E9.452
G1 X98.546 Y112.253 E9.47757
G1 X98.618 Y111.892 E9.50328
G1 X98.748 Y111.558 E9.52832
G1 X98.94 Y111.242 E9.55414
G1 X99.18 Y110.968 E9.57958
G1 X99.463 Y110.742 E9.60488
G1 X99.787 Y110.565 E9.63067
G1 X100.13 Y110.449 E9.65596
G1 X100.494 Y110.392 E9.68169
G1 X100.86 Y110.402 E9.70726
G1 X101.222 Y110.474 E9.73304
G1 X101.555 Y110.603 E9.75799
G1 X101.869 Y110.793 E9.78362
G1 X102.144 Y111.035 E9.80921
G1 X102.371 Y111.319 E9.8346
G0 F3000 X102.036 Y111.54
G1 F1800 X102.181 Y111.805 E9.8557
G1 X102.274 Y112.083 E9.87617
G1 X102.32 Y112.375 E9.89682
G1 X102.313 Y112.678 E9.91799
G1 X102.258 Y112.953 E9.93758
G1 X102.147 Y113.236 E9.95881
G1 X101.997 Y113.486 E9.97917
G1 X101.8 Y113.711 E10.00006
G1 X101.57 Y113.894 E10.02059
G1 X101.311 Y114.036 E10.04122
G1 X101.03 Y114.13 E10.06192
G1 X100.74 Y114.176 E10.08243
G1 X100.44 Y114.168 E10.10339
G1 X100.149 Y114.11 E10.12411
G1 X99.877 Y114.004 E10.1445
G1 X99.625 Y113.852 E10.16506
G1 X99.404 Y113.658 E10.1856
G1 X99.221 Y113.429 E10.20607
G1 X99.076 Y113.164 E10.22717
G1 X98.983 Y112.886 E10.24765
G1 X98.937 Y112.596 E10.26815
G1 X98.945 Y112.295 E10.28919
G1 X99.002 Y112.007 E10.30969
G1 X99.107 Y111.738 E10.32986
G1 X99.264 Y111.48 E10.35096
G1 X99.46 Y111.256 E10.37174
G1 X99.684 Y111.077 E10.39177
G1 X99.949 Y110.932 E10.41287
G1 X100.227 Y110.839 E10.43335
G1 X100.517 Y110.793 E10.45385
G1 X100.817 Y110.801 E10.47482
G1 X101.108 Y110.859 E10.49554
G1 X101.38 Y110.965 E10.51593
G1 X101.632 Y111.117 E10.53649
G1 X101.853 Y111.311 E10.55703
G1 X102.036 Y111.54 E10.5775
G0 F3000 X101.704 Y111.767
G1 F1800 X101.812 Y111.963 E10.59313
G1 X101.885 Y112.18 E10.60912
G1 X101.919 Y112.399 E10.6246
G1 X101.914 Y112.631 E10.64081
G1 X101.871 Y112.846 E10.65612
G1 X101.79 Y113.053 E10.67165
G1 X101.67 Y113.253 E10.68794
G1 X101.526 Y113.417 E10.70318
G1 X101.343 Y113.563 E10.71954
G1 X101.153 Y113.667 E10.73466
G1 X100.933 Y113.741 E10.75088
G1 X100.715 Y113.775 E10.76629
G1 X100.488 Y113.769 E10.78215
G1 X100.259 Y113.723 E10.79846
G1 X100.057 Y113.645 E10.81359
