;FLAVOR:Marlin
;TIME:7028
;Filament used: 5.08611m
;Layer height: 0.2
;MINX:30.2
;MINY:91.074
;MINZ:0.35
;MAXX:169.8
;MAXY:108.531
;MAXZ:17.35
;TARGET_MACHINE.NAME:XYZprinting da Vinci 1.0 Pro
;Generated with Cura_SteamEngine 5.6.0
M140 S45
M105
M190 S45
M104 S190
M105
M109 S190
M82 ;absolute extrusion mode
G28 ; home all axes
G1 Z15 F5000 ; lift nozzle
G92 E0
G1 F200 E3

G92 E0
G92 E0
G1 F1800 E-4
;LAYER_COUNT:86
;LAYER:0
M106 S255
;MESH:brace_V1.STL
G0 F3000 X166.969 Y104.583 Z0.35
;TYPE:WALL-INNER
G1 F1800 E0
G1 F900 X167.139 Y104.384 E0.01828
G1 X167.379 Y104.264 E0.03702
G1 X169.4 Y104.264 E0.17818
G1 X169.4 Y94.201 E0.88104
G1 X30.6 Y94.202 E10.57571
G1 X30.6 Y104.264 E11.2785
G1 X32.621 Y104.264 E11.41966
G1 X32.861 Y104.384 E11.4384
G1 X33.031 Y104.583 E11.45668
G1 X33.1 Y104.777 E11.47107
G1 X33.1 Y107.456 E11.65818
G1 X166.9 Y107.455 E21.00362
G1 X166.9 Y104.777 E21.19067
G1 X166.969 Y104.583 E21.20505
G0 F3000 X167.303 Y104.824
;TYPE:WALL-OUTER
G1 F900 X167.422 Y104.664 E21.21897
G1 X169.8 Y104.664 E21.38507
G1 X169.8 Y93.801 E22.14381
G1 X30.2 Y93.802 E31.89435
G1 X30.2 Y104.664 E32.65302
G1 X32.541 Y104.664 E32.81653
G1 X32.654 Y104.735 E32.82585
G1 X32.697 Y104.824 E32.83276
G1 X32.7 Y107.856 E33.04453
G1 X167.3 Y107.855 E42.44584
G1 X167.303 Y104.824 E42.65754
G0 F3000 X167.422 Y104.664
G0 X167.423 Y104.664
G0 X166.644 Y104.385
;TYPE:SKIN
G1 F900 X166.52 Y104.715 E42.68217
G1 X166.52 Y107.075 E42.847
G1 X33.48 Y107.076 E52.13935
G1 X33.478 Y104.835 E52.29588
G1 X33.415 Y104.51 E52.319
G1 X33.192 Y104.168 E52.34752
G1 X32.819 Y103.942 E52.37798
G1 X32.527 Y103.886 E52.39875
G1 X30.98 Y103.884 E52.5068
G1 X30.98 Y94.582 E53.15651
G1 X169.02 Y94.582 E62.79809
G1 X169.02 Y103.884 E63.4478
G1 X167.475 Y103.885 E63.55571
G1 X167.251 Y103.916 E63.57151
G1 X166.942 Y104.06 E63.59532
G1 X166.644 Y104.385 E63.62612
G0 F3000 X166.6 Y104.385
G0 X168.321 Y94.782
G1 F900 X168.819 Y95.28 E63.67531
G0 F3000 X168.819 Y95.846
G1 F900 X167.755 Y94.782 E63.78041
G0 F3000 X167.189 Y94.782
G1 F900 X168.819 Y96.411 E63.94137
G0 F3000 X168.819 Y96.977
G1 F900 X166.624 Y94.782 E64.15818
G0 F3000 X166.058 Y94.782
G1 F900 X168.819 Y97.543 E64.43091
G0 F3000 X168.819 Y98.108
G1 F900 X165.492 Y94.782 E64.75949
G0 F3000 X164.926 Y94.782
G1 F900 X168.819 Y98.674 E65.14398
G0 F3000 X168.819 Y99.24
G1 F900 X164.361 Y94.782 E65.58433
G0 F3000 X163.795 Y94.782
G1 F900 X168.819 Y99.806 E66.08059
G0 F3000 X168.819 Y100.371
G1 F900 X163.229 Y94.782 E66.63271
G0 F3000 X162.664 Y94.782
G1 F900 X168.819 Y100.937 E67.24068
G0 F3000 X168.819 Y101.503
G1 F900 X162.098 Y94.782 E67.90457
G0 F3000 X161.532 Y94.782
G1 F900 X168.819 Y102.068 E68.62431
G0 F3000 X168.819 Y102.634
G1 F900 X160.967 Y94.782 E69.39991
G0 F3000 X160.401 Y94.782
G1 F900 X168.819 Y103.2 E70.23142
G0 F3000 X168.737 Y103.683
G1 F900 X159.835 Y94.782 E71.11069
G0 F3000 X159.27 Y94.782
G1 F900 X168.173 Y103.685 E71.99011
G0 F3000 X167.609 Y103.686
G1 F900 X158.704 Y94.782 E72.86967
G0 F3000 X158.138 Y94.782
G1 F900 X167.111 Y103.754 E73.75595
G0 F3000 X166.754 Y103.963
G1 F900 X157.573 Y94.782 E74.66283
G0 F3000 X157.007 Y94.782
G1 F900 X166.493 Y104.267 E75.59978
G0 F3000 X166.341 Y104.681
G1 F900 X156.441 Y94.782 E76.57763
G0 F3000 X155.876 Y94.782
G1 F900 X166.319 Y105.225 E77.60917
G0 F3000 X166.319 Y105.79
G1 F900 X155.31 Y94.782 E78.69656
G0 F3000 X154.744 Y94.782
G1 F900 X166.319 Y106.356 E79.83986
G0 F3000 X166.272 Y106.875
G1 F900 X154.178 Y94.782 E81.03443
G0 F3000 X153.613 Y94.782
G1 F900 X165.706 Y106.875 E82.22894
G0 F3000 X165.141 Y106.875
G1 F900 X153.047 Y94.782 E83.42351
G0 F3000 X152.481 Y94.782
G1 F900 X164.575 Y106.875 E84.61808
G0 F3000 X164.009 Y106.875
G1 F900 X151.916 Y94.782 E85.81259
G0 F3000 X151.35 Y94.782
G1 F900 X163.444 Y106.875 E87.00716
G0 F3000 X162.878 Y106.875
G1 F900 X150.784 Y94.782 E88.20173
G0 F3000 X150.219 Y94.782
G1 F900 X162.312 Y106.875 E89.39624
G0 F3000 X161.747 Y106.875
G1 F900 X149.653 Y94.782 E90.59081
G0 F3000 X149.087 Y94.782
G1 F900 X161.181 Y106.875 E91.78538
G0 F3000 X160.615 Y106.875
G1 F900 X148.522 Y94.782 E92.97989
G0 F3000 X147.956 Y94.782
G1 F900 X160.05 Y106.875 E94.17446
G0 F3000 X159.484 Y106.875
G1 F900 X147.39 Y94.782 E95.36903
G0 F3000 X146.825 Y94.782
G1 F900 X158.918 Y106.875 E96.56354
G0 F3000 X158.353 Y106.875
G1 F900 X146.259 Y94.782 E97.75811
G0 F3000 X145.693 Y94.782
G1 F900 X157.787 Y106.875 E98.95268
G0 F3000 X157.221 Y106.875
G1 F900 X145.128 Y94.782 E100.14719
G0 F3000 X144.562 Y94.782
G1 F900 X156.655 Y106.875 E101.34171
G0 F3000 X156.09 Y106.875
G1 F900 X143.996 Y94.782 E102.53628
G0 F3000 X143.43 Y94.782
G1 F900 X155.524 Y106.875 E103.73084
G0 F3000 X154.958 Y106.875
G1 F900 X142.865 Y94.782 E104.92536
G0 F3000 X142.299 Y94.782
G1 F900 X154.393 Y106.875 E106.11993
G0 F3000 X153.827 Y106.875
G1 F900 X141.733 Y94.782 E107.31449
G0 F3000 X141.168 Y94.782
G1 F900 X153.261 Y106.875 E108.50901
G0 F3000 X152.696 Y106.875
G1 F900 X140.602 Y94.782 E109.70358
G0 F3000 X140.036 Y94.782
G1 F900 X152.13 Y106.875 E110.89814
G0 F3000 X151.564 Y106.875
G1 F900 X139.471 Y94.782 E112.09266
G0 F3000 X138.905 Y94.782
G1 F900 X150.999 Y106.875 E113.28723
G0 F3000 X150.433 Y106.875
G1 F900 X138.339 Y94.782 E114.48179
G0 F3000 X137.774 Y94.782
G1 F900 X149.867 Y106.875 E115.67631
G0 F3000 X149.302 Y106.875
G1 F900 X137.208 Y94.782 E116.87088
G0 F3000 X136.642 Y94.782
G1 F900 X148.736 Y106.875 E118.06544
G0 F3000 X148.17 Y106.875
G1 F900 X136.077 Y94.782 E119.25996
G0 F3000 X135.511 Y94.782
G1 F900 X147.605 Y106.875 E120.45453
G0 F3000 X147.039 Y106.875
G1 F900 X134.945 Y94.782 E121.64909
G0 F3000 X134.379 Y94.782
G1 F900 X146.473 Y106.875 E122.84366
G0 F3000 X145.907 Y106.875
G1 F900 X133.814 Y94.782 E124.03818
G0 F3000 X133.248 Y94.782
G1 F900 X145.342 Y106.875 E125.23274
G0 F3000 X144.776 Y106.875
G1 F900 X132.682 Y94.782 E126.42731
G0 F3000 X132.117 Y94.782
G1 F900 X144.21 Y106.875 E127.62183
G0 F3000 X143.645 Y106.875
G1 F900 X131.551 Y94.782 E128.81639
G0 F3000 X130.985 Y94.782
G1 F900 X143.079 Y106.875 E130.01096
G0 F3000 X142.513 Y106.875
G1 F900 X130.42 Y94.782 E131.20548
G0 F3000 X129.854 Y94.782
G1 F900 X141.948 Y106.875 E132.40004
G0 F3000 X141.382 Y106.875
G1 F900 X129.288 Y94.782 E133.59461
G0 F3000 X128.723 Y94.782
G1 F900 X140.816 Y106.875 E134.78913
G0 F3000 X140.251 Y106.875
G1 F900 X128.157 Y94.782 E135.98369
G0 F3000 X127.591 Y94.782
G1 F900 X139.685 Y106.875 E137.17826
G0 F3000 X139.119 Y106.875
G1 F900 X127.026 Y94.782 E138.37278
G0 F3000 X126.46 Y94.782
G1 F900 X138.554 Y106.875 E139.56734
G0 F3000 X137.988 Y106.875
G1 F900 X125.894 Y94.782 E140.76191
G0 F3000 X125.329 Y94.782
G1 F900 X137.422 Y106.875 E141.95643
G0 F3000 X136.856 Y106.875
G1 F900 X124.763 Y94.782 E143.15094
G0 F3000 X124.197 Y94.782
G1 F900 X136.291 Y106.875 E144.34551
G0 F3000 X135.725 Y106.875
G1 F900 X123.631 Y94.782 E145.54008
G0 F3000 X123.066 Y94.782
G1 F900 X135.159 Y106.875 E146.73459
G0 F3000 X134.594 Y106.875
G1 F900 X122.5 Y94.782 E147.92916
G0 F3000 X121.934 Y94.782
G1 F900 X134.028 Y106.875 E149.12373
G0 F3000 X133.462 Y106.875
G1 F900 X121.369 Y94.782 E150.31824
G0 F3000 X120.803 Y94.782
G1 F900 X132.897 Y106.875 E151.51281
G0 F3000 X132.331 Y106.875
G1 F900 X120.237 Y94.782 E152.70738
G0 F3000 X119.672 Y94.782
G1 F900 X131.765 Y106.875 E153.90189
G0 F3000 X131.2 Y106.875
G1 F900 X119.106 Y94.782 E155.09646
G0 F3000 X118.54 Y94.782
G1 F900 X130.634 Y106.875 E156.29103
G0 F3000 X130.068 Y106.875
G1 F900 X117.975 Y94.782 E157.48554
G0 F3000 X117.409 Y94.782
G1 F900 X129.503 Y106.875 E158.68011
G0 F3000 X128.937 Y106.875
G1 F900 X116.843 Y94.782 E159.87468
G0 F3000 X116.278 Y94.782
G1 F900 X128.371 Y106.875 E161.06919
G0 F3000 X127.806 Y106.875
G1 F900 X115.712 Y94.782 E162.26376
G0 F3000 X115.146 Y94.782
G1 F900 X127.24 Y106.875 E163.45833
G0 F3000 X126.674 Y106.875
G1 F900 X114.58 Y94.782 E164.65289
G0 F3000 X114.015 Y94.782
G1 F900 X126.108 Y106.875 E165.84741
G0 F3000 X125.543 Y106.875
G1 F900 X113.449 Y94.782 E167.04198
G0 F3000 X112.883 Y94.782
G1 F900 X124.977 Y106.875 E168.23654
G0 F3000 X124.411 Y106.875
G1 F900 X112.318 Y94.782 E169.43106
G0 F3000 X111.752 Y94.782
G1 F900 X123.846 Y106.875 E170.62563
G0 F3000 X123.28 Y106.875
G1 F900 X111.186 Y94.782 E171.82019
G0 F3000 X110.621 Y94.782
G1 F900 X122.714 Y106.875 E173.01471
G0 F3000 X122.149 Y106.875
G1 F900 X110.055 Y94.782 E174.20928
G0 F3000 X109.489 Y94.782
G1 F900 X121.583 Y106.875 E175.40384
G0 F3000 X121.017 Y106.875
G1 F900 X108.924 Y94.782 E176.59836
G0 F3000 X108.358 Y94.782
G1 F900 X120.452 Y106.875 E177.79293
G0 F3000 X119.886 Y106.875
G1 F900 X107.792 Y94.782 E178.98749
G0 F3000 X107.227 Y94.782
G1 F900 X119.32 Y106.875 E180.18201
G0 F3000 X118.755 Y106.875
G1 F900 X106.661 Y94.782 E181.37658
G0 F3000 X106.095 Y94.782
G1 F900 X118.189 Y106.875 E182.57114
G0 F3000 X117.623 Y106.875
G1 F900 X105.53 Y94.782 E183.76566
G0 F3000 X104.964 Y94.782
G1 F900 X117.057 Y106.875 E184.96018
G0 F3000 X116.492 Y106.875
G1 F900 X104.398 Y94.782 E186.15474
G0 F3000 X103.832 Y94.782
G1 F900 X115.926 Y106.875 E187.34931
G0 F3000 X115.36 Y106.875
G1 F900 X103.267 Y94.782 E188.54383
G0 F3000 X102.701 Y94.782
G1 F900 X114.795 Y106.875 E189.73839
G0 F3000 X114.229 Y106.875
G1 F900 X102.135 Y94.782 E190.93296
G0 F3000 X101.57 Y94.782
G1 F900 X113.663 Y106.875 E192.12748
G0 F3000 X113.098 Y106.875
G1 F900 X101.004 Y94.782 E193.32204
G0 F3000 X100.438 Y94.782
G1 F900 X112.532 Y106.875 E194.51661
G0 F3000 X111.966 Y106.875
G1 F900 X99.873 Y94.782 E195.71113
G0 F3000 X99.307 Y94.782
G1 F900 X111.401 Y106.875 E196.90569
G0 F3000 X110.835 Y106.875
G1 F900 X98.741 Y94.782 E198.10026
G0 F3000 X98.176 Y94.782
G1 F900 X110.269 Y106.875 E199.29478
G0 F3000 X109.704 Y106.875
G1 F900 X97.61 Y94.782 E200.48934
G0 F3000 X97.044 Y94.782
G1 F900 X109.138 Y106.875 E201.68391
G0 F3000 X108.572 Y106.875
G1 F900 X96.479 Y94.782 E202.87843
G0 F3000 X95.913 Y94.782
G1 F900 X108.007 Y106.875 E204.07299
G0 F3000 X107.441 Y106.875
G1 F900 X95.347 Y94.782 E205.26756
G0 F3000 X94.782 Y94.782
G1 F900 X106.875 Y106.875 E206.46208
G0 F3000 X106.309 Y106.875
G1 F900 X94.216 Y94.782 E207.65659
G0 F3000 X93.65 Y94.782
G1 F900 X105.744 Y106.875 E208.85116
G0 F3000 X105.178 Y106.875
G1 F900 X93.084 Y94.782 E210.04573
G0 F3000 X92.519 Y94.782
G1 F900 X104.612 Y106.875 E211.24024
G0 F3000 X104.047 Y106.875
G1 F900 X91.953 Y94.782 E212.43481
G0 F3000 X91.387 Y94.782
G1 F900 X103.481 Y106.875 E213.62938
G0 F3000 X102.915 Y106.875
G1 F900 X90.822 Y94.782 E214.82389
G0 F3000 X90.256 Y94.782
G1 F900 X102.35 Y106.875 E216.01846
G0 F3000 X101.784 Y106.875
G1 F900 X89.69 Y94.782 E217.21303
G0 F3000 X89.125 Y94.782
G1 F900 X101.218 Y106.875 E218.40754
G0 F3000 X100.653 Y106.875
G1 F900 X88.559 Y94.782 E219.60211
G0 F3000 X87.993 Y94.782
G1 F900 X100.087 Y106.875 E220.79668
G0 F3000 X99.521 Y106.875
G1 F900 X87.428 Y94.782 E221.99119
G0 F3000 X86.862 Y94.782
G1 F900 X98.956 Y106.875 E223.18576
G0 F3000 X98.39 Y106.875
G1 F900 X86.296 Y94.782 E224.38033
G0 F3000 X85.731 Y94.782
G1 F900 X97.824 Y106.875 E225.57484
G0 F3000 X97.259 Y106.875
G1 F900 X85.165 Y94.782 E226.76941
G0 F3000 X84.599 Y94.782
G1 F900 X96.693 Y106.875 E227.96398
G0 F3000 X96.127 Y106.875
G1 F900 X84.033 Y94.782 E229.15854
G0 F3000 X83.468 Y94.782
G1 F900 X95.561 Y106.875 E230.35306
G0 F3000 X94.996 Y106.875
G1 F900 X82.902 Y94.782 E231.54763
G0 F3000 X82.336 Y94.782
G1 F900 X94.43 Y106.875 E232.74219
G0 F3000 X93.864 Y106.875
G1 F900 X81.771 Y94.782 E233.93671
G0 F3000 X81.205 Y94.782
G1 F900 X93.299 Y106.875 E235.13128
G0 F3000 X92.733 Y106.875
G1 F900 X80.639 Y94.782 E236.32584
G0 F3000 X80.074 Y94.782
G1 F900 X92.167 Y106.875 E237.52036
G0 F3000 X91.602 Y106.875
G1 F900 X79.508 Y94.782 E238.71493
G0 F3000 X78.942 Y94.782
G1 F900 X91.036 Y106.875 E239.90949
G0 F3000 X90.47 Y106.875
G1 F900 X78.377 Y94.782 E241.10401
G0 F3000 X77.811 Y94.782
G1 F900 X89.905 Y106.875 E242.29858
G0 F3000 X89.339 Y106.875
G1 F900 X77.245 Y94.782 E243.49314
G0 F3000 X76.68 Y94.782
G1 F900 X88.773 Y106.875 E244.68766
G0 F3000 X88.208 Y106.875
G1 F900 X76.114 Y94.782 E245.88223
G0 F3000 X75.548 Y94.782
G1 F900 X87.642 Y106.875 E247.07679
G0 F3000 X87.076 Y106.875
G1 F900 X74.983 Y94.782 E248.27131
G0 F3000 X74.417 Y94.782
G1 F900 X86.51 Y106.875 E249.46583
G0 F3000 X85.945 Y106.875
G1 F900 X73.851 Y94.782 E250.66039
G0 F3000 X73.285 Y94.782
G1 F900 X85.379 Y106.875 E251.85496
G0 F3000 X84.813 Y106.875
G1 F900 X72.72 Y94.782 E253.04948
G0 F3000 X72.154 Y94.782
G1 F900 X84.248 Y106.875 E254.24404
G0 F3000 X83.682 Y106.875
G1 F900 X71.588 Y94.782 E255.43861
G0 F3000 X71.023 Y94.782
G1 F900 X83.116 Y106.875 E256.63313
G0 F3000 X82.551 Y106.875
G1 F900 X70.457 Y94.782 E257.82769
G0 F3000 X69.891 Y94.782
G1 F900 X81.985 Y106.875 E259.02226
G0 F3000 X81.419 Y106.875
G1 F900 X69.326 Y94.782 E260.21678
G0 F3000 X68.76 Y94.782
G1 F900 X80.854 Y106.875 E261.41134
G0 F3000 X80.288 Y106.875
G1 F900 X68.194 Y94.782 E262.60591
G0 F3000 X67.629 Y94.782
G1 F900 X79.722 Y106.875 E263.80043
G0 F3000 X79.157 Y106.875
G1 F900 X67.063 Y94.782 E264.99499
G0 F3000 X66.497 Y94.782
G1 F900 X78.591 Y106.875 E266.18956
G0 F3000 X78.025 Y106.875
G1 F900 X65.932 Y94.782 E267.38408
G0 F3000 X65.366 Y94.782
G1 F900 X77.46 Y106.875 E268.57864
G0 F3000 X76.894 Y106.875
G1 F900 X64.8 Y94.782 E269.77321
G0 F3000 X64.234 Y94.782
G1 F900 X76.328 Y106.875 E270.96777
G0 F3000 X75.762 Y106.875
G1 F900 X63.669 Y94.782 E272.16229
G0 F3000 X63.103 Y94.782
G1 F900 X75.197 Y106.875 E273.35686
G0 F3000 X74.631 Y106.875
G1 F900 X62.537 Y94.782 E274.55142
G0 F3000 X61.972 Y94.782
G1 F900 X74.065 Y106.875 E275.74594
G0 F3000 X73.5 Y106.875
G1 F900 X61.406 Y94.782 E276.94051
G0 F3000 X60.84 Y94.782
G1 F900 X72.934 Y106.875 E278.13507
G0 F3000 X72.368 Y106.875
G1 F900 X60.275 Y94.782 E279.32959
G0 F3000 X59.709 Y94.782
G1 F900 X71.803 Y106.875 E280.52416
G0 F3000 X71.237 Y106.875
G1 F900 X59.143 Y94.782 E281.71872
G0 F3000 X58.578 Y94.782
G1 F900 X70.671 Y106.875 E282.91324
G0 F3000 X70.106 Y106.875
G1 F900 X58.012 Y94.782 E284.10781
G0 F3000 X57.446 Y94.782
G1 F900 X69.54 Y106.875 E285.30237
G0 F3000 X68.974 Y106.875
G1 F900 X56.881 Y94.782 E286.49689
G0 F3000 X56.315 Y94.782
G1 F900 X68.409 Y106.875 E287.69146
G0 F3000 X67.843 Y106.875
G1 F900 X55.749 Y94.782 E288.88602
G0 F3000 X55.184 Y94.782
G1 F900 X67.277 Y106.875 E290.08054
G0 F3000 X66.711 Y106.875
G1 F900 X54.618 Y94.782 E291.27506
G0 F3000 X54.052 Y94.782
G1 F900 X66.146 Y106.875 E292.46963
G0 F3000 X65.58 Y106.875
G1 F900 X53.486 Y94.782 E293.66419
G0 F3000 X52.921 Y94.782
G1 F900 X65.014 Y106.875 E294.85871
G0 F3000 X64.449 Y106.875
G1 F900 X52.355 Y94.782 E296.05328
G0 F3000 X51.789 Y94.782
G1 F900 X63.883 Y106.875 E297.24784
G0 F3000 X63.317 Y106.875
G1 F900 X51.224 Y94.782 E298.44236
G0 F3000 X50.658 Y94.782
G1 F900 X62.752 Y106.875 E299.63693
G0 F3000 X62.186 Y106.875
G1 F900 X50.092 Y94.782 E300.83149
G0 F3000 X49.527 Y94.782
G1 F900 X61.62 Y106.875 E302.02601
G0 F3000 X61.055 Y106.875
G1 F900 X48.961 Y94.782 E303.22058
G0 F3000 X48.395 Y94.782
G1 F900 X60.489 Y106.875 E304.41514
G0 F3000 X59.923 Y106.875
G1 F900 X47.83 Y94.782 E305.60966
G0 F3000 X47.264 Y94.782
G1 F900 X59.358 Y106.875 E306.80422
G0 F3000 X58.792 Y106.875
G1 F900 X46.698 Y94.782 E307.99879
G0 F3000 X46.133 Y94.782
G1 F900 X58.226 Y106.875 E309.19331
G0 F3000 X57.661 Y106.875
G1 F900 X45.567 Y94.782 E310.38787
G0 F3000 X45.001 Y94.782
G1 F900 X57.095 Y106.875 E311.58244
G0 F3000 X56.529 Y106.875
G1 F900 X44.436 Y94.782 E312.77696
G0 F3000 X43.87 Y94.782
G1 F900 X55.963 Y106.875 E313.97148
G0 F3000 X55.398 Y106.875
G1 F900 X43.304 Y94.782 E315.16604
G0 F3000 X42.738 Y94.782
G1 F900 X54.832 Y106.875 E316.36061
G0 F3000 X54.266 Y106.875
G1 F900 X42.173 Y94.782 E317.55513
G0 F3000 X41.607 Y94.782
G1 F900 X53.701 Y106.875 E318.74969
G0 F3000 X53.135 Y106.875
G1 F900 X41.041 Y94.782 E319.94426
G0 F3000 X40.476 Y94.782
G1 F900 X52.569 Y106.875 E321.13878
G0 F3000 X52.004 Y106.875
G1 F900 X39.91 Y94.782 E322.33334
G0 F3000 X39.344 Y94.782
