;FLAVOR:Marlin
;TIME:22870
;Filament used: 18.0141m
;Layer height: 0.2
;MINX:61.337
;MINY:32.7
;MINZ:0.35
;MAXX:138.594
;MAXY:167.3
;MAXZ:7.55
;TARGET_MACHINE.NAME:XYZprinting da Vinci 1.0 Pro
;Generated with Cura_SteamEngine 5.6.0
M140 S45
M105
M190 S45
M104 S190
M105
M109 S190
M82 ;absolute extrusion mode
G28 ; home all axes
G1 Z15 F5000 ; lift nozzle
G92 E0
G1 F200 E3

G92 E0
G92 E0
G1 F1800 E-4
;LAYER_COUNT:37
;LAYER:0
M106 S255
;MESH:bumper_V1.STL
G0 F3000 X76.519 Y63.899 Z0.35
;TYPE:WALL-INNER
G1 F1800 E0
G1 F900 X75.941 Y63.844 E0.04055
G1 X75.465 Y63.707 E0.07515
G1 X75.004 Y63.484 E0.11092
G1 X74.597 Y63.188 E0.14607
G1 X74.276 Y62.864 E0.17793
G1 X73.987 Y62.45 E0.21319
G1 X73.758 Y61.94 E0.25224
G1 X73.655 Y61.557 E0.27994
G1 X73.6 Y61 E0.31903
G1 X73.655 Y60.443 E0.35813
G1 X73.793 Y59.964 E0.39294
G1 X73.987 Y59.55 E0.42488
G1 X74.276 Y59.136 E0.46014
G1 X74.677 Y58.745 E0.49926
G1 X75.098 Y58.462 E0.53469
G1 X75.559 Y58.259 E0.56988
G1 X75.98 Y58.147 E0.6003
G1 X76.517 Y58.101 E0.63795
G1 X77.005 Y58.144 E0.67217
G1 X77.535 Y58.294 E0.71064
G1 X77.964 Y58.496 E0.74376
G1 X78.35 Y58.766 E0.77666
G1 X78.706 Y59.118 E0.81163
G1 X79.025 Y59.575 E0.85055
G1 X79.215 Y59.986 E0.88218
G1 X79.349 Y60.468 E0.91712
G1 X79.398 Y61.027 E0.95632
G1 X79.349 Y61.532 E0.99175
G1 X79.215 Y62.014 E1.0267
G1 X79.028 Y62.419 E1.05785
G1 X78.737 Y62.845 E1.09389
G1 X78.359 Y63.227 E1.13142
G1 X77.968 Y63.501 E1.16477
G1 X77.461 Y63.735 E1.20377
G1 X76.982 Y63.859 E1.23833
G1 X76.519 Y63.899 E1.27079
G0 F3000 X76.544 Y64.199
G0 X116.156 Y64.198
G0 X116.131 Y63.899
G1 F900 X115.61 Y63.858 E1.3073
G1 X115.08 Y63.713 E1.34567
G1 X114.655 Y63.515 E1.37842
G1 X114.242 Y63.227 E1.41359
G1 X113.88 Y62.866 E1.4493
G1 X113.599 Y62.467 E1.48338
G1 X113.385 Y62.014 E1.51838
G1 X113.251 Y61.532 E1.55332
G1 X113.202 Y60.973 E1.59251
G1 X113.251 Y60.468 E1.62795
G1 X113.385 Y59.986 E1.66289
G1 X113.602 Y59.528 E1.69829
G1 X113.861 Y59.158 E1.72984
G1 X114.199 Y58.812 E1.76362
G1 X114.606 Y58.516 E1.79877
G1 X115.097 Y58.28 E1.83682
G1 X115.596 Y58.144 E1.87295
G1 X116.119 Y58.101 E1.9096
G1 X116.607 Y58.144 E1.94382
G1 X117.042 Y58.259 E1.97525
G1 X117.531 Y58.477 E2.01264
G1 X117.951 Y58.765 E2.04821
G1 X118.29 Y59.099 E2.08145
G1 X118.613 Y59.549 E2.12014
G1 X118.828 Y60.011 E2.15573
G1 X118.956 Y60.495 E2.1907
G1 X119.001 Y61 E2.22611
G1 X118.956 Y61.505 E2.26152
G1 X118.828 Y61.989 E2.29649
G1 X118.613 Y62.451 E2.33208
G1 X118.335 Y62.85 E2.36605
G1 X117.923 Y63.256 E2.40645
G1 X117.534 Y63.522 E2.43937
G1 X117.073 Y63.732 E2.47475
G1 X116.633 Y63.851 E2.50658
G1 X116.131 Y63.899 E2.54181
G0 F3000 X116.156 Y64.198
G0 X112.958 Y139
G0 X113.148 Y140.074
G0 X113.694 Y141.019
G0 X114.531 Y141.722
G0 X116.057 Y142.198
G0 X116.083 Y141.899
G1 F900 X115.596 Y141.856 E2.57596
G1 X115.097 Y141.72 E2.61208
G1 X114.606 Y141.484 E2.65013
G1 X114.251 Y141.234 E2.68046
G1 X113.913 Y140.902 E2.71355
G1 X113.575 Y140.425 E2.75438
G1 X113.385 Y140.014 E2.78601
G1 X113.251 Y139.532 E2.82095
G1 X113.202 Y138.973 E2.86014
G1 X113.251 Y138.468 E2.89558
G1 X113.385 Y137.986 E2.93052
G1 X113.572 Y137.581 E2.96168
G1 X113.863 Y137.155 E2.99772
G1 X114.242 Y136.773 E3.0353
G1 X114.643 Y136.492 E3.0695
G1 X115.105 Y136.277 E3.10509
G1 X115.575 Y136.148 E3.13914
G1 X116.131 Y136.101 E3.17811
G1 X116.633 Y136.149 E3.21333
G1 X117.073 Y136.268 E3.24517
G1 X117.564 Y136.495 E3.28295
G1 X117.951 Y136.765 E3.31591
G1 X118.313 Y137.124 E3.35152
G1 X118.613 Y137.549 E3.38785
G1 X118.828 Y138.011 E3.42345
G1 X118.956 Y138.495 E3.45841
G1 X119.001 Y139 E3.49383
G1 X118.956 Y139.505 E3.52924
G1 X118.828 Y139.989 E3.56421
G1 X118.613 Y140.451 E3.5998
G1 X118.313 Y140.876 E3.63613
G1 X117.951 Y141.235 E3.67174
G1 X117.558 Y141.508 E3.70517
G1 X117.042 Y141.741 E3.74471
G1 X116.607 Y141.856 E3.77614
G1 X116.083 Y141.899 E3.81286
G0 F3000 X116.057 Y142.198
G0 X76.455 Y142.198
G0 X76.481 Y141.899
G1 F900 X76.016 Y141.859 E3.84546
G1 X75.465 Y141.707 E3.88538
G1 X75.051 Y141.514 E3.91729
G1 X74.597 Y141.188 E3.95632
G1 X74.276 Y140.864 E3.98818
G1 X73.987 Y140.45 E4.02344
G1 X73.758 Y139.94 E4.06249
G1 X73.637 Y139.454 E4.09747
G1 X73.6 Y139 E4.12929
G1 X73.655 Y138.443 E4.16838
G1 X73.793 Y137.964 E4.2032
G1 X73.987 Y137.55 E4.23513
G1 X74.276 Y137.136 E4.2704
G1 X74.677 Y136.745 E4.30952
G1 X75.051 Y136.486 E4.34129
G1 X75.465 Y136.293 E4.3732
G1 X75.941 Y136.156 E4.40779
G1 X76.519 Y136.101 E4.44835
G1 X77.034 Y136.15 E4.48448
G1 X77.518 Y136.286 E4.51959
G1 X77.943 Y136.484 E4.55234
G1 X78.359 Y136.773 E4.58772
G1 X78.737 Y137.155 E4.62526
G1 X79.001 Y137.533 E4.65746
G1 X79.215 Y137.986 E4.69246
G1 X79.349 Y138.468 E4.7274
G1 X79.398 Y139.027 E4.76659
G1 X79.349 Y139.532 E4.80203
G1 X79.215 Y140.014 E4.83697
G1 X78.998 Y140.472 E4.87237
G1 X78.706 Y140.882 E4.90753
G1 X78.35 Y141.234 E4.9425
G1 X77.964 Y141.504 E4.9754
G1 X77.44 Y141.741 E5.01557
G1 X77.005 Y141.856 E5.04699
G1 X76.481 Y141.899 E5.08372
G0 F3000 X76.455 Y142.198
G0 X62.052 Y164.793
G0 X61.753 Y164.806
G1 F900 X61.792 Y166.9 E5.23
G1 X138.194 Y166.9 E10.5664
G1 X138.194 Y33.101 E19.91176
G1 X61.785 Y33.1 E25.24864
G1 X61.753 Y35.228 E25.39729
G1 X61.738 Y35.617 E25.42448
G1 X61.737 Y164.383 E34.41831
G1 X61.753 Y164.806 E34.44788
G0 F3000 X61.353 Y164.813
;TYPE:WALL-OUTER
G1 F900 X61.399 Y167.3 E34.62161
G1 X138.594 Y167.3 E40.0134
G1 X138.594 Y32.701 E49.41464
G1 X61.391 Y32.7 E54.80698
G1 X61.353 Y35.213 E54.98252
G1 X61.338 Y35.609 E55.0102
G1 X61.337 Y164.391 E64.00515
G1 X61.353 Y164.813 E64.03464
G0 F3000 X61.356 Y165.013
G0 X62.057 Y165.001
G0 X76.577 Y142.196
G0 X76.517 Y141.499
G1 F900 X76.058 Y141.461 E64.06681
G1 X75.648 Y141.35 E64.09648
G1 X75.249 Y141.166 E64.12717
G1 X74.893 Y140.917 E64.15751
G1 X74.582 Y140.606 E64.18823
G1 X74.333 Y140.25 E64.21858
G1 X74.144 Y139.836 E64.25036
G1 X74.035 Y139.419 E64.28047
G1 X74 Y138.982 E64.31109
G1 X74.041 Y138.547 E64.34161
G1 X74.144 Y138.164 E64.36931
G1 X74.333 Y137.75 E64.4011
G1 X74.582 Y137.394 E64.43144
G1 X74.893 Y137.083 E64.46216
G1 X75.249 Y136.834 E64.4925
G1 X75.648 Y136.65 E64.52319
G1 X76.045 Y136.542 E64.55193
G1 X76.481 Y136.501 E64.58252
G1 X76.928 Y136.537 E64.61384
G1 X77.343 Y136.647 E64.64383
G1 X77.764 Y136.844 E64.67629
G1 X78.119 Y137.095 E64.70666
G1 X78.421 Y137.4 E64.73664
G1 X78.673 Y137.766 E64.76768
G1 X78.854 Y138.164 E64.79821
G1 X78.959 Y138.555 E64.82649
G1 X78.998 Y139.018 E64.85894
G1 X78.962 Y139.428 E64.88769
G1 X78.845 Y139.861 E64.91902
G1 X78.665 Y140.25 E64.94896
G1 X78.416 Y140.606 E64.9793
G1 X78.111 Y140.913 E65.00953
G1 X77.744 Y141.169 E65.04078
G1 X77.336 Y141.355 E65.0721
G1 X76.954 Y141.458 E65.09973
G1 X76.517 Y141.499 E65.13039
G0 F3000 X76.318 Y141.483
G0 X76.257 Y142.181
G0 X116.179 Y142.196
G0 X116.119 Y141.499
G1 F900 X115.665 Y141.462 E65.16221
G1 X115.244 Y141.348 E65.19267
G1 X114.856 Y141.169 E65.22252
G1 X114.49 Y140.913 E65.25371
G1 X114.196 Y140.619 E65.28275
G1 X113.935 Y140.25 E65.31432
G1 X113.749 Y139.845 E65.34545
G1 X113.641 Y139.445 E65.37439
G1 X113.602 Y138.982 E65.40684
G1 X113.638 Y138.572 E65.43559
G1 X113.755 Y138.139 E65.46692
G1 X113.942 Y137.739 E65.49776
G1 X114.196 Y137.381 E65.52842
G1 X114.506 Y137.074 E65.55889
G1 X114.859 Y136.829 E65.5889
G1 X115.265 Y136.645 E65.62004
G1 X115.682 Y136.536 E65.65014
G1 X116.119 Y136.501 E65.68076
G1 X116.538 Y136.538 E65.71014
G1 X116.959 Y136.652 E65.74061
G1 X117.346 Y136.831 E65.77039
G1 X117.703 Y137.079 E65.80075
G1 X118.021 Y137.398 E65.83221
G1 X118.267 Y137.749 E65.86215
G1 X118.452 Y138.147 E65.8928
G1 X118.562 Y138.564 E65.92293
G1 X118.601 Y139 E65.9535
G1 X118.562 Y139.436 E65.98407
G1 X118.452 Y139.853 E66.0142
G1 X118.267 Y140.251 E66.04485
G1 X118.021 Y140.602 E66.07479
G1 X117.703 Y140.921 E66.10625
G1 X117.354 Y141.164 E66.13595
G1 X116.938 Y141.355 E66.16793
G1 X116.556 Y141.458 E66.19556
G1 X116.119 Y141.499 E66.22622
G0 F3000 X115.92 Y141.483
G0 X115.859 Y142.181
G0 X115.028 Y141.953
G0 X114.082 Y141.407
G0 X113.38 Y140.572
G0 X113.006 Y139.545
G0 X116.022 Y64.195
G0 X116.083 Y63.499
G1 F900 X115.647 Y63.458 E66.2568
G1 X115.234 Y63.343 E66.28675
G1 X114.852 Y63.167 E66.31612
G1 X114.482 Y62.905 E66.34779
G1 X114.179 Y62.6 E66.37782
G1 X113.927 Y62.234 E66.40886
G1 X113.746 Y61.836 E66.4394
G1 X113.641 Y61.445 E66.46767
G1 X113.602 Y60.982 E66.50013
G1 X113.638 Y60.572 E66.52887
G1 X113.755 Y60.139 E66.5602
G1 X113.935 Y59.75 E66.59014
G1 X114.184 Y59.394 E66.62048
G1 X114.49 Y59.087 E66.65076
G1 X114.856 Y58.831 E66.68196
G1 X115.244 Y58.652 E66.7118
G1 X115.647 Y58.542 E66.74098
G1 X116.083 Y58.501 E66.77157
G1 X116.538 Y58.538 E66.80345
G1 X116.938 Y58.645 E66.83237
G1 X117.354 Y58.836 E66.86434
G1 X117.703 Y59.079 E66.89405
G1 X118.021 Y59.398 E66.92551
G1 X118.267 Y59.749 E66.95545
G1 X118.452 Y60.147 E66.9861
G1 X118.562 Y60.564 E67.01622
G1 X118.601 Y61 E67.0468
G1 X118.562 Y61.436 E67.07737
G1 X118.452 Y61.853 E67.10749
G1 X118.267 Y62.251 E67.13815
G1 X118.021 Y62.602 E67.16809
G1 X117.703 Y62.921 E67.19955
G1 X117.346 Y63.169 E67.22991
G1 X116.948 Y63.352 E67.26051
G1 X116.538 Y63.462 E67.29016
G1 X116.083 Y63.499 E67.32204
G0 F3000 X115.884 Y63.481
G0 X115.823 Y64.178
G0 X76.42 Y64.195
G0 X76.481 Y63.499
G1 F900 X76.045 Y63.458 E67.35263
G1 X75.648 Y63.35 E67.38136
G1 X75.249 Y63.166 E67.41205
G1 X74.893 Y62.917 E67.4424
G1 X74.582 Y62.606 E67.47312
G1 X74.333 Y62.25 E67.50346
G1 X74.144 Y61.836 E67.53525
G1 X74.041 Y61.453 E67.56295
G1 X74 Y61.018 E67.59347
G1 X74.035 Y60.581 E67.62409
G1 X74.144 Y60.164 E67.65419
G1 X74.333 Y59.75 E67.68598
G1 X74.582 Y59.394 E67.71632
G1 X74.893 Y59.083 E67.74704
G1 X75.249 Y58.834 E67.77739
G1 X75.648 Y58.65 E67.80808
G1 X76.058 Y58.539 E67.83774
G1 X76.517 Y58.501 E67.86991
G1 X76.936 Y58.538 E67.89929
G1 X77.336 Y58.645 E67.92821
G1 X77.744 Y58.831 E67.95953
G1 X78.111 Y59.087 E67.99079
G1 X78.416 Y59.394 E68.02101
G1 X78.665 Y59.75 E68.05136
G1 X78.851 Y60.155 E68.08249
G1 X78.959 Y60.555 E68.11142
G1 X78.998 Y61.018 E68.14388
G1 X78.962 Y61.428 E68.17262
G1 X78.845 Y61.861 E68.20395
G1 X78.658 Y62.261 E68.23479
G1 X78.404 Y62.619 E68.26545
G1 X78.095 Y62.926 E68.29588
G1 X77.738 Y63.172 E68.32616
G1 X77.336 Y63.355 E68.35701
G1 X76.946 Y63.46 E68.38522
G1 X76.481 Y63.499 E68.41781
G0 F3000 X76.282 Y63.481
G0 X76.221 Y64.178
G0 X62.133 Y164.798
;TYPE:SKIN
G1 F900 X62.117 Y164.375 E68.44738
G1 X62.119 Y35.626 E77.44002
G1 X62.133 Y35.241 E77.46693
G1 X62.16 Y33.481 E77.58987
G1 X137.814 Y33.481 E82.87402
G1 X137.814 Y166.52 E92.1663
G1 X62.165 Y166.52 E97.4501
G1 X62.133 Y164.798 E97.5704
G0 F3000 X76.476 Y142.278
G1 F900 X77.093 Y142.228 E97.61363
G1 X77.578 Y142.097 E97.64872
G1 X78.156 Y141.832 E97.69313
G1 X78.587 Y141.533 E97.72977
G1 X78.987 Y141.137 E97.76909
G1 X79.322 Y140.673 E97.80906
G1 X79.564 Y140.166 E97.8483
G1 X79.734 Y139.534 E97.89401
G1 X79.777 Y139.05 E97.92795
G1 X79.734 Y138.45 E97.96997
G1 X79.571 Y137.855 E98.01306
G1 X79.368 Y137.41 E98.04722
G1 X79.035 Y136.918 E98.08871
G1 X78.605 Y136.483 E98.13144
G1 X78.106 Y136.14 E98.17373
G1 X77.578 Y135.901 E98.21421
G1 X77.071 Y135.768 E98.25082
G1 X76.46 Y135.722 E98.29362
G1 X75.901 Y135.776 E98.33284
G1 X75.463 Y135.89 E98.36445
G1 X74.845 Y136.167 E98.41176
G1 X74.41 Y136.469 E98.44874
G1 X73.971 Y136.907 E98.49206
G1 X73.666 Y137.346 E98.5294
G1 X73.386 Y137.97 E98.57717
G1 X73.262 Y138.478 E98.61369
G1 X73.223 Y139.09 E98.65652
G1 X73.271 Y139.576 E98.69063
G1 X73.399 Y140.066 E98.72601
G1 X73.666 Y140.655 E98.77117
G1 X73.98 Y141.105 E98.8095
G1 X74.41 Y141.531 E98.85178
G1 X74.843 Y141.832 E98.88861
G1 X75.386 Y142.084 E98.93042
G1 X75.902 Y142.225 E98.96778
G1 X76.476 Y142.278 E99.00805
G0 F3000 X116.06 Y142.278
G1 F900 X116.658 Y142.234 E99.04993
G1 X117.201 Y142.09 E99.08917
G1 X117.748 Y141.837 E99.13126
G1 X118.182 Y141.539 E99.16803
G1 X118.635 Y141.086 E99.21278
G1 X118.948 Y140.631 E99.25135
G1 X119.188 Y140.114 E99.29116
G1 X119.329 Y139.575 E99.33008
G1 X119.38 Y139.017 E99.36921
G1 X119.332 Y138.442 E99.40951
G1 X119.186 Y137.882 E99.44994
G1 X118.942 Y137.356 E99.49044
G1 X118.612 Y136.888 E99.53043
G1 X118.221 Y136.493 E99.56925
G1 X117.724 Y136.148 E99.61151
G1 X117.19 Y135.904 E99.65252
G1 X116.705 Y135.777 E99.68754
G1 X116.152 Y135.722 E99.72635
G1 X115.529 Y135.768 E99.76998
G1 X114.972 Y135.921 E99.81033
G1 X114.472 Y136.149 E99.84871
G1 X113.974 Y136.503 E99.89139
G1 X113.591 Y136.886 E99.92922
G1 X113.238 Y137.4 E99.97277
G1 X113.027 Y137.859 E100.00806
G1 X112.866 Y138.466 E100.05192
G1 X112.823 Y138.949 E100.08579
G1 X112.866 Y139.55 E100.12787
G1 X113.028 Y140.141 E100.17067
G1 X113.241 Y140.607 E100.20646
G1 X113.562 Y141.079 E100.24633
G1 X114.02 Y141.537 E100.29157
G1 X114.484 Y141.855 E100.33086
G1 X114.969 Y142.077 E100.36812
G1 X115.527 Y142.23 E100.40853
G1 X116.06 Y142.278 E100.44591
G0 F3000 X115.028 Y141.953
G0 X114.082 Y141.407
G0 X113.38 Y140.572
G0 X113.006 Y139.545
G0 X116.125 Y64.278
G1 F900 X116.626 Y64.236 E100.48102
G1 X117.188 Y64.095 E100.52149
G1 X117.724 Y63.852 E100.5626
G1 X118.24 Y63.49 E100.60662
G1 X118.633 Y63.089 E100.64584
G1 X118.941 Y62.642 E100.68376
G1 X119.187 Y62.115 E100.72438
G1 X119.329 Y61.575 E100.76338
G1 X119.38 Y61.017 E100.80251
G1 X119.332 Y60.442 E100.84282
G1 X119.186 Y59.882 E100.88324
G1 X118.942 Y59.356 E100.92374
G1 X118.614 Y58.891 E100.96348
G1 X118.228 Y58.5 E101.00186
G1 X117.747 Y58.16 E101.043
G1 X117.19 Y57.905 E101.08579
G1 X116.677 Y57.77 E101.12284
G1 X116.142 Y57.722 E101.16036
G1 X115.528 Y57.768 E101.20336
G1 X114.969 Y57.923 E101.24388
G1 X114.485 Y58.144 E101.28104
G1 X113.978 Y58.499 E101.32427
G1 X113.558 Y58.925 E101.36606
G1 X113.277 Y59.328 E101.40037
G1 X113.037 Y59.831 E101.4393
G1 X112.866 Y60.466 E101.48523
G1 X112.823 Y60.949 E101.5191
G1 X112.866 Y61.55 E101.56118
G1 X113.028 Y62.141 E101.60399
G1 X113.232 Y62.59 E101.63843
G1 X113.565 Y63.082 E101.67993
G1 X114 Y63.521 E101.72309
G1 X114.465 Y63.845 E101.76268
G1 X114.993 Y64.086 E101.80322
G1 X115.54 Y64.233 E101.84278
G1 X116.125 Y64.278 E101.88376
G0 F3000 X76.532 Y64.278
G1 F900 X77.088 Y64.227 E101.92276
G1 X77.624 Y64.084 E101.9615
G1 X78.184 Y63.816 E102.00487
G1 X78.624 Y63.499 E102.04274
G1 X79.01 Y63.113 E102.08087
G1 X79.362 Y62.6 E102.12433
G1 X79.567 Y62.156 E102.15849
G1 X79.734 Y61.534 E102.20347
G1 X79.777 Y61.05 E102.23741
G1 X79.734 Y60.45 E102.27942
G1 X79.571 Y59.855 E102.32251
G1 X79.362 Y59.397 E102.35768
G1 X79.018 Y58.895 E102.40018
G1 X78.624 Y58.5 E102.43915
G1 X78.157 Y58.168 E102.47917
G1 X77.599 Y57.91 E102.52211
G1 X77.075 Y57.77 E102.55999
G1 X76.541 Y57.722 E102.59744
G1 X75.9 Y57.776 E102.64237
G1 X75.463 Y57.89 E102.67391
G1 X74.845 Y58.167 E102.72122
G1 X74.41 Y58.469 E102.7582
G1 X73.971 Y58.907 E102.80152
G1 X73.666 Y59.346 E102.83885
G1 X73.386 Y59.97 E102.88663
G1 X73.262 Y60.478 E102.92315
G1 X73.222 Y61.06 E102.9639
G1 X73.284 Y61.641 E103.00471
G1 X73.436 Y62.168 E103.04302
G1 X73.662 Y62.65 E103.0802
G1 X73.982 Y63.107 E103.11917
G1 X74.383 Y63.508 E103.15878
G1 X74.859 Y63.841 E103.19935
G1 X75.387 Y64.087 E103.24004
G1 X75.956 Y64.236 E103.28112
G1 X76.532 Y64.278 E103.32146
G0 F3000 X77.47 Y63.986
G0 X137.202 Y33.681
G1 F900 X137.613 Y34.093 E103.3621
G0 F3000 X137.613 Y34.658
G1 F900 X136.636 Y33.681 E103.45861
G0 F3000 X136.07 Y33.681
G1 F900 X137.613 Y35.224 E103.61102
G0 F3000 X137.613 Y35.79
G1 F900 X135.504 Y33.681 E103.81934
G0 F3000 X134.939 Y33.681
G1 F900 X137.613 Y36.355 E104.08348
G0 F3000 X137.613 Y36.921
G1 F900 X134.373 Y33.681 E104.40352
G0 F3000 X133.807 Y33.681
G1 F900 X137.613 Y37.487 E104.77946
G0 F3000 X137.613 Y38.052
G1 F900 X133.242 Y33.681 E105.21122
G0 F3000 X132.676 Y33.681
G1 F900 X137.613 Y38.618 E105.69888
G0 F3000 X137.613 Y39.184
G1 F900 X132.11 Y33.681 E106.24246
G0 F3000 X131.545 Y33.681
G1 F900 X137.613 Y39.75 E106.84189
G0 F3000 X137.613 Y40.315
G1 F900 X130.979 Y33.681 E107.49718
G0 F3000 X130.413 Y33.681
G1 F900 X137.613 Y40.881 E108.20838
G0 F3000 X137.613 Y41.447
G1 F900 X129.848 Y33.681 E108.97543
G0 F3000 X129.282 Y33.681
