;FLAVOR:Marlin
;TIME:7075
;Filament used: 4.33034m
;Layer height: 0.2
;MINX:55.9
;MINY:76.599
;MINZ:0.35
;MAXX:144.1
;MAXY:123.401
;MAXZ:33.95
;TARGET_MACHINE.NAME:XYZprinting da Vinci 1.0 Pro
;Generated with Cura_SteamEngine 5.6.0
M140 S45
M105
M190 S45
M104 S190
M105
M109 S190
M82 ;absolute extrusion mode
G28 ; home all axes
G1 Z15 F5000 ; lift nozzle
G92 E0
G1 F200 E3

G92 E0
G92 E0
G1 F1800 E-4
;LAYER_COUNT:169
;LAYER:0
M106 S255
;MESH:esc_holder_V1.STL
G0 F3000 X61.053 Y85.047 Z0.35
;TYPE:WALL-INNER
G1 F1800 E0
G1 F900 X60.414 Y85 E0.04475
G1 X59.808 Y84.828 E0.08875
G1 X59.331 Y84.604 E0.12556
G1 X58.847 Y84.271 E0.16659
G1 X58.467 Y83.891 E0.20413
G1 X58.094 Y83.373 E0.24871
G1 X57.85 Y82.844 E0.2894
G1 X57.701 Y82.282 E0.33001
G1 X57.651 Y81.728 E0.36886
G1 X57.702 Y81.11 E0.41218
G1 X57.851 Y80.557 E0.45218
G1 X58.097 Y80.024 E0.49318
G1 X58.432 Y79.545 E0.53401
G1 X58.846 Y79.131 E0.5749
G1 X59.325 Y78.796 E0.61573
G1 X59.858 Y78.55 E0.65673
G1 X60.414 Y78.4 E0.69695
G1 X61.028 Y78.35 E0.73998
G1 X61.533 Y78.393 E0.77538
G1 X62.094 Y78.535 E0.8158
G1 X62.675 Y78.793 E0.8602
G1 X63.192 Y79.166 E0.90473
G1 X63.567 Y79.541 E0.94177
G1 X63.888 Y79.999 E0.98083
G1 X64.128 Y80.505 E1.01995
G1 X64.302 Y81.113 E1.06412
G1 X64.351 Y81.714 E1.10624
G1 X64.298 Y82.293 E1.14685
G1 X64.147 Y82.851 E1.18723
G1 X63.902 Y83.378 E1.22782
G1 X63.569 Y83.854 E1.26839
G1 X63.155 Y84.268 E1.30929
G1 X62.685 Y84.596 E1.34932
G1 X62.153 Y84.844 E1.39032
G1 X61.599 Y84.996 E1.43044
G1 X61.053 Y85.047 E1.46874
G0 F3000 X61.078 Y85.345
G0 X59.872 Y86.184
G0 X59.872 Y116.821
G0 X64.435 Y118.46
G0 X65.128 Y119.436
G0 X71.06 Y119.501
G0 X71.06 Y119.082
G1 F900 X70.774 Y119.201 E1.49038
G1 X65.512 Y119.199 E1.85791
G1 X65.249 Y119.114 E1.87721
G1 X65.087 Y118.97 E1.89235
G1 X64.617 Y118.303 E1.94935
G1 X64.117 Y117.786 E1.99958
G1 X63.53 Y117.343 E2.05095
G1 X62.886 Y116.999 E2.10194
G1 X62.18 Y116.755 E2.15412
G1 X61.469 Y116.627 E2.20457
G1 X60.606 Y116.608 E2.26487
G1 X60.301 Y116.46 E2.28855
G1 X60.153 Y116.258 E2.30604
G1 X60.1 Y116.088 E2.31847
G1 X60.1 Y86.862 E4.3598
G1 X60.23 Y86.616 E4.37923
G1 X60.465 Y86.437 E4.39987
G1 X60.649 Y86.391 E4.41311
G1 X61.527 Y86.367 E4.47446
G1 X62.3 Y86.213 E4.52952
G1 X63.039 Y85.93 E4.58479
G1 X63.729 Y85.522 E4.64078
G1 X64.327 Y85.014 E4.69558
G1 X64.833 Y84.414 E4.7504
G1 X65.24 Y83.717 E4.80678
G1 X65.519 Y82.983 E4.86162
G1 X65.669 Y82.21 E4.91662
G1 X65.692 Y81.289 E4.98097
G1 X65.836 Y80.986 E5.0044
G1 X66.074 Y80.819 E5.02471
G1 X66.215 Y80.78 E5.03493
G1 X70.701 Y80.781 E5.34826
G1 X70.895 Y80.813 E5.36199
G1 X71.061 Y80.901 E5.37511
G1 X71.181 Y81.021 E5.38697
G1 X71.3 Y81.302 E5.40828
G1 X71.3 Y118.68 E8.01899
G1 X71.18 Y118.961 E8.04034
G1 X71.06 Y119.082 E8.05224
G0 F3000 X71.06 Y119.501
G0 X117.99 Y113.075
G0 X117.99 Y112.686
G1 F900 X117.759 Y112.77 E8.06941
G1 X81.847 Y112.775 E10.57773
G1 X81.562 Y112.655 E10.59933
G1 X81.413 Y112.491 E10.6148
G1 X81.329 Y112.26 E10.63197
G1 X81.33 Y100.087 E11.48221
G1 X81.378 Y99.924 E11.49408
G1 X81.551 Y99.704 E11.51363
G1 X81.871 Y99.577 E11.53767
G1 X124.753 Y99.575 E14.53282
G1 X125.035 Y99.694 E14.5542
G1 X125.242 Y99.98 E14.57886
G1 X125.274 Y100.175 E14.59266
G1 X125.274 Y109.649 E15.25438
G1 X125.154 Y109.935 E15.27605
G1 X125.035 Y110.056 E15.2879
G1 X124.753 Y110.175 E15.30928
G1 X118.274 Y110.175 E15.76181
G1 X118.274 Y112.296 E15.90996
G1 X118.156 Y112.534 E15.92851
G1 X117.99 Y112.686 E15.94423
G0 F3000 X117.99 Y113.075
G0 X128.472 Y119.429
G0 X128.939 Y119.082
G1 F900 X128.82 Y118.961 E15.95609
G1 X128.7 Y118.68 E15.97743
G1 X128.7 Y81.399 E18.58137
G1 X128.727 Y81.218 E18.59415
G1 X128.906 Y80.946 E18.61689
G1 X129.224 Y80.799 E18.64136
G1 X133.836 Y80.8 E18.96349
G1 X134.083 Y80.931 E18.98302
G1 X134.261 Y81.165 E19.00356
G1 X134.308 Y81.383 E19.01913
G1 X134.333 Y82.225 E19.07797
G1 X134.485 Y82.998 E19.13299
G1 X134.765 Y83.729 E19.18767
G1 X135.174 Y84.423 E19.24393
G1 X135.68 Y85.02 E19.2986
G1 X136.277 Y85.526 E19.35326
G1 X136.967 Y85.932 E19.40917
G1 X137.703 Y86.213 E19.4642
G1 X138.475 Y86.366 E19.51917
G1 X139.4 Y86.392 E19.5838
G1 X139.535 Y86.437 E19.59374
G1 X139.77 Y86.616 E19.61438
G1 X139.9 Y86.862 E19.63381
G1 X139.9 Y116.088 E21.67514
G1 X139.847 Y116.258 E21.68758
G1 X139.699 Y116.46 E21.70507
G1 X139.535 Y116.563 E21.71859
G1 X139.351 Y116.609 E21.73184
G1 X138.531 Y116.626 E21.78913
G1 X137.82 Y116.755 E21.8396
G1 X137.114 Y116.999 E21.89177
G1 X136.47 Y117.343 E21.94277
G1 X135.883 Y117.787 E21.99417
G1 X135.385 Y118.302 E22.04421
G1 X134.912 Y118.969 E22.10132
G1 X134.75 Y119.114 E22.11651
G1 X134.488 Y119.199 E22.13575
G1 X129.3 Y119.201 E22.49811
G1 X129.105 Y119.169 E22.51191
G1 X128.939 Y119.082 E22.525
G0 F3000 X128.939 Y119.501
G0 X135.411 Y120.637
G0 X135.702 Y120.715
G1 F900 X135.849 Y120.161 E22.56504
G1 X136.085 Y119.649 E22.60442
G1 X136.425 Y119.155 E22.6463
G1 X136.854 Y118.722 E22.68888
G1 X137.368 Y118.377 E22.73211
G1 X137.906 Y118.137 E22.77326
G1 X138.413 Y118.003 E22.80989
G1 X138.947 Y117.953 E22.84735
G1 X139.533 Y117.995 E22.88838
G1 X140.145 Y118.15 E22.93248
G1 X140.669 Y118.396 E22.97291
G1 X141.153 Y118.729 E23.01395
G1 X141.533 Y119.109 E23.05148
G1 X141.908 Y119.63 E23.09632
G1 X142.164 Y120.208 E23.14047
G1 X142.293 Y120.701 E23.17606
G1 X143.7 Y120.701 E23.27434
G1 X143.7 Y81.722 E25.99688
G1 X143.625 Y80.876 E26.0562
G1 X143.416 Y80.099 E26.1124
G1 X143.068 Y79.352 E26.16996
G1 X142.597 Y78.68 E26.22727
G1 X142.019 Y78.102 E26.28437
G1 X141.347 Y77.631 E26.34169
G1 X140.599 Y77.283 E26.39931
G1 X139.821 Y77.074 E26.45558
G1 X138.97 Y76.999 E26.51524
G1 X61.03 Y76.999 E31.95906
G1 X60.179 Y77.074 E32.01873
G1 X59.4 Y77.283 E32.07507
G1 X58.653 Y77.632 E32.13266
G1 X57.981 Y78.102 E32.18993
G1 X57.403 Y78.68 E32.24703
G1 X56.933 Y79.352 E32.30431
G1 X56.584 Y80.099 E32.36189
G1 X56.377 Y80.872 E32.41779
G1 X56.3 Y81.73 E32.47796
G1 X56.301 Y120.7 E35.19987
G1 X57.707 Y120.701 E35.29807
G1 X57.849 Y120.166 E35.33673
G1 X58.072 Y119.674 E35.37446
G1 X58.429 Y119.147 E35.41892
G1 X58.81 Y118.766 E35.45656
G1 X59.301 Y118.414 E35.49875
G1 X59.808 Y118.172 E35.53799
G1 X60.364 Y118.014 E35.57836
G1 X60.996 Y117.948 E35.62275
G1 X61.588 Y118.001 E35.66426
G1 X62.135 Y118.148 E35.70382
G1 X62.661 Y118.391 E35.74429
G1 X63.127 Y118.71 E35.78374
G1 X63.575 Y119.156 E35.82789
G1 X63.908 Y119.63 E35.86835
G1 X64.15 Y120.156 E35.90879
G1 X64.298 Y120.715 E35.94918
G1 X64.349 Y121.256 E35.98714
G1 X64.35 Y123.001 E36.10902
G1 X135.65 Y123.001 E41.08906
G1 X135.652 Y121.251 E41.21129
G1 X135.702 Y120.715 E41.24889
G0 F3000 X135.411 Y120.637
G0 X128.472 Y119.429
G0 X125.502 Y99.347
G0 X117.987 Y92.875
G0 X117.987 Y92.487
G1 F900 X117.749 Y92.575 E41.26661
G1 X81.871 Y92.573 E43.77256
G1 X81.551 Y92.446 E43.7966
G1 X81.378 Y92.226 E43.81615
G1 X81.33 Y92.063 E43.82802
G1 X81.324 Y79.851 E44.68098
G1 X81.444 Y79.615 E44.69948
G1 X81.641 Y79.445 E44.71765
G1 X81.843 Y79.375 E44.73258
G1 X124.674 Y79.375 E47.72417
G1 X124.964 Y79.449 E47.74507
G1 X125.162 Y79.625 E47.76358
G1 X125.269 Y79.893 E47.78373
G1 X125.274 Y89.449 E48.45118
G1 X125.154 Y89.735 E48.47285
G1 X125.035 Y89.856 E48.4847
G1 X124.753 Y89.975 E48.50608
G1 X118.274 Y89.975 E48.95861
G1 X118.274 Y91.975 E49.0983
G1 X118.226 Y92.212 E49.11519
G1 X118.136 Y92.359 E49.12723
G1 X117.987 Y92.487 E49.14095
G0 F3000 X117.987 Y92.875
G0 X128.462 Y89.105
G0 X128.472 Y80.571
G0 X134.513 Y80.572
G0 X136.23 Y84.859
G0 X138.921 Y85.344
G0 X138.947 Y85.047
G1 F900 X138.467 Y85.005 E49.17461
G1 X137.854 Y84.85 E49.21877
G1 X137.317 Y84.596 E49.26026
G1 X136.847 Y84.268 E49.30029
G1 X136.434 Y83.855 E49.34109
G1 X136.1 Y83.379 E49.3817
G1 X135.855 Y82.851 E49.42236
G1 X135.704 Y82.295 E49.4626
G1 X135.651 Y81.717 E49.50314
G1 X135.694 Y81.166 E49.54174
G1 X135.848 Y80.558 E49.58555
G1 X136.11 Y80.002 E49.62848
G1 X136.433 Y79.541 E49.6678
G1 X136.808 Y79.166 E49.70484
G1 X137.281 Y78.825 E49.74557
G1 X137.854 Y78.549 E49.78999
G1 X138.416 Y78.4 E49.8306
G1 X138.972 Y78.35 E49.86959
G1 X139.586 Y78.4 E49.91262
G1 X140.142 Y78.549 E49.95282
G1 X140.628 Y78.771 E49.99014
G1 X141.155 Y79.129 E50.03464
G1 X141.568 Y79.542 E50.07544
G1 X141.902 Y80.024 E50.11639
G1 X142.149 Y80.556 E50.15736
G1 X142.302 Y81.12 E50.19818
G1 X142.349 Y81.724 E50.24049
G1 X142.3 Y82.282 E50.27962
G1 X142.15 Y82.845 E50.32031
G1 X141.928 Y83.326 E50.35732
G1 X141.571 Y83.853 E50.40178
G1 X141.153 Y84.271 E50.44306
G1 X140.669 Y84.604 E50.4841
G1 X140.192 Y84.828 E50.52091
G1 X139.581 Y85.002 E50.56528
G1 X138.947 Y85.047 E50.60967
G0 F3000 X138.982 Y84.648
;TYPE:WALL-OUTER
G1 F900 X138.468 Y84.6 E50.64573
G1 X137.977 Y84.465 E50.6813
G1 X137.52 Y84.251 E50.71654
G1 X137.12 Y83.974 E50.75053
G1 X136.739 Y83.596 E50.78801
G1 X136.445 Y83.176 E50.82382
G1 X136.222 Y82.688 E50.8613
G1 X136.096 Y82.217 E50.89535
G1 X136.051 Y81.717 E50.93042
G1 X136.093 Y81.201 E50.96657
G1 X136.222 Y80.709 E51.0021
G1 X136.448 Y80.216 E51.03998
G1 X136.75 Y79.79 E51.07645
G1 X137.091 Y79.449 E51.11014
G1 X137.541 Y79.135 E51.14846
G1 X138.01 Y78.921 E51.18447
G1 X138.485 Y78.794 E51.21881
G1 X139.018 Y78.75 E51.25617
G1 X139.516 Y78.794 E51.29109
G1 X140.006 Y78.926 E51.32653
G1 X140.475 Y79.143 E51.36263
G1 X140.909 Y79.449 E51.39972
G1 X141.25 Y79.79 E51.4334
G1 X141.556 Y80.224 E51.47049
G1 X141.772 Y80.69 E51.50636
G1 X141.907 Y81.201 E51.54328
G1 X141.949 Y81.708 E51.57881
G1 X141.905 Y82.213 E51.61422
G1 X141.778 Y82.688 E51.64856
G1 X141.564 Y83.158 E51.68463
G1 X141.25 Y83.608 E51.72296
G1 X140.88 Y83.974 E51.75931
G1 X140.475 Y84.254 E51.7937
G1 X139.99 Y84.477 E51.83098
G1 X139.498 Y84.606 E51.86651
G1 X138.982 Y84.648 E51.90267
G0 F3000 X138.783 Y84.63
G0 X138.722 Y85.327
G0 X135.849 Y84.851
G0 X134.513 Y80.572
G0 X128.472 Y80.571
G0 X125.502 Y90.203
G0 X118.502 Y92.803
G0 X117.709 Y92.173
G1 F900 X81.906 Y92.175 E54.40338
G1 X81.821 Y92.148 E54.40961
G1 X81.726 Y92.005 E54.4216
G1 X81.724 Y79.931 E55.26492
G1 X81.764 Y79.855 E55.27092
G1 X81.889 Y79.777 E55.28121
G1 X124.754 Y79.775 E58.27517
G1 X124.873 Y79.947 E58.28978
G1 X124.872 Y89.41 E58.95074
G1 X124.795 Y89.536 E58.96105
G1 X124.711 Y89.572 E58.96743
G1 X117.874 Y89.575 E59.44497
G1 X117.869 Y92.021 E59.61582
G1 X117.828 Y92.103 E59.62222
G1 X117.709 Y92.173 E59.63186
G0 F3000 X117.509 Y92.173
G0 X117.509 Y92.875
G0 X125.502 Y99.347
G0 X125.502 Y110.403
G0 X118.502 Y113.003
G0 X117.703 Y113.075
G0 X117.703 Y112.374
G1 F900 X81.889 Y112.373 E62.13334
G1 X81.803 Y112.335 E62.1399
G1 X81.725 Y112.204 E62.15055
G1 X81.724 Y100.13 E62.99388
G1 X81.783 Y100.032 E63.00187
G1 X81.906 Y99.975 E63.01134
G1 X124.711 Y99.978 E66.00111
G1 X124.795 Y100.014 E66.00749
G1 X124.874 Y100.124 E66.01695
G1 X124.872 Y109.61 E66.67951
G1 X124.795 Y109.736 E66.68982
G1 X124.711 Y109.772 E66.69621
G1 X117.874 Y109.775 E67.17375
G1 X117.874 Y112.217 E67.34431
G1 X117.78 Y112.346 E67.35546
G1 X117.703 Y112.374 E67.36118
G0 F3000 X117.503 Y112.374
G0 X117.503 Y113.075
G0 X128.472 Y119.429
G0 X129.254 Y118.801
G1 F900 X129.14 Y118.721 E67.37091
G1 X129.103 Y118.638 E67.37726
G1 X129.1 Y81.352 E69.98155
G1 X129.168 Y81.248 E69.99022
G1 X129.265 Y81.201 E69.99775
G1 X133.752 Y81.2 E70.31115
G1 X133.906 Y81.338 E70.3256
G1 X133.933 Y82.27 E70.39072
G1 X134.099 Y83.109 E70.45046
G1 X134.403 Y83.903 E70.50984
G1 X134.846 Y84.655 E70.5708
G1 X135.396 Y85.304 E70.63022
G1 X136.045 Y85.854 E70.68964
G1 X136.793 Y86.294 E70.75025
G1 X137.592 Y86.599 E70.80999
G1 X138.43 Y86.766 E70.86967
G1 X139.345 Y86.794 E70.93361
G1 X139.457 Y86.865 E70.94287
G1 X139.5 Y86.946 E70.94928
G1 X139.498 Y116.045 E72.98173
G1 X139.433 Y116.16 E72.99096
G1 X139.317 Y116.21 E72.99978
G1 X138.491 Y116.227 E73.05749
G1 X137.718 Y116.367 E73.11236
G1 X136.954 Y116.631 E73.16882
G1 X136.254 Y117.005 E73.22425
G1 X135.617 Y117.486 E73.28
G1 X135.075 Y118.046 E73.33444
G1 X134.568 Y118.763 E73.39577
G1 X134.455 Y118.801 E73.4041
G1 X129.254 Y118.801 E73.76737
G0 F3000 X129.14 Y118.721
G0 X129.115 Y118.665
G0 X128.4 Y118.665
G0 X70.735 Y119.501
G0 X70.735 Y118.799
G1 F900 X65.545 Y118.801 E74.12987
G1 X65.431 Y118.763 E74.13826
G1 X64.926 Y118.047 E74.19946
G1 X64.383 Y117.486 E74.25399
G1 X63.746 Y117.005 E74.30974
G1 X63.046 Y116.631 E74.36518
G1 X62.282 Y116.367 E74.42164
G1 X61.509 Y116.227 E74.47651
G1 X60.655 Y116.205 E74.53617
G1 X60.567 Y116.16 E74.54308
G1 X60.502 Y116.045 E74.5523
G1 X60.5 Y86.946 E76.58476
G1 X60.639 Y86.791 E76.5993
G1 X61.572 Y86.766 E76.66449
G1 X62.412 Y86.599 E76.72431
G1 X63.213 Y86.292 E76.78423
G1 X63.962 Y85.849 E76.84501
G1 X64.611 Y85.298 E76.90447
G1 X65.161 Y84.646 E76.96405
G1 X65.602 Y83.891 E77.02512
G1 X65.905 Y83.093 E77.08474
G1 X66.069 Y82.253 E77.14452
G1 X66.094 Y81.337 E77.20852
G1 X66.138 Y81.248 E77.21546
G1 X66.255 Y81.182 E77.22484
G1 X70.751 Y81.181 E77.53887
G1 X70.861 Y81.261 E77.54837
G1 X70.897 Y81.344 E77.55469
G1 X70.897 Y118.638 E80.15954
G1 X70.82 Y118.762 E80.16973
G1 X70.735 Y118.799 E80.17621
G0 F3000 X70.535 Y118.799
G0 X70.535 Y119.501
G0 X64.604 Y120.744
G0 X63.907 Y120.804
G1 F900 X63.95 Y121.288 E80.21014
G1 X63.95 Y123.401 E80.35773
G1 X136.05 Y123.401 E85.39365
G1 X136.05 Y121.287 E85.5413
G1 X136.099 Y120.77 E85.57757
G1 X136.222 Y120.312 E85.6107
G1 X136.44 Y119.833 E85.64746
G1 X136.736 Y119.407 E85.68369
G1 X137.12 Y119.026 E85.72147
G1 X137.537 Y118.74 E85.75679
G1 X138.01 Y118.523 E85.79314
G1 X138.502 Y118.394 E85.82866
G1 X139.018 Y118.352 E85.86482
G1 X139.532 Y118.4 E85.90088
G1 X140.023 Y118.535 E85.93645
G1 X140.475 Y118.746 E85.97129
G1 X140.88 Y119.026 E86.00568
G1 X141.25 Y119.392 E86.04203
G1 X141.564 Y119.842 E86.08035
G1 X141.778 Y120.312 E86.11642
G1 X141.907 Y120.804 E86.15195
G1 X141.933 Y121.101 E86.17277
G1 X144.1 Y121.101 E86.32413
G1 X144.1 Y81.704 E89.07587
G1 X144.02 Y80.806 E89.13884
G1 X143.794 Y79.962 E89.19986
G1 X143.416 Y79.151 E89.26236
G1 X142.905 Y78.422 E89.32454
G1 X142.277 Y77.794 E89.38657
G1 X141.548 Y77.283 E89.44875
G1 X140.737 Y76.905 E89.51125
G1 X139.891 Y76.678 E89.57243
G1 X138.987 Y76.599 E89.63581
G1 X61.013 Y76.599 E95.08201
G1 X60.109 Y76.678 E95.14539
G1 X59.263 Y76.905 E95.20657
G1 X58.452 Y77.284 E95.26909
G1 X57.723 Y77.794 E95.33123
G1 X57.095 Y78.422 E95.39327
G1 X56.585 Y79.151 E95.45541
G1 X56.206 Y79.962 E95.51793
G1 X55.981 Y80.802 E95.57867
G1 X55.9 Y81.712 E95.64248
G1 X55.901 Y121.1 E98.39359
G1 X58.067 Y121.101 E98.54488
G1 X58.099 Y120.77 E98.5681
G1 X58.222 Y120.312 E98.60123
G1 X58.436 Y119.842 E98.6373
G1 X58.75 Y119.392 E98.67562
G1 X59.12 Y119.026 E98.71197
G1 X59.525 Y118.746 E98.74636
G1 X60.01 Y118.523 E98.78365
G1 X60.502 Y118.394 E98.81917
G1 X61.018 Y118.352 E98.85533
G1 X61.516 Y118.396 E98.89025
G1 X62.004 Y118.527 E98.92555
G1 X62.473 Y118.745 E98.96167
G1 X62.886 Y119.03 E98.99672
G1 X63.253 Y119.394 E99.03282
G1 X63.564 Y119.842 E99.07091
G1 X63.778 Y120.312 E99.10698
G1 X63.907 Y120.804 E99.14251
G0 F3000 X63.924 Y121.003
G0 X64.622 Y120.943
G0 X63.956 Y117.963
G0 X59.872 Y116.821
G0 X59.872 Y86.184
G0 X61.078 Y85.345
G0 X61.018 Y84.648
G1 F900 X60.502 Y84.606 E99.17867
G1 X60.01 Y84.477 E99.21419
G1 X59.525 Y84.254 E99.25148
G1 X59.12 Y83.974 E99.28587
G1 X58.75 Y83.608 E99.32222
G1 X58.436 Y83.158 E99.36055
G1 X58.222 Y82.688 E99.39662
G1 X58.095 Y82.213 E99.43096
G1 X58.051 Y81.681 E99.46824
G1 X58.099 Y81.167 E99.5043
G1 X58.227 Y80.693 E99.53859
G1 X58.453 Y80.209 E99.5759
G1 X58.738 Y79.803 E99.61055
G1 X59.104 Y79.437 E99.6467
G1 X59.51 Y79.152 E99.68135
G1 X59.994 Y78.926 E99.71866
G1 X60.484 Y78.794 E99.7541
G1 X61.018 Y78.75 E99.79153
G1 X61.532 Y78.798 E99.82759
G1 X61.99 Y78.921 E99.86071
G1 X62.459 Y79.135 E99.89672
G1 X62.909 Y79.449 E99.93504
G1 X63.25 Y79.79 E99.96873
G1 X63.551 Y80.215 E100.0051
G1 X63.777 Y80.705 E100.04279
G1 X63.901 Y81.166 E100.07613
G1 X63.95 Y81.704 E100.11387
G1 X63.901 Y82.23 E100.15077
G1 X63.772 Y82.708 E100.18535
G1 X63.556 Y83.176 E100.22135
G1 X63.262 Y83.596 E100.25716
G1 X62.895 Y83.962 E100.29336
G1 X62.481 Y84.251 E100.32862
