;FLAVOR:Marlin
;TIME:6667
;Filament used: 4.16491m
;Layer height: 0.2
;MINX:55.9
;MINY:76.599
;MINZ:0.35
;MAXX:144.1
;MAXY:123.401
;MAXZ:3.95
;TARGET_MACHINE.NAME:XYZprinting da Vinci 1.0 Pro
;Generated with Cura_SteamEngine 5.6.0
M140 S45
M105
M190 S45
M104 S190
M105
M109 S190
M82 ;absolute extrusion mode
G28 ; home all axes
G1 Z15 F5000 ; lift nozzle
G92 E0
G1 F200 E3

G92 E0
G92 E0
G1 F1800 E-4
;LAYER_COUNT:19
;LAYER:0
M106 S255
;MESH:esc_holder_universal_V1.STL
G0 F3000 X61 Y85.051 Z0.35
;TYPE:WALL-INNER
G1 F1800 E0
G1 F900 X60.414 Y84.997 E0.0411
G1 X59.856 Y84.847 E0.08146
G1 X59.322 Y84.601 E0.12253
G1 X58.846 Y84.27 E0.16302
G1 X58.467 Y83.891 E0.20046
G1 X58.094 Y83.373 E0.24504
G1 X57.85 Y82.844 E0.28573
G1 X57.701 Y82.282 E0.32634
G1 X57.651 Y81.728 E0.36519
G1 X57.698 Y81.12 E0.40779
G1 X57.851 Y80.557 E0.44854
G1 X58.097 Y80.024 E0.48954
G1 X58.427 Y79.547 E0.53005
G1 X58.846 Y79.131 E0.57129
G1 X59.325 Y78.796 E0.61212
G1 X59.858 Y78.55 E0.65312
G1 X60.414 Y78.4 E0.69334
G1 X61.028 Y78.35 E0.73637
G1 X61.533 Y78.393 E0.77177
G1 X62.094 Y78.535 E0.81219
G1 X62.675 Y78.793 E0.85659
G1 X63.192 Y79.166 E0.90112
G1 X63.533 Y79.507 E0.9348
G1 X63.906 Y80.025 E0.97939
G1 X64.148 Y80.555 E1.02008
G1 X64.287 Y81.063 E1.05687
G1 X64.347 Y81.646 E1.0978
G1 X64.301 Y82.281 E1.14227
G1 X64.148 Y82.842 E1.18289
G1 X63.902 Y83.376 E1.22395
G1 X63.566 Y83.855 E1.26482
G1 X63.154 Y84.267 E1.30552
G1 X62.68 Y84.598 E1.3459
G1 X62.145 Y84.847 E1.38711
G1 X61.586 Y84.997 E1.42754
G1 X61 Y85.051 E1.46864
G0 F3000 X60.974 Y85.349
G0 X70.724 Y85.349
G0 X70.75 Y85.051
G1 F900 X70.164 Y84.997 E1.50974
G1 X69.606 Y84.847 E1.5501
G1 X69.07 Y84.597 E1.59141
G1 X68.596 Y84.267 E1.63175
G1 X68.184 Y83.855 E1.67245
G1 X67.848 Y83.376 E1.71332
G1 X67.602 Y82.842 E1.75438
G1 X67.463 Y82.334 E1.79117
G1 X67.403 Y81.752 E1.83203
G1 X67.449 Y81.116 E1.87657
G1 X67.602 Y80.555 E1.91719
G1 X67.824 Y80.068 E1.95457
G1 X68.18 Y79.544 E1.99882
G1 X68.558 Y79.166 E2.03615
G1 X69.031 Y78.825 E2.07688
G1 X69.604 Y78.549 E2.1213
G1 X70.166 Y78.4 E2.16191
G1 X70.697 Y78.351 E2.19916
G1 X71.283 Y78.393 E2.2402
G1 X71.844 Y78.535 E2.28061
G1 X72.425 Y78.793 E2.32502
G1 X72.942 Y79.166 E2.36954
G1 X73.283 Y79.507 E2.40323
G1 X73.656 Y80.025 E2.44781
G1 X73.898 Y80.555 E2.48851
G1 X74.037 Y81.063 E2.52529
G1 X74.097 Y81.646 E2.56623
G1 X74.051 Y82.281 E2.6107
G1 X73.898 Y82.842 E2.65131
G1 X73.652 Y83.376 E2.69238
G1 X73.316 Y83.855 E2.73324
G1 X72.904 Y84.267 E2.77394
G1 X72.43 Y84.598 E2.81432
G1 X71.895 Y84.847 E2.85554
G1 X71.336 Y84.997 E2.89596
G1 X70.75 Y85.051 E2.93707
G0 F3000 X70.724 Y85.349
G0 X80.474 Y85.349
G0 X80.5 Y85.051
G1 F900 X79.914 Y84.997 E2.97817
G1 X79.356 Y84.847 E3.01853
G1 X78.82 Y84.597 E3.05984
G1 X78.346 Y84.267 E3.10018
G1 X77.934 Y83.855 E3.14087
G1 X77.598 Y83.376 E3.18174
G1 X77.352 Y82.842 E3.22281
G1 X77.213 Y82.334 E3.25959
G1 X77.153 Y81.752 E3.30046
G1 X77.199 Y81.116 E3.345
G1 X77.352 Y80.555 E3.38561
G1 X77.574 Y80.068 E3.42299
G1 X77.93 Y79.544 E3.46724
G1 X78.308 Y79.166 E3.50458
G1 X78.781 Y78.825 E3.54531
G1 X79.354 Y78.549 E3.58973
G1 X79.916 Y78.4 E3.63034
G1 X80.447 Y78.351 E3.66758
G1 X81.033 Y78.393 E3.70862
G1 X81.594 Y78.535 E3.74904
G1 X82.175 Y78.793 E3.79344
G1 X82.692 Y79.166 E3.83797
G1 X83.033 Y79.507 E3.87165
G1 X83.406 Y80.025 E3.91624
G1 X83.648 Y80.555 E3.95693
G1 X83.787 Y81.063 E3.99372
G1 X83.847 Y81.646 E4.03465
G1 X83.801 Y82.281 E4.07912
G1 X83.648 Y82.842 E4.11974
G1 X83.402 Y83.376 E4.1608
G1 X83.066 Y83.855 E4.20167
G1 X82.654 Y84.267 E4.24236
G1 X82.18 Y84.598 E4.28274
G1 X81.645 Y84.847 E4.32396
G1 X81.086 Y84.997 E4.36439
G1 X80.5 Y85.051 E4.40549
G0 F3000 X80.474 Y85.349
G0 X90.224 Y85.349
G0 X90.25 Y85.051
G1 F900 X89.664 Y84.997 E4.44659
G1 X89.106 Y84.847 E4.48695
G1 X88.57 Y84.597 E4.52826
G1 X88.096 Y84.267 E4.5686
G1 X87.684 Y83.855 E4.6093
G1 X87.348 Y83.376 E4.65016
G1 X87.102 Y82.842 E4.69123
G1 X86.963 Y82.334 E4.72802
G1 X86.903 Y81.752 E4.76888
G1 X86.949 Y81.116 E4.81342
G1 X87.102 Y80.555 E4.85404
G1 X87.324 Y80.068 E4.89142
G1 X87.68 Y79.544 E4.93566
G1 X88.058 Y79.166 E4.973
G1 X88.531 Y78.825 E5.01373
G1 X89.104 Y78.549 E5.05815
G1 X89.666 Y78.4 E5.09876
G1 X90.197 Y78.351 E5.13601
G1 X90.783 Y78.393 E5.17704
G1 X91.344 Y78.535 E5.21746
G1 X91.925 Y78.793 E5.26187
G1 X92.442 Y79.166 E5.30639
G1 X92.783 Y79.507 E5.34008
G1 X93.156 Y80.025 E5.38466
G1 X93.398 Y80.555 E5.42536
G1 X93.537 Y81.063 E5.46214
G1 X93.597 Y81.646 E5.50308
G1 X93.551 Y82.281 E5.54755
G1 X93.398 Y82.842 E5.58816
G1 X93.152 Y83.376 E5.62923
G1 X92.816 Y83.855 E5.67009
G1 X92.404 Y84.267 E5.71079
G1 X91.93 Y84.598 E5.75117
G1 X91.395 Y84.847 E5.79239
G1 X90.836 Y84.997 E5.83281
G1 X90.25 Y85.051 E5.87391
G0 F3000 X90.224 Y85.349
G0 X99.974 Y85.349
G0 X100 Y85.051
G1 F900 X99.414 Y84.997 E5.91502
G1 X98.856 Y84.847 E5.95538
G1 X98.32 Y84.597 E5.99669
G1 X97.846 Y84.267 E6.03703
G1 X97.434 Y83.855 E6.07772
G1 X97.098 Y83.376 E6.11859
G1 X96.852 Y82.842 E6.15965
G1 X96.713 Y82.334 E6.19644
G1 X96.653 Y81.752 E6.23731
G1 X96.699 Y81.116 E6.28184
G1 X96.852 Y80.555 E6.32246
G1 X97.074 Y80.068 E6.35984
G1 X97.43 Y79.544 E6.40409
G1 X97.808 Y79.166 E6.44143
G1 X98.281 Y78.825 E6.48215
G1 X98.854 Y78.549 E6.52658
G1 X99.416 Y78.4 E6.56719
G1 X99.947 Y78.351 E6.60443
G1 X100.533 Y78.393 E6.64547
G1 X101.094 Y78.535 E6.68589
G1 X101.675 Y78.793 E6.73029
G1 X102.192 Y79.166 E6.77482
G1 X102.533 Y79.507 E6.8085
G1 X102.906 Y80.025 E6.85308
G1 X103.148 Y80.555 E6.89378
G1 X103.287 Y81.063 E6.93057
G1 X103.347 Y81.646 E6.9715
G1 X103.301 Y82.281 E7.01597
G1 X103.148 Y82.842 E7.05658
G1 X102.902 Y83.376 E7.09765
G1 X102.566 Y83.855 E7.13852
G1 X102.154 Y84.267 E7.17921
G1 X101.68 Y84.598 E7.21959
G1 X101.145 Y84.847 E7.26081
G1 X100.586 Y84.997 E7.30124
G1 X100 Y85.051 E7.34234
G0 F3000 X99.974 Y85.349
G0 X109.724 Y85.349
G0 X109.75 Y85.051
G1 F900 X109.164 Y84.997 E7.38344
G1 X108.606 Y84.847 E7.4238
G1 X108.07 Y84.597 E7.46511
G1 X107.596 Y84.267 E7.50545
G1 X107.184 Y83.855 E7.54615
G1 X106.848 Y83.376 E7.58701
G1 X106.602 Y82.842 E7.62808
G1 X106.463 Y82.334 E7.66486
G1 X106.403 Y81.752 E7.70573
G1 X106.449 Y81.116 E7.75027
G1 X106.602 Y80.555 E7.79088
G1 X106.824 Y80.068 E7.82827
G1 X107.18 Y79.544 E7.87251
G1 X107.558 Y79.166 E7.90985
G1 X108.031 Y78.825 E7.95058
G1 X108.604 Y78.549 E7.995
G1 X109.166 Y78.4 E8.03561
G1 X109.697 Y78.351 E8.07286
G1 X110.283 Y78.393 E8.11389
G1 X110.844 Y78.535 E8.15431
G1 X111.425 Y78.793 E8.19871
G1 X111.942 Y79.166 E8.24324
G1 X112.283 Y79.507 E8.27692
G1 X112.656 Y80.025 E8.32151
G1 X112.898 Y80.555 E8.3622
G1 X113.037 Y81.063 E8.39899
G1 X113.097 Y81.646 E8.43993
G1 X113.051 Y82.281 E8.48439
G1 X112.898 Y82.842 E8.52501
G1 X112.652 Y83.376 E8.56607
G1 X112.316 Y83.855 E8.60694
G1 X111.904 Y84.267 E8.64764
G1 X111.43 Y84.598 E8.68802
G1 X110.895 Y84.847 E8.72923
G1 X110.336 Y84.997 E8.76966
G1 X109.75 Y85.051 E8.81076
G0 F3000 X109.724 Y85.349
G0 X119.474 Y85.349
G0 X119.5 Y85.051
G1 F900 X118.914 Y84.997 E8.85187
G1 X118.356 Y84.847 E8.89222
G1 X117.82 Y84.597 E8.93353
G1 X117.346 Y84.267 E8.97387
G1 X116.934 Y83.855 E9.01457
G1 X116.598 Y83.376 E9.05544
G1 X116.352 Y82.842 E9.0965
G1 X116.213 Y82.334 E9.13329
G1 X116.153 Y81.752 E9.17416
G1 X116.199 Y81.116 E9.21869
G1 X116.352 Y80.555 E9.25931
G1 X116.574 Y80.068 E9.29669
G1 X116.93 Y79.544 E9.34094
G1 X117.308 Y79.166 E9.37828
G1 X117.781 Y78.825 E9.419
G1 X118.354 Y78.549 E9.46343
G1 X118.916 Y78.4 E9.50404
G1 X119.447 Y78.351 E9.54128
G1 X120.033 Y78.393 E9.58232
G1 X120.594 Y78.535 E9.62274
G1 X121.175 Y78.793 E9.66714
G1 X121.692 Y79.166 E9.71167
G1 X122.033 Y79.507 E9.74535
G1 X122.406 Y80.025 E9.78993
G1 X122.648 Y80.555 E9.83063
G1 X122.787 Y81.063 E9.86741
G1 X122.847 Y81.646 E9.90835
G1 X122.801 Y82.281 E9.95282
G1 X122.648 Y82.842 E9.99343
G1 X122.402 Y83.376 E10.0345
G1 X122.066 Y83.855 E10.07537
G1 X121.654 Y84.267 E10.11606
G1 X121.18 Y84.598 E10.15644
G1 X120.645 Y84.847 E10.19766
G1 X120.086 Y84.997 E10.23808
G1 X119.5 Y85.051 E10.27919
G0 F3000 X119.474 Y85.349
G0 X129.224 Y85.349
G0 X129.25 Y85.051
G1 F900 X128.664 Y84.997 E10.32029
G1 X128.106 Y84.847 E10.36065
G1 X127.57 Y84.597 E10.40196
G1 X127.096 Y84.267 E10.4423
G1 X126.684 Y83.855 E10.483
G1 X126.348 Y83.376 E10.52386
G1 X126.102 Y82.842 E10.56493
G1 X125.963 Y82.334 E10.60171
G1 X125.903 Y81.752 E10.64258
G1 X125.949 Y81.116 E10.68712
G1 X126.102 Y80.555 E10.72773
G1 X126.324 Y80.068 E10.76512
G1 X126.68 Y79.544 E10.80936
G1 X127.058 Y79.166 E10.8467
G1 X127.531 Y78.825 E10.88743
G1 X128.104 Y78.549 E10.93185
G1 X128.666 Y78.4 E10.97246
G1 X129.197 Y78.351 E11.00971
G1 X129.783 Y78.393 E11.05074
G1 X130.344 Y78.535 E11.09116
G1 X130.925 Y78.793 E11.13556
G1 X131.442 Y79.166 E11.18009
G1 X131.783 Y79.507 E11.21377
G1 X132.156 Y80.025 E11.25836
G1 X132.398 Y80.555 E11.29905
G1 X132.537 Y81.063 E11.33584
G1 X132.602 Y81.699 E11.38049
G1 X132.537 Y82.334 E11.42508
G1 X132.398 Y82.842 E11.46186
G1 X132.152 Y83.376 E11.50293
G1 X131.816 Y83.855 E11.5438
G1 X131.404 Y84.267 E11.58449
G1 X130.93 Y84.598 E11.62487
G1 X130.395 Y84.847 E11.66609
G1 X129.836 Y84.997 E11.70651
G1 X129.25 Y85.051 E11.74762
G0 F3000 X129.224 Y85.349
G0 X138.974 Y85.349
G0 X139 Y85.051
G1 F900 X138.414 Y84.997 E11.78872
G1 X137.856 Y84.847 E11.82908
G1 X137.32 Y84.597 E11.87039
G1 X136.846 Y84.267 E11.91073
G1 X136.434 Y83.855 E11.95142
G1 X136.098 Y83.376 E11.99229
G1 X135.852 Y82.842 E12.03336
G1 X135.713 Y82.334 E12.07014
G1 X135.653 Y81.752 E12.11101
G1 X135.699 Y81.116 E12.15555
G1 X135.852 Y80.555 E12.19616
G1 X136.074 Y80.068 E12.23355
G1 X136.43 Y79.544 E12.27779
G1 X136.808 Y79.166 E12.31513
G1 X137.281 Y78.825 E12.35586
G1 X137.854 Y78.549 E12.40028
G1 X138.416 Y78.4 E12.44089
G1 X138.972 Y78.35 E12.47988
G1 X139.586 Y78.4 E12.52291
G1 X140.142 Y78.549 E12.56311
G1 X140.628 Y78.771 E12.60043
G1 X141.155 Y79.129 E12.64493
G1 X141.533 Y79.507 E12.68227
G1 X141.908 Y80.027 E12.72705
G1 X142.149 Y80.557 E12.76771
G1 X142.302 Y81.12 E12.80846
G1 X142.349 Y81.724 E12.85078
G1 X142.3 Y82.282 E12.8899
G1 X142.15 Y82.845 E12.9306
G1 X141.928 Y83.326 E12.9676
G1 X141.571 Y83.853 E13.01206
G1 X141.19 Y84.234 E13.04969
G1 X140.682 Y84.599 E13.09339
G1 X140.145 Y84.847 E13.1347
G1 X139.586 Y84.997 E13.17512
G1 X139 Y85.051 E13.21623
G0 F3000 X138.974 Y85.349
G0 X135.888 Y89.804
G0 X135.462 Y90.975
G0 X135.462 Y92.222
G0 X135.888 Y93.394
G0 X136.691 Y94.352
G0 X137.663 Y94.924
G0 X138.974 Y95.249
G0 X139 Y94.951
G1 F900 X138.414 Y94.897 E13.25733
G1 X137.856 Y94.747 E13.29769
G1 X137.32 Y94.497 E13.339
G1 X136.846 Y94.167 E13.37934
G1 X136.434 Y93.755 E13.42004
G1 X136.098 Y93.276 E13.4609
G1 X135.852 Y92.742 E13.50197
G1 X135.713 Y92.234 E13.53875
G1 X135.653 Y91.652 E13.57962
G1 X135.699 Y91.016 E13.62416
G1 X135.852 Y90.455 E13.66477
G1 X136.099 Y89.922 E13.7058
G1 X136.434 Y89.443 E13.74663
G1 X136.844 Y89.033 E13.78713
G1 X137.323 Y88.698 E13.82796
G1 X137.856 Y88.451 E13.86899
G1 X138.414 Y88.301 E13.90935
G1 X139 Y88.247 E13.95045
G1 X139.586 Y88.301 E13.99155
G1 X140.145 Y88.451 E14.03198
G1 X140.678 Y88.695 E14.07292
G1 X141.192 Y89.066 E14.1172
G1 X141.533 Y89.407 E14.15088
G1 X141.874 Y89.88 E14.19161
G1 X142.129 Y90.409 E14.23263
G1 X142.3 Y91.009 E14.2762
G1 X142.35 Y91.599 E14.31756
G1 X142.3 Y92.182 E14.35843
G1 X142.15 Y92.745 E14.39912
G1 X141.928 Y93.226 E14.43613
G1 X141.571 Y93.753 E14.48059
G1 X141.19 Y94.134 E14.51822
G1 X140.682 Y94.499 E14.56191
G1 X140.145 Y94.747 E14.60322
G1 X139.586 Y94.897 E14.64365
G1 X139 Y94.951 E14.68475
G0 F3000 X138.974 Y95.249
G0 X129.224 Y95.249
G0 X129.25 Y94.951
G1 F900 X128.664 Y94.897 E14.72586
G1 X128.106 Y94.747 E14.76621
G1 X127.57 Y94.497 E14.80752
G1 X127.096 Y94.167 E14.84786
G1 X126.684 Y93.755 E14.88856
G1 X126.348 Y93.276 E14.92943
G1 X126.102 Y92.742 E14.97049
G1 X125.963 Y92.234 E15.00728
G1 X125.903 Y91.652 E15.04815
G1 X125.949 Y91.016 E15.09268
G1 X126.102 Y90.455 E15.1333
G1 X126.349 Y89.922 E15.17433
G1 X126.684 Y89.443 E15.21516
G1 X127.094 Y89.033 E15.25566
G1 X127.573 Y88.698 E15.29648
G1 X128.106 Y88.451 E15.33751
G1 X128.614 Y88.312 E15.3743
G1 X129.247 Y88.247 E15.41874
G1 X129.836 Y88.301 E15.46006
G1 X130.395 Y88.451 E15.50048
G1 X130.927 Y88.698 E15.54145
G1 X131.406 Y89.033 E15.58228
G1 X131.816 Y89.443 E15.62278
G1 X132.151 Y89.922 E15.6636
G1 X132.398 Y90.455 E15.70463
G1 X132.537 Y90.963 E15.74142
G1 X132.597 Y91.546 E15.78235
G1 X132.551 Y92.181 E15.82682
G1 X132.398 Y92.742 E15.86744
G1 X132.152 Y93.276 E15.9085
G1 X131.816 Y93.755 E15.94937
G1 X131.404 Y94.167 E15.99007
G1 X130.93 Y94.498 E16.03045
G1 X130.395 Y94.747 E16.07166
G1 X129.836 Y94.897 E16.11209
G1 X129.25 Y94.951 E16.15319
G0 F3000 X129.224 Y95.249
G0 X119.474 Y95.249
G0 X119.5 Y94.951
G1 F900 X118.914 Y94.897 E16.1943
G1 X118.356 Y94.747 E16.23465
G1 X117.82 Y94.497 E16.27596
G1 X117.346 Y94.167 E16.3163
G1 X116.934 Y93.755 E16.357
G1 X116.598 Y93.276 E16.39787
G1 X116.352 Y92.742 E16.43893
G1 X116.213 Y92.234 E16.47572
G1 X116.153 Y91.652 E16.51658
G1 X116.199 Y91.016 E16.56112
G1 X116.352 Y90.455 E16.60174
G1 X116.599 Y89.922 E16.64277
G1 X116.934 Y89.443 E16.6836
G1 X117.344 Y89.033 E16.72409
G1 X117.823 Y88.698 E16.76492
G1 X118.356 Y88.451 E16.80595
G1 X118.914 Y88.301 E16.84631
G1 X119.5 Y88.247 E16.88741
G1 X120.086 Y88.301 E16.92852
G1 X120.645 Y88.451 E16.96894
G1 X121.177 Y88.698 E17.00991
G1 X121.656 Y89.033 E17.05074
G1 X122.066 Y89.443 E17.09124
G1 X122.401 Y89.922 E17.13206
G1 X122.648 Y90.455 E17.17309
G1 X122.787 Y90.963 E17.20988
G1 X122.847 Y91.546 E17.25081
G1 X122.801 Y92.181 E17.29528
G1 X122.648 Y92.742 E17.3359
G1 X122.402 Y93.276 E17.37696
G1 X122.066 Y93.755 E17.41783
G1 X121.654 Y94.167 E17.45853
G1 X121.18 Y94.498 E17.49891
G1 X120.645 Y94.747 E17.54012
G1 X120.086 Y94.897 E17.58055
G1 X119.5 Y94.951 E17.62165
G0 F3000 X119.474 Y95.249
G0 X109.724 Y95.249
G0 X109.75 Y94.951
G1 F900 X109.164 Y94.897 E17.66276
G1 X108.606 Y94.747 E17.70311
G1 X108.07 Y94.497 E17.74442
G1 X107.596 Y94.167 E17.78476
G1 X107.184 Y93.755 E17.82546
G1 X106.848 Y93.276 E17.86633
G1 X106.602 Y92.742 E17.90739
G1 X106.463 Y92.234 E17.94418
G1 X106.403 Y91.652 E17.98504
G1 X106.449 Y91.016 E18.02958
G1 X106.602 Y90.455 E18.0702
G1 X106.849 Y89.922 E18.11123
G1 X107.184 Y89.443 E18.15206
G1 X107.594 Y89.033 E18.19255
G1 X108.073 Y88.698 E18.23338
G1 X108.606 Y88.451 E18.27441
G1 X109.164 Y88.301 E18.31477
G1 X109.75 Y88.247 E18.35587
G1 X110.336 Y88.301 E18.39698
G1 X110.895 Y88.451 E18.4374
G1 X111.427 Y88.698 E18.47837
G1 X111.906 Y89.033 E18.5192
G1 X112.316 Y89.443 E18.5597
G1 X112.651 Y89.922 E18.60052
G1 X112.898 Y90.455 E18.64155
G1 X113.037 Y90.963 E18.67834
G1 X113.097 Y91.546 E18.71928
G1 X113.051 Y92.181 E18.76374
G1 X112.898 Y92.742 E18.80436
G1 X112.652 Y93.276 E18.84542
G1 X112.316 Y93.755 E18.88629
G1 X111.904 Y94.167 E18.92699
G1 X111.43 Y94.498 E18.96737
G1 X110.895 Y94.747 E19.00858
G1 X110.336 Y94.897 E19.04901
G1 X109.75 Y94.951 E19.09011
G0 F3000 X109.724 Y95.249
G0 X99.974 Y95.249
G0 X100 Y94.951
G1 F900 X99.414 Y94.897 E19.13122
G1 X98.856 Y94.747 E19.17157
G1 X98.32 Y94.497 E19.21288
G1 X97.846 Y94.167 E19.25322
G1 X97.434 Y93.755 E19.29392
G1 X97.098 Y93.276 E19.33479
G1 X96.852 Y92.742 E19.37585
G1 X96.713 Y92.234 E19.41264
G1 X96.653 Y91.652 E19.4535
G1 X96.699 Y91.016 E19.49804
G1 X96.852 Y90.455 E19.53866
G1 X97.099 Y89.922 E19.57969
G1 X97.434 Y89.443 E19.62052
G1 X97.844 Y89.033 E19.66101
G1 X98.323 Y88.698 E19.70184
G1 X98.856 Y88.451 E19.74287
G1 X99.414 Y88.301 E19.78323
G1 X100 Y88.247 E19.82433
G1 X100.586 Y88.301 E19.86544
G1 X101.145 Y88.451 E19.90586
G1 X101.677 Y88.698 E19.94683
G1 X102.156 Y89.033 E19.98766
G1 X102.566 Y89.443 E20.02816
G1 X102.901 Y89.922 E20.06898
G1 X103.148 Y90.455 E20.11001
G1 X103.287 Y90.963 E20.1468
G1 X103.347 Y91.546 E20.18774
G1 X103.301 Y92.181 E20.2322
G1 X103.148 Y92.742 E20.27282
G1 X102.902 Y93.276 E20.31388
G1 X102.566 Y93.755 E20.35475
G1 X102.154 Y94.167 E20.39545
G1 X101.68 Y94.498 E20.43583
