;FLAVOR:Marlin
;TIME:5486
;Filament used: 3.76127m
;Layer height: 0.2
;MINX:81.255
;MINY:81.255
;MINZ:0.35
;MAXX:118.744
;MAXY:118.744
;MAXZ:29.95
;TARGET_MACHINE.NAME:XYZprinting da Vinci 1.0 Pro
;Generated with Cura_SteamEngine 5.6.0
M140 S45
M105
M190 S45
M104 S190
M105
M109 S190
M82 ;absolute extrusion mode
G28 ; home all axes
G1 Z15 F5000 ; lift nozzle
G92 E0
G1 F200 E3

G92 E0
G92 E0
G1 F1800 E-4
;LAYER_COUNT:149
;LAYER:0
M106 S255
;MESH:gear_36_18_V1.STL
G0 F3000 X100 Y107.673 Z0.35
;TYPE:WALL-INNER
G1 F1800 E0
G1 F900 X98.665 Y107.556 E0.0936
G1 X97.378 Y107.212 E0.18665
G1 X96.162 Y106.647 E0.2803
G1 X95.066 Y105.882 E0.37366
G1 X94.118 Y104.934 E0.4673
G1 X93.353 Y103.838 E0.56065
G1 X92.788 Y102.622 E0.65431
G1 X92.444 Y101.335 E0.74736
G1 X92.327 Y100 E0.84096
G1 X92.444 Y98.665 E0.93456
G1 X92.788 Y97.378 E1.02761
G1 X93.353 Y96.162 E1.12126
G1 X94.118 Y95.066 E1.21462
G1 X95.066 Y94.118 E1.30826
G1 X96.162 Y93.353 E1.40161
G1 X97.378 Y92.788 E1.49527
G1 X98.665 Y92.444 E1.58831
G1 X100 Y92.327 E1.68192
G1 X101.335 Y92.443 E1.77551
G1 X102.622 Y92.787 E1.86856
G1 X103.838 Y93.353 E1.96224
G1 X104.932 Y94.119 E2.05552
G1 X105.881 Y95.068 E2.14926
G1 X106.647 Y96.162 E2.24254
G1 X107.214 Y97.377 E2.33619
G1 X107.557 Y98.665 E2.42929
G1 X107.674 Y100 E2.52289
G1 X107.557 Y101.335 E2.6165
G1 X107.213 Y102.622 E2.70954
G1 X106.647 Y103.838 E2.80323
G1 X105.881 Y104.932 E2.89651
G1 X104.932 Y105.881 E2.99025
G1 X103.838 Y106.647 E3.08353
G1 X102.623 Y107.214 E3.17718
G1 X101.335 Y107.557 E3.27027
G1 X100 Y107.673 E3.36387
G0 F3000 X99.974 Y107.974
G0 X101.34 Y116.184
G0 X100.934 Y116.28
G1 F900 X101.132 Y116.601 E3.39021
G1 X101.389 Y117.685 E3.46802
G1 X101.589 Y118.164 E3.50428
G1 X101.701 Y117.665 E3.54
G1 X101.768 Y116.546 E3.6183
G1 X101.907 Y116.196 E3.6446
G1 X102.037 Y116.08 E3.65677
G1 X102.213 Y116.002 E3.67022
G1 X103.401 Y115.792 E3.75448
G1 X103.585 Y115.807 E3.76738
G1 X103.746 Y115.871 E3.77948
G1 X103.997 Y116.153 E3.80585
G1 X104.439 Y117.175 E3.88362
G1 X104.72 Y117.615 E3.92008
G1 X104.743 Y117.108 E3.95553
G1 X104.613 Y115.989 E4.03422
G1 X104.69 Y115.619 E4.06061
G1 X104.797 Y115.482 E4.07275
G1 X104.957 Y115.374 E4.08624
G1 X106.092 Y114.962 E4.17057
G1 X106.276 Y114.944 E4.18349
G1 X106.446 Y114.98 E4.19562
G1 X106.742 Y115.213 E4.22193
G1 X107.36 Y116.151 E4.30039
G1 X107.707 Y116.527 E4.33613
G1 X107.64 Y116.011 E4.37247
G1 X107.32 Y114.944 E4.45028
G1 X107.331 Y114.566 E4.47669
G1 X107.414 Y114.413 E4.48885
G1 X107.552 Y114.278 E4.50233
G1 X108.597 Y113.675 E4.5866
G1 X108.775 Y113.626 E4.5995
G1 X108.949 Y113.631 E4.61166
G1 X109.281 Y113.81 E4.638
G1 X110.054 Y114.626 E4.71651
G1 X110.459 Y114.936 E4.75213
G1 X110.307 Y114.448 E4.78783
G1 X109.804 Y113.445 E4.8662
G1 X109.749 Y113.07 E4.89267
G1 X109.804 Y112.906 E4.90476
G1 X109.916 Y112.75 E4.91817
G1 X110.841 Y111.976 E5.00241
G1 X111.008 Y111.897 E5.01532
G1 X111.18 Y111.873 E5.02745
G1 X111.538 Y111.991 E5.05377
G1 X112.436 Y112.658 E5.13191
G1 X112.895 Y112.895 E5.16799
G1 X112.657 Y112.435 E5.20416
G1 X111.991 Y111.538 E5.28219
G1 X111.873 Y111.18 E5.30852
G1 X111.897 Y111.008 E5.32065
G1 X111.981 Y110.834 E5.33415
G1 X112.771 Y109.896 E5.4198
G1 X113.071 Y109.749 E5.44314
G1 X113.445 Y109.804 E5.46954
G1 X114.445 Y110.306 E5.54769
G1 X114.937 Y110.459 E5.58368
G1 X114.63 Y110.056 E5.61907
G1 X113.81 Y109.281 E5.69787
G1 X113.631 Y108.949 E5.72422
G1 X113.626 Y108.775 E5.73638
G1 X113.679 Y108.589 E5.74989
G1 X114.284 Y107.544 E5.83422
G1 X114.413 Y107.414 E5.84702
G1 X114.566 Y107.331 E5.85917
G1 X114.944 Y107.32 E5.88559
G1 X116.011 Y107.639 E5.96337
G1 X116.524 Y107.705 E5.9995
G1 X116.15 Y107.361 E6.03499
G1 X115.213 Y106.742 E6.11343
G1 X114.98 Y106.446 E6.13974
G1 X114.944 Y106.276 E6.15188
G1 X114.964 Y106.084 E6.16536
G1 X115.378 Y104.949 E6.24974
G1 X115.482 Y104.797 E6.26261
G1 X115.619 Y104.69 E6.27475
G1 X115.989 Y104.613 E6.30115
G1 X117.105 Y104.743 E6.37962
G1 X117.615 Y104.719 E6.41528
G1 X117.179 Y104.441 E6.4514
G1 X116.153 Y103.997 E6.52948
G1 X115.871 Y103.746 E6.55585
G1 X115.791 Y103.422 E6.57916
G1 X116.01 Y102.184 E6.66698
G1 X116.196 Y101.907 E6.69028
G1 X116.546 Y101.768 E6.71658
G1 X117.665 Y101.701 E6.79488
G1 X118.165 Y101.589 E6.83067
G1 X117.691 Y101.392 E6.86652
G1 X116.601 Y101.132 E6.94479
G1 X116.28 Y100.934 E6.97113
G1 X116.189 Y100.786 E6.98327
G1 X116.142 Y100.599 E6.99674
G1 X116.145 Y99.37 E7.08258
G1 X116.28 Y99.066 E7.10581
G1 X116.601 Y98.869 E7.13212
G1 X117.689 Y98.609 E7.21025
G1 X118.165 Y98.412 E7.24623
G1 X117.663 Y98.299 E7.28217
G1 X116.545 Y98.231 E7.3604
G1 X116.196 Y98.092 E7.38664
G1 X116.08 Y97.963 E7.39876
G1 X116.002 Y97.787 E7.41221
G1 X115.792 Y96.599 E7.49647
G1 X115.807 Y96.415 E7.50936
G1 X115.871 Y96.253 E7.52153
G1 X116.153 Y96.003 E7.54785
G1 X117.179 Y95.56 E7.62591
G1 X117.618 Y95.28 E7.66228
G1 X117.105 Y95.256 E7.69815
G1 X115.988 Y95.387 E7.7767
G1 X115.619 Y95.31 E7.80303
G1 X115.482 Y95.203 E7.81517
G1 X115.374 Y95.043 E7.82865
G1 X114.962 Y93.908 E7.91299
G1 X114.944 Y93.724 E7.9259
G1 X114.98 Y93.553 E7.93811
G1 X115.213 Y93.258 E7.96437
G1 X116.15 Y92.639 E8.0428
G1 X116.526 Y92.294 E8.07845
G1 X116.011 Y92.36 E8.11471
G1 X114.943 Y92.68 E8.19258
G1 X114.566 Y92.669 E8.21893
G1 X114.413 Y92.587 E8.23105
G1 X114.278 Y92.448 E8.24458
G1 X113.665 Y91.391 E8.32993
G1 X113.631 Y91.05 E8.35386
G1 X113.81 Y90.719 E8.38015
G1 X114.63 Y89.944 E8.45895
G1 X114.938 Y89.54 E8.49444
G1 X114.445 Y89.694 E8.53051
G1 X113.445 Y90.196 E8.60867
G1 X113.071 Y90.251 E8.63507
G1 X112.906 Y90.196 E8.64722
G1 X112.75 Y90.084 E8.66063
G1 X111.976 Y89.159 E8.74487
G1 X111.897 Y88.992 E8.75778
G1 X111.873 Y88.819 E8.76998
G1 X111.991 Y88.462 E8.79624
G1 X112.658 Y87.564 E8.87437
G1 X112.895 Y87.105 E8.91045
G1 X112.436 Y87.342 E8.94653
G1 X111.538 Y88.009 E9.02466
G1 X111.181 Y88.127 E9.05092
G1 X111.008 Y88.103 E9.06312
G1 X110.834 Y88.019 E9.07662
G1 X109.91 Y87.244 E9.16085
G1 X109.804 Y87.094 E9.17368
G1 X109.749 Y86.929 E9.18583
G1 X109.804 Y86.556 E9.21216
G1 X110.306 Y85.554 E9.29044
G1 X110.459 Y85.065 E9.32623
G1 X110.052 Y85.376 E9.362
G1 X109.281 Y86.19 E9.44031
G1 X108.95 Y86.369 E9.4666
G1 X108.775 Y86.374 E9.47883
G1 X108.589 Y86.321 E9.49233
G1 X107.527 Y85.704 E9.57812
G1 X107.331 Y85.434 E9.60142
G1 X107.32 Y85.057 E9.62777
G1 X107.639 Y83.987 E9.70575
G1 X107.706 Y83.475 E9.74182
G1 X107.354 Y83.86 E9.77826
G1 X106.742 Y84.787 E9.85584
G1 X106.447 Y85.021 E9.88214
G1 X106.276 Y85.056 E9.89433
G1 X106.084 Y85.036 E9.90782
G1 X104.949 Y84.622 E9.9922
G1 X104.797 Y84.518 E10.00506
G1 X104.69 Y84.381 E10.01721
G1 X104.613 Y84.012 E10.04353
G1 F949.9 X104.765 Y82.893 E10.11827
G1 F1002.8 X104.738 Y82.315 E10.15454
G1 X104.434 Y82.79 E10.18989
G1 F949.9 X103.997 Y83.847 E10.26559
G1 F900 X103.747 Y84.129 E10.29191
G1 X103.422 Y84.209 E10.31529
G1 X102.184 Y83.99 E10.4031
G1 X101.908 Y83.804 E10.42635
G1 X101.768 Y83.455 E10.45261
G1 X101.701 Y82.335 E10.53098
G1 X101.589 Y81.833 E10.5669
G1 X101.388 Y82.314 E10.60332
G1 X101.132 Y83.4 E10.68125
G1 X100.934 Y83.72 E10.70753
G1 X100.787 Y83.811 E10.71961
G1 X100.599 Y83.858 E10.73314
G1 X99.37 Y83.855 E10.81898
G1 X99.066 Y83.72 E10.84222
G1 X98.869 Y83.399 E10.86852
G1 X98.611 Y82.315 E10.94635
G1 X98.411 Y81.834 E10.98273
G1 X98.297 Y82.348 E11.01951
G1 X98.231 Y83.455 E11.09697
G1 X98.092 Y83.804 E11.1232
G1 X97.963 Y83.92 E11.13532
G1 X97.795 Y83.996 E11.1482
G1 X96.608 Y84.208 E11.23242
G1 X96.415 Y84.193 E11.24594
G1 X96.253 Y84.129 E11.25811
G1 X96.003 Y83.847 E11.28443
G1 X95.562 Y82.824 E11.36224
G1 X95.28 Y82.385 E11.39868
G1 X95.257 Y82.892 E11.43413
G1 X95.387 Y84.012 E11.51288
G1 X95.31 Y84.381 E11.53921
G1 X95.203 Y84.518 E11.55135
G1 X95.051 Y84.622 E11.56422
G1 X93.916 Y85.037 E11.64863
G1 X93.724 Y85.056 E11.6621
G1 X93.553 Y85.02 E11.67431
G1 X93.258 Y84.787 E11.70056
G1 X92.639 Y83.85 E11.779
G1 X92.294 Y83.475 E11.81459
G1 X92.36 Y83.987 E11.85065
G1 X92.68 Y85.057 E11.92866
G1 X92.669 Y85.434 E11.955
G1 X92.471 Y85.711 E11.97878
G1 X91.39 Y86.336 E12.066
G1 X91.05 Y86.369 E12.08986
G1 X90.719 Y86.19 E12.11614
G1 X89.948 Y85.376 E12.19445
G1 X89.541 Y85.065 E12.23023
G1 X89.694 Y85.554 E12.26601
G1 X90.196 Y86.556 E12.34429
G1 X90.251 Y86.929 E12.37063
G1 X90.104 Y87.229 E12.39396
G1 X89.159 Y88.024 E12.48021
G1 X88.992 Y88.103 E12.49312
G1 X88.819 Y88.127 E12.50532
G1 X88.462 Y88.009 E12.53158
G1 X87.564 Y87.342 E12.60971
G1 X87.105 Y87.105 E12.64579
G1 X87.342 Y87.564 E12.68187
G1 X88.009 Y88.462 E12.76
G1 X88.127 Y88.819 E12.78626
G1 X88.103 Y88.992 E12.79846
G1 X88.024 Y89.159 E12.81137
G1 X87.229 Y90.104 E12.89762
G1 X86.929 Y90.251 E12.92096
G1 X86.555 Y90.196 E12.94736
G1 X85.555 Y89.694 E13.02551
G1 X85.062 Y89.54 E13.06159
G1 X85.37 Y89.944 E13.09707
G1 X86.19 Y90.719 E13.17588
G1 X86.368 Y91.05 E13.20213
G1 X86.374 Y91.225 E13.21436
G1 X86.325 Y91.402 E13.22719
G1 X85.704 Y92.473 E13.31366
G1 X85.434 Y92.669 E13.33696
G1 X85.057 Y92.68 E13.3633
G1 X83.989 Y92.361 E13.44116
G1 X83.476 Y92.294 E13.47729
G1 X83.85 Y92.639 E13.51283
G1 X84.787 Y93.258 E13.59127
G1 X85.021 Y93.553 E13.61757
G1 X85.056 Y93.724 E13.62976
G1 X85.038 Y93.908 E13.64267
G1 X84.622 Y95.051 E13.72763
G1 X84.518 Y95.203 E13.74049
G1 X84.381 Y95.31 E13.75264
G1 X84.012 Y95.387 E13.77896
G1 X82.895 Y95.257 E13.85751
G1 X82.383 Y95.28 E13.89331
G1 X82.821 Y95.56 E13.92962
G1 X83.847 Y96.003 E14.00767
G1 X84.129 Y96.253 E14.03399
G1 X84.193 Y96.415 E14.04616
G1 X84.208 Y96.599 E14.05906
G1 X83.999 Y97.788 E14.14338
G1 X83.92 Y97.963 E14.15679
G1 X83.804 Y98.092 E14.1689
G1 X83.455 Y98.232 E14.19517
G1 X82.337 Y98.299 E14.2734
G1 X81.833 Y98.411 E14.30946
G1 X82.311 Y98.609 E14.3456
G1 X83.4 Y98.868 E14.42378
G1 X83.72 Y99.066 E14.45006
G1 X83.861 Y99.376 E14.47385
G1 X83.859 Y100.599 E14.55927
G1 X83.811 Y100.786 E14.57276
G1 X83.72 Y100.934 E14.58489
G1 X83.399 Y101.132 E14.61123
G1 X82.309 Y101.393 E14.68952
G1 X81.836 Y101.589 E14.72528
G1 X82.335 Y101.701 E14.761
G1 X83.454 Y101.768 E14.8393
G1 X83.804 Y101.907 E14.8656
G1 X83.92 Y102.037 E14.87777
G1 X83.996 Y102.205 E14.89065
G1 X84.208 Y103.392 E14.97487
G1 X84.193 Y103.585 E14.98839
G1 X84.129 Y103.746 E15.00049
G1 X83.847 Y103.997 E15.02686
G1 X82.821 Y104.44 E15.10492
G1 X82.387 Y104.719 E15.14095
G1 X82.914 Y104.742 E15.1778
G1 X84.011 Y104.613 E15.25495
G1 X84.381 Y104.69 E15.28134
G1 X84.518 Y104.797 E15.29349
G1 X84.622 Y104.949 E15.30635
G1 X85.037 Y106.084 E15.39076
G1 X85.056 Y106.276 E15.40423
G1 X85.02 Y106.446 E15.41637
G1 X84.787 Y106.742 E15.44268
G1 X83.85 Y107.361 E15.52112
G1 X83.473 Y107.707 E15.55686
G1 X83.989 Y107.64 E15.5932
G1 X85.056 Y107.32 E15.67101
G1 X85.434 Y107.331 E15.69742
G1 X85.587 Y107.414 E15.70958
G1 X85.716 Y107.544 E15.72237
G1 X86.335 Y108.609 E15.80841
G1 X86.368 Y108.949 E15.83227
G1 X86.19 Y109.281 E15.85858
G1 X85.37 Y110.056 E15.93739
G1 X85.062 Y110.46 E15.97287
G1 X85.555 Y110.306 E16.00895
G1 X86.555 Y109.804 E16.0871
G1 X86.929 Y109.749 E16.1135
G1 X87.229 Y109.896 E16.13684
G1 X88.024 Y110.841 E16.22309
G1 X88.103 Y111.008 E16.236
G1 X88.127 Y111.18 E16.24813
G1 X88.009 Y111.538 E16.27445
G1 X87.343 Y112.435 E16.35249
G1 X87.105 Y112.895 E16.38866
G1 X87.564 Y112.658 E16.42474
G1 X88.462 Y111.991 E16.50287
G1 X88.82 Y111.873 E16.5292
G1 X88.992 Y111.897 E16.54133
G1 X89.159 Y111.976 E16.55424
G1 X90.104 Y112.771 E16.64049
G1 X90.251 Y113.07 E16.66376
G1 X90.196 Y113.445 E16.69023
G1 X89.694 Y114.448 E16.76858
G1 X89.54 Y114.937 E16.80438
G1 X89.946 Y114.626 E16.84011
G1 X90.719 Y113.81 E16.91861
G1 X91.051 Y113.631 E16.94496
G1 X91.225 Y113.626 E16.95712
G1 X91.402 Y113.675 E16.96994
G1 X92.456 Y114.284 E17.05497
G1 X92.586 Y114.413 E17.06776
G1 X92.669 Y114.566 E17.07992
G1 X92.68 Y114.944 E17.10633
G1 X92.361 Y116.011 E17.18411
G1 X92.293 Y116.527 E17.22047
G1 X92.639 Y116.15 E17.25621
G1 X93.258 Y115.213 E17.33465
G1 X93.554 Y114.98 E17.36096
G1 X93.724 Y114.944 E17.37309
G1 X93.908 Y114.962 E17.38601
G1 X95.051 Y115.378 E17.47096
G1 X95.203 Y115.482 E17.48383
G1 X95.31 Y115.619 E17.49597
G1 X95.387 Y115.989 E17.52237
G1 X95.257 Y117.108 E17.60105
G1 X95.281 Y117.613 E17.63636
G1 X95.561 Y117.175 E17.67267
G1 X96.003 Y116.153 E17.75044
G1 X96.254 Y115.871 E17.77681
G1 X96.415 Y115.807 E17.78891
G1 X96.599 Y115.792 E17.80181
G1 X97.788 Y116.001 E17.88613
G1 X97.963 Y116.08 E17.89954
G1 X98.093 Y116.196 E17.91171
G1 X98.232 Y116.546 E17.93801
G1 X98.299 Y117.665 E18.01631
G1 X98.411 Y118.165 E18.0521
G1 X98.61 Y117.685 E18.08839
G1 X98.868 Y116.601 E18.16622
G1 X99.066 Y116.28 E18.19256
G1 X99.214 Y116.189 E18.2047
G1 X99.401 Y116.142 E18.21817
G1 X100.629 Y116.145 E18.30394
G1 X100.934 Y116.28 E18.32723
G0 F3000 X100.676 Y116.586
;TYPE:WALL-OUTER
G1 F900 X100.742 Y116.693 E18.33602
G1 X101.007 Y117.809 E18.41613
G1 X101.398 Y118.744 E18.48692
G1 X101.877 Y118.703 E18.5205
G1 X102.099 Y117.721 E18.59082
G1 X102.168 Y116.57 E18.67135
G1 X102.214 Y116.453 E18.68013
G1 X102.316 Y116.388 E18.68858
G1 X103.43 Y116.191 E18.7676
G1 X103.546 Y116.217 E18.7759
G1 X103.629 Y116.311 E18.78466
G1 X104.084 Y117.364 E18.86478
G1 X104.632 Y118.217 E18.9356
G1 X105.098 Y118.092 E18.96929
G1 X105.145 Y117.094 E19.03908
G1 X105.011 Y115.943 E19.12001
G1 X105.036 Y115.819 E19.12885
G1 X105.125 Y115.737 E19.1373
G1 X106.197 Y115.348 E19.21695
G1 X106.309 Y115.356 E19.2248
G1 X106.408 Y115.433 E19.23356
G1 X107.044 Y116.398 E19.31428
G1 X107.725 Y117.136 E19.38442
G1 X108.163 Y116.932 E19.41817
G1 X108.032 Y115.927 E19.48896
G1 X107.704 Y114.829 E19.569
G1 X107.707 Y114.702 E19.57787
G1 X107.781 Y114.606 E19.58634
G1 X108.743 Y114.049 E19.66398
G1 X108.879 Y114.025 E19.67363
G1 X108.99 Y114.085 E19.68244
G1 X109.786 Y114.925 E19.76327
G1 X110.584 Y115.534 E19.83338
G1 X110.979 Y115.257 E19.86708
G1 X110.679 Y114.296 E19.9374
G1 X110.162 Y113.265 E20.01795
G1 X110.143 Y113.14 E20.02678
G1 X110.199 Y113.033 E20.03522
G1 X111.05 Y112.319 E20.11281
G1 X111.18 Y112.273 E20.12244
G1 X111.299 Y112.312 E20.13119
G1 X112.223 Y112.998 E20.21157
G1 X113.118 Y113.461 E20.28195
G1 X113.461 Y113.118 E20.31583
G1 X112.997 Y112.22 E20.38643
G1 X112.312 Y111.299 E20.4666
G1 X112.273 Y111.18 E20.47535
G1 X112.319 Y111.05 E20.48498
G1 X113.04 Y110.192 E20.56326
G1 X113.14 Y110.143 E20.57103
G1 X113.265 Y110.162 E20.57987
G1 X114.295 Y110.678 E20.66033
G1 X115.257 Y110.978 E20.73071
G1 X115.534 Y110.583 E20.76441
G1 X114.929 Y109.788 E20.83419
G1 X114.085 Y108.99 E20.91532
G1 X114.025 Y108.879 E20.92413
G1 X114.041 Y108.759 E20.93259
G1 X114.608 Y107.778 E21.01173
G1 X114.702 Y107.707 E21.01995
G1 X114.829 Y107.704 E21.02883
G1 X115.927 Y108.032 E21.10887
G1 X116.932 Y108.162 E21.17965
G1 X117.135 Y107.725 E21.2133
G1 X116.398 Y107.045 E21.28334
G1 X115.433 Y106.408 E21.36411
G1 X115.356 Y106.309 E21.37287
G1 X115.35 Y106.188 E21.38133
G1 X115.738 Y105.123 E21.4605
G1 X115.819 Y105.036 E21.4688
G1 X115.943 Y105.011 E21.47763
G1 X117.091 Y105.145 E21.55836
G1 X118.092 Y105.098 E21.62836
G1 X118.217 Y104.632 E21.66205
G1 X117.368 Y104.086 E21.73256
G1 X116.311 Y103.629 E21.81299
G1 X116.217 Y103.546 E21.82175
G1 X116.191 Y103.427 E21.83026
G1 X116.391 Y102.306 E21.90979
G1 X116.453 Y102.214 E21.91754
G1 X116.57 Y102.168 E21.92632
G1 X117.721 Y102.099 E22.00686
G1 X118.703 Y101.877 E22.07718
G1 X118.744 Y101.398 E22.11076
G1 X117.814 Y101.01 E22.18114
G1 X116.693 Y100.742 E22.26165
G1 X116.586 Y100.676 E22.27043
G1 X116.541 Y100.575 E22.27815
G1 X116.541 Y99.425 E22.35847
G1 X116.586 Y99.324 E22.3662
G1 X116.693 Y99.258 E22.37498
G1 X117.813 Y98.991 E22.4554
G1 X118.744 Y98.602 E22.52587
G1 X118.703 Y98.123 E22.55945
G1 X117.721 Y97.901 E22.62977
G1 X116.569 Y97.832 E22.71038
G1 X116.453 Y97.786 E22.71909
G1 X116.388 Y97.684 E22.72754
G1 X116.191 Y96.57 E22.80656
G1 X116.217 Y96.454 E22.81486
G1 X116.311 Y96.371 E22.82362
G1 X117.368 Y95.914 E22.90405
G1 X118.218 Y95.368 E22.97461
G1 X118.092 Y94.901 E23.0084
G1 X117.091 Y94.855 E23.07839
G1 X115.942 Y94.989 E23.15919
G1 X115.819 Y94.964 E23.16795
G1 X115.737 Y94.875 E23.1764
