;FLAVOR:Marlin
;TIME:7344
;Filament used: 4.70594m
;Layer height: 0.2
;MINX:32.047
;MINY:80.349
;MINZ:0.25
;MAXX:167.953
;MAXY:119.15
;MAXZ:15.95
;TARGET_MACHINE.NAME:XYZprinting da Vinci 1.0 Pro
;Generated with Cura_SteamEngine 5.6.0
M140 S45
M105
M190 S45
M104 S190
M105
M109 S190
M82 ;absolute extrusion mode
G28 ; home all axes
G1 Z15 F5000 ; lift nozzle
G92 E0
G1 F200 E3

G92 E0
G92 E0
G1 F1800 E-4
;LAYER_COUNT:79
;LAYER:0
M106 S255
G0 F3000 X36.4 Y81.85 Z0.35
;TYPE:SKIRT
G1 F1800 E0
G1 X38.955 Y81.85 E0.17846
G1 X38.995 Y81.846 E0.18127
G1 X39.48 Y81.748 E0.21583
G1 X39.517 Y81.736 E0.21854
G1 X39.889 Y81.58 E0.24672
G1 X39.925 Y81.561 E0.24956
G1 X40.252 Y81.338 E0.27721
G1 X40.283 Y81.312 E0.28003
G1 X40.57 Y81.015 E0.30888
G1 X40.596 Y80.982 E0.31181
G1 X40.87 Y80.543 E0.34796
G1 X40.9 Y80.437 E0.35565
G1 X40.9 Y80.349 E0.3618
G1 X43.5 Y80.349 E0.5434
G1 X43.5 Y80.438 E0.54962
G1 X43.529 Y80.542 E0.55716
G1 X43.797 Y80.985 E0.59332
G1 X43.824 Y81.02 E0.59641
G1 X44.101 Y81.307 E0.62427
G1 X44.132 Y81.333 E0.62709
G1 X44.46 Y81.557 E0.65484
G1 X44.494 Y81.576 E0.65756
G1 X44.864 Y81.734 E0.68566
G1 X44.904 Y81.746 E0.68857
G1 X45.396 Y81.845 E0.72363
G1 X45.435 Y81.849 E0.72636
G1 X48 Y81.849 E0.90552
G1 X48 Y82.608 E0.95853
G1 X36.4 Y82.609 E1.76875
G1 X36.4 Y81.85 E1.82176
G1 F1800 E-2.17824
G0 F3000 X39.219 Y82.209
G1 F1800 E1.82176
G1 X39.559 Y82.14 E1.846
G1 X39.672 Y82.105 E1.85426
G1 X40.044 Y81.949 E1.88243
G1 X40.15 Y81.892 E1.89084
G1 X40.477 Y81.669 E1.91848
G1 X40.57 Y81.59 E1.92701
G1 X40.857 Y81.293 E1.95586
G1 X40.935 Y81.194 E1.96466
G1 X41.209 Y80.755 E2.0008
G1 X41.211 Y80.749 E2.00124
G1 X43.187 Y80.749 E2.13926
G1 X43.455 Y81.192 E2.17542
G1 X43.536 Y81.298 E2.18474
G1 X43.813 Y81.585 E2.2126
G1 X43.907 Y81.663 E2.22113
G1 X44.235 Y81.887 E2.24888
G1 X44.337 Y81.944 E2.25704
G1 X44.707 Y82.102 E2.28514
G1 X44.825 Y82.138 E2.29375
G1 X45.174 Y82.208 E2.31862
G1 X39.219 Y82.209 E2.73455
G1 F1800 E-1.26545
G0 F3000 X40.915 Y81.809
G1 F1800 E2.73455
G1 X41.145 Y81.571 E2.75767
G1 X41.274 Y81.405 E2.77235
G1 X41.434 Y81.149 E2.79344
G1 X42.961 Y81.149 E2.90009
G1 X43.112 Y81.399 E2.92049
G1 X43.248 Y81.575 E2.93603
G1 X43.473 Y81.808 E2.95865
G1 X40.915 Y81.809 E3.13732
G1 F1800 E-0.86268
G0 F3000 X36.547 Y82.856
G0 X36.3 Y85.796
G1 F1800 E3.13732
G1 X36.3 Y92.921 E3.63497
G1 X33.251 Y92.922 E3.84793
G1 X33.213 Y92.667 E3.86594
G1 X33.484 Y92.583 E3.88576
G1 X33.521 Y92.567 E3.88857
G1 X33.871 Y92.375 E3.91646
G1 X33.904 Y92.353 E3.91923
G1 X34.212 Y92.093 E3.94738
G1 X34.24 Y92.064 E3.9502
G1 X34.487 Y91.753 E3.97794
G1 X34.508 Y91.72 E3.98067
G1 X34.69 Y91.362 E4.00872
G1 X34.705 Y91.324 E4.01157
G1 X34.811 Y90.941 E4.03933
G1 X34.818 Y90.902 E4.0421
G1 X34.846 Y90.503 E4.07003
G1 X34.844 Y90.463 E4.07283
G1 X34.792 Y90.066 E4.1008
G1 X34.783 Y90.028 E4.10352
G1 X34.657 Y89.656 E4.13096
G1 X34.605 Y89.355 E4.15229
G1 X34.605 Y87.612 E4.27403
G1 X34.694 Y87.206 E4.30307
G1 X34.786 Y86.988 E4.31959
G1 X35.02 Y86.655 E4.34802
G1 X35.185 Y86.487 E4.36447
G1 X35.635 Y86.174 E4.40275
G1 X35.651 Y86.162 E4.40415
G1 X35.952 Y85.906 E4.43175
G1 X35.979 Y85.877 E4.43452
G1 X36.097 Y85.726 E4.4479
G1 X36.3 Y85.796 E4.4629
G0 F3000 X35.9 Y86.475
G1 F1800 X35.9 Y92.521 E4.88519
G1 X34.324 Y92.522 E4.99527
G1 X34.47 Y92.398 E5.00865
G1 X34.553 Y92.313 E5.01695
G1 X34.8 Y92.002 E5.04468
G1 X34.865 Y91.901 E5.05307
G1 X35.047 Y91.543 E5.08112
G1 X35.09 Y91.431 E5.0895
G1 X35.196 Y91.048 E5.11726
G1 X35.217 Y90.93 E5.12563
G1 X35.245 Y90.531 E5.15357
G1 X35.241 Y90.411 E5.16196
G1 X35.189 Y90.014 E5.18992
G1 X35.162 Y89.899 E5.19817
G1 X35.045 Y89.554 E5.22362
G1 X35.005 Y89.322 E5.24006
G1 X35.005 Y87.656 E5.35642
G1 X35.077 Y87.325 E5.38008
G1 X35.138 Y87.181 E5.39101
G1 X35.324 Y86.917 E5.41356
G1 X35.445 Y86.794 E5.42561
G1 X35.864 Y86.502 E5.46129
G1 X35.9 Y86.475 E5.46443
G0 F3000 X35.5 Y87.363
G1 F1800 X35.5 Y89.65 E5.62417
G1 X35.433 Y89.454 E5.63864
G1 X35.405 Y89.289 E5.65032
G1 X35.405 Y87.701 E5.76124
G1 X35.46 Y87.449 E5.77926
G1 X35.491 Y87.376 E5.7848
G1 X35.5 Y87.363 E5.7859
G1 F1800 E1.7859
G0 F3000 X35.5 Y91.451
G1 F1800 E5.7859
G1 X35.5 Y92.121 E5.8327
G1 X35.196 Y92.121 E5.85393
G1 X35.221 Y92.082 E5.85717
G1 X35.403 Y91.724 E5.88522
G1 X35.476 Y91.538 E5.89917
G1 X35.5 Y91.451 E5.90548
G1 F1800 E1.90548
G0 F3000 X36.547 Y82.856
G0 X47.853 Y82.855
G0 X48.9 Y89.987
G1 F1800 E5.90548
G1 X48.9 Y87.036 E6.11159
G1 X48.934 Y87.062 E6.11458
G1 X49.002 Y87.152 E6.12246
G1 X49.166 Y87.531 E6.1513
G1 X49.195 Y87.703 E6.16349
G1 X49.194 Y89.326 E6.27685
G1 X49.123 Y89.648 E6.29988
G1 X49.048 Y89.79 E6.3111
G1 X48.9 Y89.987 E6.32831
G0 F3000 X49.165 Y90.299
G1 F1800 X48.67 Y90.651 E6.37073
G1 X48.559 Y90.681 E6.37876
G1 X48.5 Y90.603 E6.38559
G1 X48.5 Y86.228 E6.69117
G1 X48.589 Y86.304 E6.69934
G1 X48.701 Y86.38 E6.7088
G1 X48.714 Y86.387 E6.70983
G1 X49.22 Y86.778 E6.75449
G1 X49.349 Y86.946 E6.76929
G1 X49.552 Y87.416 E6.80505
G1 X49.595 Y87.672 E6.82318
G1 X49.594 Y89.368 E6.94164
G1 X49.501 Y89.785 E6.97148
G1 X49.385 Y90.007 E6.98897
G1 X49.165 Y90.299 E7.01451
G0 F3000 X49.448 Y90.589
G1 F1800 X48.843 Y91.018 E7.06631
G1 X48.299 Y91.165 E7.10567
G1 X48.299 Y91.067 E7.11252
G1 X48.258 Y90.946 E7.12144
G1 X48.1 Y90.738 E7.13968
G1 X48.1 Y85.531 E7.50337
G1 X48.308 Y85.464 E7.51864
G1 X48.427 Y85.63 E7.5329
G1 X48.459 Y85.665 E7.53622
G1 X48.85 Y86.001 E7.57222
G1 X48.887 Y86.026 E7.57534
G1 X48.934 Y86.051 E7.57906
G1 X49.504 Y86.491 E7.62935
G1 X49.696 Y86.741 E7.65137
G1 X49.939 Y87.305 E7.69427
G1 X49.995 Y87.635 E7.71764
G1 X49.994 Y89.414 E7.8419
G1 X49.881 Y89.923 E7.87832
G1 X49.727 Y90.219 E7.90162
G1 X49.448 Y90.589 E7.93399
G1 F1800 E3.93399
G0 F3000 X47.853 Y82.855
G0 X36.547 Y82.856
G0 X32.047 Y93.169
G0 X32.047 Y100.713
G0 X71.4 Y110.591
G1 F1800 E7.93399
G1 X71.4 Y113.334 E8.12558
G1 X71.261 Y113.103 E8.14441
G1 X71.119 Y112.792 E8.16829
G1 X71.1 Y112.677 E8.17643
G1 X71.101 Y111.247 E8.27631
G1 X71.241 Y110.883 E8.30355
G1 X71.4 Y110.591 E8.32677
G0 F3000 X70.877 Y110.716
G1 F1800 X71.241 Y110.048 E8.37991
G1 X71.247 Y110.035 E8.38091
G1 X71.564 Y109.337 E8.43445
G1 X71.8 Y109.389 E8.45133
G1 X71.8 Y114.501 E8.80839
G1 X71.557 Y114.548 E8.82567
G1 X71.346 Y114.026 E8.865
G1 X71.332 Y113.998 E8.86718
G1 X70.907 Y113.292 E8.92474
G1 X70.732 Y112.911 E8.95403
G1 X70.7 Y112.71 E8.96824
G1 X70.701 Y111.173 E9.0756
G1 X70.877 Y110.716 E9.1098
G1 F1800 E5.1098
G0 F3000 X71.9 Y117.392
G1 F1800 E9.1098
G1 X80.65 Y117.391 E9.72096
G1 X80.769 Y117.352 E9.7297
G1 X80.85 Y117.191 E9.74229
G1 X80.85 Y109.982 E10.24581
G1 X80.913 Y109.961 E10.25045
G1 X81.013 Y109.887 E10.25914
G1 X81.026 Y109.845 E10.26221
G1 X81.686 Y109.902 E10.30848
G1 X81.72 Y109.902 E10.31086
G1 X82.374 Y109.845 E10.35671
G1 X82.389 Y109.891 E10.36009
G1 X82.484 Y109.961 E10.36833
G1 X82.55 Y109.984 E10.37321
G1 X82.55 Y117.192 E10.87666
G1 X82.589 Y117.311 E10.88541
G1 X82.75 Y117.392 E10.898
G1 X87.65 Y117.391 E11.24025
G1 X87.769 Y117.352 E11.24899
G1 X87.85 Y117.191 E11.26158
G1 X87.85 Y109.981 E11.76517
G1 X87.914 Y109.959 E11.7699
G1 X88.014 Y109.884 E11.77863
G1 X88.027 Y109.844 E11.78157
G1 X88.677 Y109.883 E11.82705
G1 X88.702 Y109.883 E11.8288
G1 X89.373 Y109.838 E11.87577
G1 X89.389 Y109.886 E11.8793
G1 X89.483 Y109.955 E11.88745
G1 X89.55 Y109.979 E11.89242
G1 X89.55 Y117.192 E12.39622
G1 X89.589 Y117.311 E12.40496
G1 X89.75 Y117.392 E12.41755
G1 X94.5 Y117.391 E12.74932
G1 X94.5 Y118.15 E12.80234
G1 X89.626 Y118.151 E13.14277
G1 X89.611 Y118.104 E13.14621
G1 X89.501 Y118.03 E13.15547
G1 X89.061 Y117.913 E13.18727
G1 X89.019 Y117.906 E13.19025
G1 X88.616 Y117.888 E13.21842
G1 X88.564 Y117.893 E13.22207
G1 X87.907 Y118.036 E13.26904
G1 X87.8 Y118.099 E13.27771
G1 X87.781 Y118.15 E13.28151
G1 X82.626 Y118.151 E13.64157
G1 X82.611 Y118.104 E13.64501
G1 X82.501 Y118.03 E13.65427
G1 X82.061 Y117.913 E13.68607
G1 X82.019 Y117.906 E13.68905
G1 X81.616 Y117.888 E13.71722
G1 X81.564 Y117.893 E13.72087
G1 X80.907 Y118.036 E13.76784
G1 X80.8 Y118.099 E13.77651
G1 X80.781 Y118.15 E13.78031
G1 X71.9 Y118.151 E14.40061
G1 X71.9 Y117.392 E14.45363
G1 F1800 E10.45363
G0 F3000 X81.091 Y117.587
G1 F1800 E14.45363
G1 X81.184 Y117.465 E14.46434
G1 X81.25 Y117.191 E14.48403
G1 X81.25 Y110.266 E14.96771
G1 X81.651 Y110.301 E14.99583
G1 X81.755 Y110.301 E15.00309
G1 X82.15 Y110.266 E15.03079
G1 X82.15 Y117.192 E15.51454
G1 X82.19 Y117.407 E15.52982
G1 X82.281 Y117.557 E15.54207
G1 X82.164 Y117.526 E15.55053
G1 X82.037 Y117.507 E15.5595
G1 X81.634 Y117.489 E15.58767
G1 X81.479 Y117.502 E15.59854
G1 X81.091 Y117.587 E15.62628
G0 F3000 X81.65 Y117.089
G1 F1800 X81.65 Y110.699 E16.0726
G1 X81.75 Y110.699 E16.07958
G1 X81.75 Y117.093 E16.52618
G1 X81.652 Y117.089 E16.53303
G1 F1800 E12.53303
G0 F3000 X88.09 Y117.587
G1 F1800 E16.53303
G1 X88.184 Y117.465 E16.54379
G1 X88.25 Y117.191 E16.56347
G1 X88.25 Y110.258 E17.04772
G1 X88.653 Y110.282 E17.07591
G1 X88.729 Y110.282 E17.08122
G1 X89.15 Y110.254 E17.11069
G1 X89.15 Y117.192 E17.59529
G1 X89.19 Y117.407 E17.61056
G1 X89.281 Y117.557 E17.62282
G1 X89.164 Y117.526 E17.63127
G1 X89.037 Y117.507 E17.64024
G1 X88.634 Y117.489 E17.66842
G1 X88.479 Y117.502 E17.67928
G1 X88.09 Y117.587 E17.70709
G0 F3000 X88.65 Y117.089
G1 F1800 X88.65 Y110.681 E18.15467
G1 X88.75 Y110.681 E18.16165
G1 X88.75 Y117.093 E18.6095
G1 X88.652 Y117.089 E18.61636
G1 F1800 E14.61636
G0 F3000 X89.797 Y117.145
G0 X94.353 Y117.144
G0 X167.953 Y100.712
G0 X167.953 Y93.168
G0 X163.7 Y92.921
G1 F1800 E18.61636
G1 X163.7 Y85.779 E19.1152
G1 X163.905 Y85.711 E19.13028
G1 X164.055 Y85.912 E19.1478
G1 X164.092 Y85.95 E19.15151
G1 X165.005 Y86.666 E19.23255
G1 X165.192 Y86.96 E19.25688
G1 X165.346 Y87.354 E19.28643
G1 X165.395 Y87.646 E19.30711
G1 X165.4 Y89.416 E19.43074
G1 X165.193 Y90.182 E19.48616
G1 X165.186 Y90.222 E19.489
G1 X165.163 Y90.615 E19.51649
G1 X165.165 Y90.655 E19.51929
G1 X165.221 Y91.054 E19.54743
G1 X165.231 Y91.093 E19.55024
G1 X165.366 Y91.472 E19.57834
G1 X165.383 Y91.508 E19.58113
G1 X165.586 Y91.846 E19.60866
G1 X165.61 Y91.879 E19.61151
G1 X165.882 Y92.174 E19.63954
G1 X165.911 Y92.199 E19.64221
G1 X166.238 Y92.439 E19.67055
G1 X166.273 Y92.46 E19.6734
G1 X166.768 Y92.685 E19.71137
G1 X166.716 Y92.921 E19.72825
G1 X163.7 Y92.921 E19.93891
G0 F3000 X164.1 Y92.521
G1 F1800 X164.1 Y86.465 E20.3619
G1 X164.705 Y86.94 E20.41562
G1 X164.833 Y87.14 E20.43221
G1 X164.957 Y87.459 E20.45611
G1 X164.995 Y87.684 E20.47205
G1 X165 Y89.364 E20.58939
G1 X164.807 Y90.077 E20.64099
G1 X164.787 Y90.199 E20.64962
G1 X164.764 Y90.592 E20.67712
G1 X164.769 Y90.71 E20.68537
G1 X164.825 Y91.109 E20.71351
G1 X164.854 Y91.227 E20.722
G1 X164.989 Y91.606 E20.7501
G1 X165.04 Y91.714 E20.75844
G1 X165.243 Y92.052 E20.78598
G1 X165.316 Y92.15 E20.79451
G1 X165.588 Y92.445 E20.82254
G1 X165.673 Y92.521 E20.8305
G1 X164.1 Y92.521 E20.94037
G0 F3000 X164.5 Y92.121
G1 F1800 X164.5 Y91.426 E20.98892
G1 X164.612 Y91.741 E21.01227
G1 X164.697 Y91.92 E21.02611
G1 X164.818 Y92.121 E21.04249
G1 X164.5 Y92.121 E21.06471
G1 F1800 E17.06471
G0 F3000 X164.5 Y89.681
G1 F1800 E21.06471
G1 X164.5 Y87.388 E21.22486
G1 X164.57 Y87.568 E21.23835
G1 X164.595 Y87.716 E21.24884
G1 X164.6 Y89.312 E21.36031
G1 X164.5 Y89.681 E21.38701
G1 F1800 E17.38701
G0 F3000 X163.6 Y82.608
G1 F1800 E21.38701
G1 X152 Y82.609 E22.19723
G1 X152 Y81.85 E22.25024
G1 X154.555 Y81.85 E22.4287
G1 X154.595 Y81.846 E22.43151
G1 X155.08 Y81.748 E22.46607
G1 X155.117 Y81.736 E22.46879
G1 X155.489 Y81.58 E22.49696
G1 X155.525 Y81.561 E22.4998
G1 X155.852 Y81.338 E22.52745
G1 X155.883 Y81.312 E22.53028
G1 X156.17 Y81.015 E22.55912
G1 X156.196 Y80.982 E22.56206
G1 X156.47 Y80.543 E22.5982
G1 X156.5 Y80.437 E22.6059
G1 X156.5 Y80.349 E22.61204
G1 X159.1 Y80.349 E22.79364
G1 X159.1 Y80.438 E22.79986
G1 X159.129 Y80.542 E22.8074
G1 X159.397 Y80.985 E22.84356
G1 X159.424 Y81.02 E22.84665
G1 X159.701 Y81.307 E22.87451
G1 X159.732 Y81.333 E22.87734
G1 X160.06 Y81.557 E22.90508
G1 X160.094 Y81.576 E22.9078
G1 X160.464 Y81.734 E22.9359
G1 X160.504 Y81.746 E22.93882
G1 X160.996 Y81.845 E22.97387
G1 X161.035 Y81.849 E22.97661
G1 X163.6 Y81.849 E23.15576
G1 X163.6 Y82.608 E23.20878
G1 F1800 E19.20878
G0 F3000 X160.774 Y82.208
G1 F1800 E23.20878
G1 X154.819 Y82.209 E23.62471
G1 X155.159 Y82.14 E23.64894
G1 X155.272 Y82.105 E23.65721
G1 X155.644 Y81.949 E23.68538
G1 X155.75 Y81.892 E23.69379
G1 X156.077 Y81.669 E23.72143
G1 X156.17 Y81.59 E23.72996
G1 X156.457 Y81.293 E23.7588
G1 X156.535 Y81.194 E23.76761
G1 X156.809 Y80.755 E23.80375
G1 X156.811 Y80.749 E23.80419
G1 X158.787 Y80.749 E23.94221
G1 X159.055 Y81.192 E23.97837
G1 X159.136 Y81.298 E23.98769
G1 X159.413 Y81.585 E24.01555
G1 X159.507 Y81.663 E24.02408
G1 X159.835 Y81.887 E24.05182
G1 X159.937 Y81.944 E24.05999
G1 X160.307 Y82.102 E24.08809
G1 X160.425 Y82.138 E24.0967
G1 X160.774 Y82.208 E24.12157
G1 F1800 E20.12157
G0 F3000 X159.073 Y81.808
G1 F1800 E24.12157
G1 X156.515 Y81.809 E24.30023
G1 X156.745 Y81.571 E24.32335
G1 X156.874 Y81.405 E24.33803
G1 X157.034 Y81.149 E24.35912
G1 X158.561 Y81.149 E24.46577
G1 X158.712 Y81.399 E24.48617
G1 X158.848 Y81.575 E24.50171
G1 X159.073 Y81.808 E24.52433
G1 F1800 E20.52433
G0 F3000 X152.147 Y82.856
G0 X151.9 Y85.507
G1 F1800 E24.52433
G1 X151.9 Y90.732 E24.88928
G1 X151.74 Y90.945 E24.90789
G1 X151.7 Y91.065 E24.91672
G1 X151.7 Y91.137 E24.92175
G1 X151.413 Y91.091 E24.94205
G1 X151.055 Y90.945 E24.96906
G1 X150.484 Y90.503 E25.01949
G1 X150.247 Y90.16 E25.04861
G1 X150.07 Y89.73 E25.08109
G1 X150.005 Y89.362 E25.10719
G1 X150.006 Y87.592 E25.23082
G1 X150.146 Y87.029 E25.27134
G1 X150.273 Y86.787 E25.29043
G1 X150.646 Y86.348 E25.33067
G1 X151.176 Y85.971 E25.37609
G1 X151.191 Y85.959 E25.37744
G1 X151.495 Y85.695 E25.40556
G1 X151.523 Y85.666 E25.40837
G1 X151.697 Y85.438 E25.42841
G1 X151.9 Y85.507 E25.44338
G0 F3000 X151.5 Y86.22
G1 F1800 X151.5 Y90.598 E25.74917
G1 X151.444 Y90.672 E25.75565
G1 X151.257 Y90.596 E25.76975
G1 X150.777 Y90.224 E25.81217
G1 X150.601 Y89.969 E25.83381
G1 X150.457 Y89.619 E25.86024
G1 X150.405 Y89.326 E25.88103
G1 X150.406 Y87.641 E25.99872
G1 X150.522 Y87.173 E26.03239
G1 X150.607 Y87.011 E26.04517
G1 X150.919 Y86.645 E26.07876
G1 X151.408 Y86.297 E26.12068
G1 X151.453 Y86.261 E26.12471
G1 X151.5 Y86.22 E26.12907
G0 F3000 X151.1 Y87.049
G1 F1800 X151.1 Y89.967 E26.33288
G1 X151.071 Y89.945 E26.33542
G1 X150.954 Y89.776 E26.34978
G1 X150.844 Y89.507 E26.37008
G1 X150.805 Y89.29 E26.38547
G1 X150.806 Y87.689 E26.4973
G1 X150.899 Y87.315 E26.52422
G1 X150.939 Y87.239 E26.53022
G1 X151.1 Y87.049 E26.54761
G1 F1800 E22.54761
G0 F3000 X152.147 Y82.856
G0 X158.377 Y81.479
;TYPE:SUPPORT
G1 F1800 E26.54761
G1 F1058.8 X157.218 Y81.479 Z0.25 E26.61667
G1 F1800 E22.61667
G0 F3000 X157.218 Y81.479 Z0.35
G0 X41.618 Y81.479
G1 F1800 E26.61667
G1 F1058.8 X42.777 Y81.479 Z0.25 E26.68574
G1 F1800 E22.68574
;MESH:gopro_mount_V1.STL
G0 F3000 X42.777 Y81.479 Z0.35
G0 X46.785 Y82.844
G0 X46.786 Y83.922
G0 X46.772 Y95.925
G0 X86.05 Y100.178
G0 X86.441 Y100.178
;TYPE:WALL-INNER
G1 F1800 E26.68574
G1 F900 X86.575 Y100.027 E26.69984
G1 X86.876 Y99.897 E26.72274
G1 X90.558 Y99.897 E26.97991
G1 X90.751 Y99.977 E26.99451
G1 X90.888 Y100.086 E27.00674
G1 X91.05 Y100.376 E27.02994
G1 X91.05 Y115.891 E28.1136
G1 X93.1 Y115.891 E28.25679
G1 X93.1 Y100.06 E29.36252
G1 X93.169 Y99.779 E29.38273
G1 X93.272 Y99.638 E29.39493
G1 X93.459 Y99.51 E29.41076
G1 X93.622 Y99.46 E29.42267
G1 X166.7 Y99.459 E34.52689
G1 X166.7 Y94.421 E34.87878
G1 X162.68 Y94.421 E35.15956
G1 X162.389 Y94.26 E35.18279
G1 X162.248 Y94.059 E35.19994
G1 X162.2 Y93.898 E35.21167
G1 X162.2 Y84.109 E35.8954
G1 X153.4 Y84.109 E36.51005
G1 X153.4 Y95.576 E37.31097
G1 X153.281 Y95.858 E37.33235
G1 X153.16 Y95.978 E37.34425
G1 X152.874 Y96.097 E37.36589
G1 X47.2 Y96.097 E44.74683
G1 X47.005 Y96.065 E44.76063
G1 X46.84 Y95.978 E44.77366
G1 X46.72 Y95.858 E44.78551
G1 X46.6 Y95.576 E44.80692
G1 X46.6 Y84.109 E45.60784
G1 X37.8 Y84.109 E46.22249
G1 X37.8 Y93.898 E46.90622
G1 X37.752 Y94.058 E46.91788
