;FLAVOR:Marlin
;TIME:11974
;Filament used: 7.83391m
;Layer height: 0.2
;MINX:67.914
;MINY:70.097
;MINZ:0.25
;MAXX:132.088
;MAXY:129.902
;MAXZ:22.95
;TARGET_MACHINE.NAME:XYZprinting da Vinci 1.0 Pro
;Generated with Cura_SteamEngine 5.6.0
M140 S45
M105
M190 S45
M104 S190
M105
M109 S190
M82 ;absolute extrusion mode
G28 ; home all axes
G1 Z15 F5000 ; lift nozzle
G92 E0
G1 F200 E3

G92 E0
G92 E0
G1 F1800 E-4
;LAYER_COUNT:114
;LAYER:0
M106 S255
G0 F3000 X72.802 Y83.9 Z0.35
;TYPE:SKIRT
G1 F1800 E0
G1 X75.808 Y82.968 E0.21982
G1 X78.118 Y85.105 E0.43962
G1 X77.423 Y88.174 E0.6594
G1 X74.417 Y89.105 E0.8792
G1 X72.108 Y86.968 E1.09895
G1 X72.802 Y83.9 E1.31865
G0 F3000 X73.142 Y84.214
G1 F1800 X75.706 Y83.419 E1.50615
G1 X77.677 Y85.241 E1.69362
G1 X77.083 Y87.861 E1.88126
G1 X74.519 Y88.655 E2.06874
G1 X72.548 Y86.832 E2.25626
G1 X73.142 Y84.214 E2.44377
G0 F3000 X73.48 Y84.527
G1 F1800 X75.604 Y83.869 E2.59908
G1 X77.236 Y85.378 E2.75433
G1 X76.745 Y87.547 E2.90966
G1 X74.621 Y88.204 E3.06494
G1 X72.99 Y86.695 E3.22014
G1 X73.48 Y84.527 E3.37539
G1 F1800 E-0.62461
G0 F3000 X96.623 Y121.25
G1 F1800 E3.37539
G1 X99.761 Y121.006 E3.59523
G1 X101.542 Y123.602 E3.81512
G1 X100.183 Y126.44 E4.0349
G1 X97.047 Y126.684 E4.2546
G1 X95.266 Y124.088 E4.47449
G1 X96.623 Y121.25 E4.69421
G0 F3000 X96.885 Y121.631
G1 F1800 X99.562 Y121.423 E4.88175
G1 X101.081 Y123.638 E5.06934
G1 X99.922 Y126.059 E5.25682
G1 X97.246 Y126.267 E5.44429
G1 X95.727 Y124.052 E5.63188
G1 X96.885 Y121.631 E5.81933
G0 F3000 X97.146 Y122.012
G1 F1800 X99.362 Y121.84 E5.97457
G1 X100.62 Y123.674 E6.12991
G1 X99.66 Y125.678 E6.28512
G1 X97.446 Y125.85 E6.44022
G1 X96.188 Y124.016 E6.59556
G1 X97.146 Y122.012 E6.7507
G1 F1800 E2.7507
G0 F3000 X123.387 Y124.463
G1 F1800 E6.7507
G1 X124.744 Y121.625 E6.97042
G1 X127.882 Y121.381 E7.19026
G1 X129.662 Y123.976 E7.41005
G1 X128.304 Y126.816 E7.62993
G1 X125.168 Y127.06 E7.84963
G1 X123.387 Y124.463 E8.06957
G0 F3000 X123.848 Y124.427
G1 F1800 X125.006 Y122.006 E8.25702
G1 X127.683 Y121.798 E8.44456
G1 X129.201 Y124.012 E8.63206
G1 X128.042 Y126.435 E8.81966
G1 X125.367 Y126.643 E9.00706
G1 X123.848 Y124.427 E9.19472
G0 F3000 X124.309 Y124.391
G1 F1800 X125.267 Y122.387 E9.34986
G1 X127.483 Y122.215 E9.5051
G1 X128.74 Y124.048 E9.66034
G1 X127.781 Y126.054 E9.81564
G1 X125.567 Y126.226 E9.97075
G1 X124.309 Y124.391 E10.12614
G1 F1800 E6.12614
G0 F3000 X123.434 Y88.483
G1 F1800 E10.12614
G1 X121.653 Y85.887 E10.34603
G1 X123.012 Y83.049 E10.56581
G1 X126.148 Y82.805 E10.78551
G1 X127.929 Y85.401 E11.0054
G1 X126.57 Y88.239 E11.22518
G1 X123.434 Y88.483 E11.44488
G0 F3000 X123.633 Y88.066
G1 F1800 X122.114 Y85.851 E11.63248
G1 X123.273 Y83.43 E11.81995
G1 X125.949 Y83.222 E12.00742
G1 X127.468 Y85.437 E12.19502
G1 X126.309 Y87.858 E12.38249
G1 X123.633 Y88.066 E12.56997
G0 F3000 X123.833 Y87.649
G1 F1800 X122.575 Y85.815 E12.7253
G1 X123.535 Y83.811 E12.88051
G1 X125.749 Y83.639 E13.03561
G1 X127.007 Y85.473 E13.19095
G1 X126.047 Y87.477 E13.34615
G1 X123.833 Y87.649 E13.50126
G0 F3000 X124.031 Y87.232
;TYPE:SUPPORT
G1 F900 X123.036 Y85.781 Z0.25 E13.62435
G1 X123.797 Y84.192 E13.7474
G1 X125.551 Y84.056 E13.87028
G1 X126.546 Y85.508 E13.99322
G1 X125.785 Y87.096 E14.11622
G1 X124.031 Y87.232 E14.2391
G1 F1800 E10.2391
G0 F3000 X125.349 Y86.97
G1 F1800 E14.2391
G1 F900 X125.349 Y84.232 E14.43034
G1 F1800 E10.43034
G0 F3000 X126.24 Y85.344
G1 F1800 E14.43034
G1 F900 X123.423 Y85.344 E14.62709
G1 F1800 E10.62709
G0 F3000 X123.423 Y85.344 Z0.35
G0 X125.53 Y122.769
G1 F1800 E14.62709
G1 F900 X127.284 Y122.633 Z0.25 E14.75017
G1 X128.279 Y124.083 E14.873
G1 X127.518 Y125.673 E14.99612
G1 X125.766 Y125.809 E15.11886
G1 X124.77 Y124.358 E15.24178
G1 X125.53 Y122.769 E15.36481
G0 F3000 X125.349 Y123.52
G1 F900 X125.349 Y124.918 E15.46246
G0 F3000 X125.644 Y125.349
G1 F900 X127.493 Y125.349 E15.5916
G1 F1800 E11.5916
G0 F3000 X128.016 Y124.26
G1 F1800 E15.5916
G1 F900 X128.016 Y123.984 E15.61088
G1 F1800 E11.61088
G0 F3000 X128.016 Y123.984 Z0.35
G0 X100.159 Y123.709
G1 F1800 E15.61088
G1 F900 X99.398 Y125.297 Z0.25 E15.73407
G1 X97.644 Y125.433 E15.85695
G1 X96.649 Y123.983 E15.97978
G1 X97.409 Y122.393 E16.10287
G1 X99.164 Y122.257 E16.22582
G1 X100.159 Y123.709 E16.34876
G1 F1800 E12.34876
G0 F3000 X99.261 Y122.682
G1 F1800 E16.34876
G1 F900 X97.448 Y122.682 E16.47539
G1 F1800 E12.47539
G0 F3000 X98.679 Y122.454
G1 F1800 E16.47539
G1 F900 X98.679 Y125.193 E16.6667
G1 F1800 E12.6667
G0 F3000 X98.679 Y125.193 Z0.35
G0 X76.405 Y87.233
G1 F1800 E16.6667
G1 F900 X74.726 Y87.752 Z0.25 E16.78964
G1 X73.432 Y86.556 E16.91272
G1 X73.82 Y84.84 E17.0356
G1 X75.499 Y84.321 E17.15835
G1 X76.794 Y85.517 E17.28147
G1 X76.405 Y87.233 E17.40437
G1 F1800 E13.40437
G0 F3000 X74.676 Y87.487
G1 F1800 E17.40437
G1 F900 X74.676 Y84.743 E17.59603
G1 F1800 E13.59603
G0 F3000 X73.871 Y85.344
G1 F1800 E17.59603
G1 F900 X76.371 Y85.344 E17.77064
G1 F1800 E13.77064
;MESH:left_gearbox_1_V1_1.STL
G0 F3000 X76.371 Y85.344 Z0.35
G0 X78.179 Y83.39
G0 X78.224 Y80.578
G0 X78.176 Y80.283
;TYPE:WALL-INNER
G1 F1800 E17.77064
G1 F900 X77.616 Y80.286 E17.80976
G1 X77.145 Y80.198 E17.84322
G1 X76.699 Y80.035 E17.87639
G1 X76.255 Y79.784 E17.91201
G1 X75.829 Y79.433 E17.95057
G1 X75.478 Y78.99 E17.99005
G1 X75.232 Y78.531 E18.02642
G1 X75.105 Y78.17 E18.05315
G1 X75.014 Y77.674 E18.08837
G1 X75.019 Y77.069 E18.13063
G1 X75.115 Y76.58 E18.16544
G1 X75.295 Y76.117 E18.20013
G1 X75.553 Y75.69 E18.23498
G1 X75.877 Y75.316 E18.26954
G1 X76.304 Y74.975 E18.30771
G1 X76.701 Y74.754 E18.33944
G1 X77.177 Y74.587 E18.37468
G1 X77.67 Y74.505 E18.40958
G1 X78.232 Y74.516 E18.44885
G1 X78.727 Y74.617 E18.48413
G1 X79.1 Y74.758 E18.51198
G1 X79.548 Y75.013 E18.54799
G1 X79.931 Y75.327 E18.58258
G1 X80.26 Y75.713 E18.61801
G1 X80.515 Y76.145 E18.65304
G1 X80.693 Y76.624 E18.68874
G1 X80.784 Y77.12 E18.72396
G1 X80.781 Y77.713 E18.76538
G1 X80.694 Y78.179 E18.79849
G1 X80.491 Y78.698 E18.83741
G1 X80.272 Y79.066 E18.86732
G1 X79.939 Y79.46 E18.90335
G1 X79.494 Y79.818 E18.94325
G1 X79.053 Y80.057 E18.97828
G1 X78.671 Y80.191 E19.00656
G1 X78.176 Y80.283 E19.04172
G0 F3000 X78.224 Y80.578
G0 X80.031 Y84.512
G0 X78.892 Y89.533
G0 X74.454 Y90.978
G0 X74.248 Y90.312
;TYPE:WALL-OUTER
G1 F900 X74.096 Y90.307 E19.05234
G1 X70.934 Y87.382 E19.3532
G1 X70.917 Y87.236 E19.36347
G1 X71.851 Y83.129 E19.65765
G1 X71.935 Y83.017 E19.66743
G1 X76.007 Y81.755 E19.96519
G1 X76.14 Y81.78 E19.97464
G1 X79.26 Y84.661 E20.27126
G1 X79.312 Y84.811 E20.28235
G1 X78.377 Y88.934 E20.57764
G1 X78.306 Y89.051 E20.58719
G1 X74.248 Y90.312 E20.884
G0 F3000 X74.096 Y90.307
G0 X74.061 Y90.275
G0 X73.586 Y90.788
G0 X78.892 Y89.533
G0 X80.031 Y84.512
G0 X78.224 Y80.578
G0 X78.11 Y79.888
G1 F900 X77.638 Y79.883 E20.91697
G1 X77.212 Y79.802 E20.94726
G1 X76.81 Y79.646 E20.97738
G1 X76.457 Y79.439 E21.00596
G1 X76.128 Y79.161 E21.03604
G1 X75.828 Y78.795 E21.0691
G1 X75.61 Y78.398 E21.10073
G1 X75.474 Y78.003 E21.12991
G1 X75.408 Y77.608 E21.15788
G1 X75.413 Y77.141 E21.1905
G1 X75.495 Y76.706 E21.22142
G1 X75.651 Y76.299 E21.25186
G1 X75.855 Y75.955 E21.2798
G1 X76.156 Y75.603 E21.31215
G1 X76.501 Y75.323 E21.34318
G1 X76.862 Y75.12 E21.37211
G1 X77.292 Y74.971 E21.4039
G1 X77.704 Y74.903 E21.43306
G1 X78.16 Y74.91 E21.46492
G1 X78.585 Y74.991 E21.49513
G1 X78.989 Y75.147 E21.52538
G1 X79.345 Y75.357 E21.55425
G1 X79.671 Y75.631 E21.584
G1 X79.971 Y75.996 E21.617
G1 X80.167 Y76.342 E21.64477
G1 X80.324 Y76.79 E21.67793
G1 X80.39 Y77.186 E21.70597
G1 X80.385 Y77.652 E21.73852
G1 X80.303 Y78.088 E21.76951
G1 X80.147 Y78.494 E21.79988
G1 X79.938 Y78.846 E21.82848
G1 X79.656 Y79.177 E21.85885
G1 X79.297 Y79.47 E21.89122
G1 X78.953 Y79.665 E21.91883
G1 X78.505 Y79.822 E21.95199
G1 X78.11 Y79.888 E21.97996
G0 F3000 X77.91 Y79.886
G0 X77.902 Y80.588
G0 X88.795 Y98.295
G0 X90.106 Y99.89
G0 X91.674 Y101.232
G0 X93.451 Y102.282
G0 X95.385 Y103.008
G0 X97.211 Y103.347
G0 X99.423 Y103.466
G0 X99.431 Y102.766
G1 F900 X97.472 Y102.747 E22.1168
G1 X95.542 Y102.386 E22.25394
G1 X93.744 Y101.71 E22.38811
G1 X92.064 Y100.722 E22.52424
G1 X90.554 Y99.43 E22.66304
G1 X89.312 Y97.916 E22.79982
G1 X88.373 Y96.253 E22.93321
G1 X87.711 Y94.375 E23.07229
G1 X87.394 Y92.465 E23.20752
G1 X87.414 Y90.506 E23.34436
G1 X87.767 Y88.606 E23.47934
G1 X88.457 Y86.765 E23.61666
G1 X89.443 Y85.093 E23.75224
G1 X90.718 Y83.603 E23.88921
G1 X92.244 Y82.35 E24.02712
G1 X93.907 Y81.41 E24.16055
G1 X95.786 Y80.748 E24.2997
G1 X97.679 Y80.434 E24.43372
G1 X99.667 Y80.454 E24.57258
G1 X101.58 Y80.812 E24.70852
G1 X103.379 Y81.487 E24.84273
G1 X105.059 Y82.475 E24.97885
G1 X106.556 Y83.754 E25.11638
G1 X107.8 Y85.265 E25.25308
G1 X108.75 Y86.945 E25.38789
G1 X109.408 Y88.806 E25.52576
G1 X109.726 Y90.714 E25.66086
G1 X109.707 Y92.704 E25.79986
G1 X109.353 Y94.602 E25.93472
G1 X108.664 Y96.436 E26.07156
G1 X107.672 Y98.116 E26.20783
G1 X106.406 Y99.594 E26.34375
G1 X104.888 Y100.842 E26.48101
G1 X103.192 Y101.798 E26.61699
G1 X101.355 Y102.445 E26.75303
G1 X99.431 Y102.766 E26.88927
G0 F3000 X99.231 Y102.765
G0 X99.223 Y103.464
G0 X89.533 Y118.372
G0 X88.914 Y118.691
G1 F900 X92.955 Y126.5 E27.5034
G1 X93.473 Y127.369 E27.57406
G1 X94.109 Y128.121 E27.64285
G1 X94.857 Y128.759 E27.71152
G1 X95.714 Y129.275 E27.78139
G1 X96.637 Y129.642 E27.85077
G1 X97.605 Y129.852 E27.91995
G1 X98.604 Y129.902 E27.98982
G1 X126.664 Y129.018 E29.95068
G1 X127.484 Y128.922 E30.00834
G1 X128.259 Y128.696 E30.06473
G1 F902.3 X128.978 Y128.346 E30.12044
G1 X129.64 Y127.871 E30.17721
G1 F900 X130.208 Y127.294 E30.23376
G1 X130.674 Y126.629 E30.29048
G1 X131.023 Y125.893 E30.34737
G1 X131.237 Y125.127 E30.40292
G1 F897.8 X131.323 Y124.303 E30.46093
G1 X132.088 Y85.793 E33.15797
G1 F900 X132.022 Y84.66 E33.23724
G1 X131.781 Y83.547 E33.31678
G1 X131.376 Y82.497 E33.39538
G1 X130.804 Y81.506 E33.4753
G1 X125.158 Y73.271 E34.17269
G1 X124.417 Y72.36 E34.25471
G1 X123.526 Y71.567 E34.33803
G1 X122.535 Y70.937 E34.42005
G1 X121.461 Y70.478 E34.50162
G1 X120.308 Y70.194 E34.58456
G1 X119.123 Y70.098 E34.6676
G1 X77.912 Y70.097 E37.54604
G1 X76.7 Y70.198 E37.63099
G1 X75.519 Y70.497 E37.71608
G1 X74.427 Y70.977 E37.79939
G1 X73.406 Y71.646 E37.88465
G1 X72.527 Y72.455 E37.96809
G1 X71.779 Y73.422 E38.05348
G1 X71.212 Y74.472 E38.13683
G1 X68.29 Y82.925 E38.76152
G1 X68.006 Y84.043 E38.84209
G1 X67.914 Y85.174 E38.92134
G1 X68.012 Y86.304 E39.00057
G1 X68.305 Y87.423 E39.08136
G1 X68.772 Y88.46 E39.1608
G1 X69.413 Y89.414 E39.24107
G1 X74.763 Y96.4 E39.85567
G1 X79.806 Y103.624 E40.47102
G1 X84.515 Y111.038 E41.08448
G1 X88.914 Y118.691 E41.70103
G0 F3000 X89.005 Y118.868
G0 X89.625 Y118.548
G0 X93.27 Y124.244
G0 X96.183 Y128.49
G0 X96.575 Y127.824
G1 F900 X96.433 Y127.735 E41.71274
G1 X94.051 Y124.262 E42.00689
G1 X94.048 Y124.082 E42.01946
G1 X95.872 Y120.273 E42.31444
G1 X95.994 Y120.197 E42.32448
G1 X100.193 Y119.869 E42.61865
G1 X100.357 Y119.933 E42.63095
G1 X102.762 Y123.441 E42.92802
G1 X102.78 Y123.565 E42.93677
G1 X100.951 Y127.384 E43.23253
G1 X100.811 Y127.493 E43.24492
G1 X96.575 Y127.824 E43.54169
G0 F3000 X96.433 Y127.735
G0 X96.415 Y127.708
G0 X95.838 Y128.103
G0 X124.004 Y128.454
G0 X124.727 Y128.197
G1 F900 X124.554 Y128.111 E43.55519
G1 X122.163 Y124.618 E43.85084
G1 X122.149 Y124.499 E43.85921
G1 X123.988 Y120.663 E44.15634
G1 X124.106 Y120.574 E44.16666
G1 X128.353 Y120.241 E44.46421
G1 X128.495 Y120.33 E44.47592
G1 F895.5 X130.866 Y123.781 E44.76983
G1 F875.9 X130.906 Y123.936 E44.78132
G1 F882.4 X129.071 Y127.76 E45.08349
G1 F904.5 X128.967 Y127.867 E45.09386
G1 F902.3 X124.727 Y128.197 E45.39016
G0 F3000 X124.554 Y128.111
G0 X124.551 Y128.106
G0 X123.974 Y128.501
G0 X121.391 Y124.618
G0 X123.034 Y90.318
G0 X122.981 Y89.621
G1 F900 X122.843 Y89.561 E45.40067
G1 X120.438 Y86.059 E45.6974
G1 X120.43 Y85.894 E45.70894
G1 X122.247 Y82.098 E46.00289
G1 X122.367 Y82 E46.01371
G1 X126.623 Y81.665 E46.31189
G1 X126.731 Y81.711 E46.32009
G1 X129.158 Y85.247 E46.61965
G1 X129.157 Y85.38 E46.62894
G1 X127.317 Y89.226 E46.92672
G1 X127.214 Y89.289 E46.93516
G1 X122.981 Y89.621 E47.23173
G0 F3000 X122.843 Y89.561
G0 X122.815 Y89.52
G0 X122.235 Y89.917
G0 X119.658 Y86.042
G0 X119.461 Y80.578
G0 X119.347 Y79.888
G1 F900 X118.875 Y79.883 E47.26469
G1 X118.45 Y79.802 E47.29491
G1 X118.057 Y79.652 E47.32429
G1 X117.665 Y79.42 E47.35611
G1 X117.367 Y79.165 E47.3835
G1 X117.072 Y78.81 E47.41574
G1 X116.868 Y78.451 E47.44458
G1 X116.71 Y78.003 E47.47776
G1 X116.644 Y77.608 E47.50574
G1 X116.649 Y77.136 E47.53871
G1 X116.73 Y76.711 E47.56892
G1 X116.873 Y76.331 E47.59728
G1 X117.11 Y75.932 E47.6297
G1 X117.371 Y75.625 E47.65784
G1 X117.738 Y75.323 E47.69104
G1 X118.081 Y75.129 E47.71856
G1 X118.529 Y74.971 E47.75174
G1 X118.925 Y74.905 E47.77978
G1 X119.378 Y74.907 E47.81142
G1 X119.798 Y74.984 E47.84125
G1 X120.209 Y75.137 E47.87188
G1 X120.578 Y75.354 E47.90178
G1 X120.911 Y75.635 E47.93221
G1 X121.19 Y75.971 E47.96272
G1 X121.411 Y76.357 E47.99378
G1 X121.561 Y76.79 E48.02579
G1 X121.627 Y77.186 E48.05383
G1 X121.622 Y77.659 E48.08687
G1 X121.541 Y78.082 E48.11695
G1 X121.386 Y78.484 E48.14704
G1 X121.157 Y78.87 E48.17839
G1 X120.904 Y79.165 E48.20554
G1 X120.533 Y79.469 E48.23904
G1 X120.191 Y79.664 E48.26654
G1 X119.742 Y79.822 E48.29978
G1 X119.347 Y79.888 E48.32775
G0 F3000 X119.147 Y79.886
G0 X119.362 Y80.291
;TYPE:WALL-INNER
G1 F900 X118.803 Y80.277 E48.36681
G1 X118.308 Y80.176 E48.4021
G1 X117.876 Y80.009 E48.43445
G1 X117.443 Y79.753 E48.46958
G1 X117.107 Y79.469 E48.50031
G1 X116.744 Y79.038 E48.53967
G1 X116.52 Y78.648 E48.57108
G1 X116.326 Y78.119 E48.61044
G1 X116.242 Y77.569 E48.6493
G1 X116.255 Y77.064 E48.68458
G1 X116.356 Y76.57 E48.7198
G1 X116.545 Y76.095 E48.75551
G1 X116.805 Y75.673 E48.79013
G1 X117.143 Y75.291 E48.82575
G1 X117.541 Y74.975 E48.86125
G1 X117.884 Y74.781 E48.88877
G1 X118.411 Y74.585 E48.92804
G1 X118.859 Y74.511 E48.95976
G1 X119.41 Y74.508 E48.99824
G1 X119.894 Y74.595 E49.03259
G1 X120.367 Y74.769 E49.06779
G1 X120.793 Y75.016 E49.10219
G1 X121.218 Y75.377 E49.14114
G1 X121.542 Y75.777 E49.17709
G1 X121.775 Y76.191 E49.21027
G1 X121.955 Y76.724 E49.24956
G1 X122.029 Y77.225 E49.28494
G1 X122.015 Y77.732 E49.32036
G1 X121.915 Y78.223 E49.35536
G1 X121.731 Y78.686 E49.39016
G1 X121.461 Y79.13 E49.42646
G1 X121.131 Y79.5 E49.46108
G1 X120.731 Y79.817 E49.49673
G1 X120.389 Y80.012 E49.52423
G1 X119.908 Y80.191 E49.56008
G1 X119.362 Y80.291 E49.59885
G0 F3000 X119.358 Y80.59
G0 X119.658 Y86.042
G0 X122.569 Y90.289
G0 X122.811 Y89.995
G1 F900 X122.56 Y89.861 E49.61872
G1 X120.081 Y86.239 E49.92528
G1 X120.024 Y86.062 E49.93827
G1 X120.058 Y85.748 E49.96033
G1 X121.893 Y81.912 E50.25734
G1 X122.044 Y81.727 E50.27402
G1 X122.284 Y81.601 E50.29295
G1 X126.549 Y81.269 E50.59175
G1 X126.736 Y81.284 E50.60485
G1 X127.051 Y81.469 E50.63037
G1 X129.46 Y84.98 E50.92777
G1 X129.542 Y85.153 E50.94114
G1 X129.563 Y85.389 E50.95769
G1 X129.533 Y85.526 E50.96749
G1 X127.699 Y89.356 E51.26409
G1 X127.593 Y89.511 E51.2772
G1 X127.29 Y89.688 E51.30171
G1 X122.973 Y90.021 E51.60413
G1 X122.811 Y89.995 E51.61559
G0 F3000 X122.836 Y90.334
G0 X105.258 Y101.365
G0 X103.46 Y102.38
G0 X101.708 Y102.998
G0 X99.516 Y103.461
G0 X99.467 Y103.164
G1 F900 X97.433 Y103.145 E51.75767
G1 X95.452 Y102.777 E51.8984
G1 X93.556 Y102.066 E52.03983
G1 X91.813 Y101.038 E52.18117
G1 X90.265 Y99.707 E52.32377
G1 X88.98 Y98.139 E52.46536
G1 X88.001 Y96.407 E52.60433
G1 X87.326 Y94.492 E52.74615
G1 X86.995 Y92.497 E52.8874
G1 X87.017 Y90.457 E53.02989
G1 X87.377 Y88.517 E53.16771
G1 X88.097 Y86.592 E53.31126
G1 X89.109 Y84.873 E53.45058
G1 X90.42 Y83.335 E53.59174
G1 X92.002 Y82.03 E53.73498
G1 X93.753 Y81.038 E53.87554
G1 X95.674 Y80.361 E54.01781
G1 X97.659 Y80.031 E54.15835
G1 X99.689 Y80.052 E54.30015
G1 X101.671 Y80.42 E54.44095
G1 X103.568 Y81.131 E54.58245
G1 X105.31 Y82.159 E54.72373
G1 X106.846 Y83.475 E54.865
G1 X108.128 Y85.036 E55.00609
G1 X109.13 Y86.815 E55.1487
G1 X109.796 Y88.706 E55.28873
G1 X110.129 Y90.694 E55.42952
G1 X110.106 Y92.744 E55.57272
