;FLAVOR:Marlin
;TIME:2404
;Filament used: 1.60033m
;Layer height: 0.2
;MINX:82.2
;MINY:87.701
;MINZ:0.25
;MAXX:117.8
;MAXY:112.295
;MAXZ:17.55
;TARGET_MACHINE.NAME:XYZprinting da Vinci 1.0 Pro
;Generated with Cura_SteamEngine 5.6.0
M140 S45
M105
M190 S45
M104 S190
M105
M109 S190
M82 ;absolute extrusion mode
G28 ; home all axes
G1 Z15 F5000 ; lift nozzle
G92 E0
G1 F200 E3

G92 E0
G92 E0
G1 F1800 E-4
;LAYER_COUNT:87
;LAYER:0
M106 S255
G0 F3000 X87.965 Y93.285 Z0.35
;TYPE:SKIRT
G1 F1800 E0
G1 X88.204 Y93.118 E0.02036
G1 X88.457 Y93 E0.03986
G1 X88.721 Y92.929 E0.05896
G1 X89.038 Y92.901 E0.08119
G1 X102.962 Y92.901 E1.05373
G1 X103.279 Y92.929 E1.07595
G1 X103.543 Y93 E1.09505
G1 X103.796 Y93.118 E1.11455
G1 X104.035 Y93.285 E1.13491
G1 X104.216 Y93.466 E1.15279
G1 X104.383 Y93.705 E1.17315
G1 X104.501 Y93.958 E1.19265
G1 X104.572 Y94.222 E1.21175
G1 X104.596 Y94.501 E1.23131
G1 X104.572 Y94.78 E1.25087
G1 X104.501 Y95.044 E1.26996
G1 X104.383 Y95.297 E1.28946
G1 X104.216 Y95.536 E1.30982
G1 X104.035 Y95.717 E1.3277
G1 X103.796 Y95.884 E1.34807
G1 X103.543 Y96.002 E1.36757
G1 X103.279 Y96.073 E1.38666
G1 X102.962 Y96.101 E1.40889
G1 X89.038 Y96.101 E2.38143
G1 X88.721 Y96.073 E2.40365
G1 X88.457 Y96.002 E2.42275
G1 X88.204 Y95.884 E2.44225
G1 X87.965 Y95.717 E2.46261
G1 X87.784 Y95.536 E2.48049
G1 X87.617 Y95.297 E2.50086
G1 X87.499 Y95.044 E2.52035
G1 X87.428 Y94.78 E2.53945
G1 X87.404 Y94.501 E2.55901
G1 X87.428 Y94.222 E2.57857
G1 X87.499 Y93.958 E2.59766
G1 X87.617 Y93.705 E2.61716
G1 X87.784 Y93.466 E2.63753
G1 X87.965 Y93.285 E2.6554
G0 F3000 X88.224 Y93.592
G1 F1800 X88.403 Y93.467 E2.67065
G1 X88.593 Y93.378 E2.68531
G1 X88.791 Y93.325 E2.69962
G1 X89.063 Y93.301 E2.7187
G1 X102.937 Y93.301 E3.68774
G1 X103.209 Y93.325 E3.70682
G1 X103.407 Y93.378 E3.72113
G1 X103.597 Y93.467 E3.73579
G1 X103.776 Y93.592 E3.75104
G1 X103.909 Y93.725 E3.76417
G1 X104.034 Y93.904 E3.77942
G1 X104.123 Y94.094 E3.79408
G1 X104.176 Y94.292 E3.80839
G1 X104.194 Y94.501 E3.82305
G1 X104.176 Y94.71 E3.8377
G1 X104.123 Y94.908 E3.85201
G1 X104.034 Y95.098 E3.86667
G1 X103.909 Y95.277 E3.88192
G1 X103.776 Y95.41 E3.89506
G1 X103.597 Y95.535 E3.9103
G1 X103.407 Y95.624 E3.92496
G1 X103.209 Y95.677 E3.93928
G1 X102.937 Y95.701 E3.95835
G1 X89.063 Y95.701 E4.92739
G1 X88.791 Y95.677 E4.94647
G1 X88.593 Y95.624 E4.96078
G1 X88.403 Y95.535 E4.97544
G1 X88.224 Y95.41 E4.99069
G1 X88.091 Y95.277 E5.00382
G1 X87.966 Y95.098 E5.01907
G1 X87.877 Y94.908 E5.03373
G1 X87.824 Y94.71 E5.04804
G1 X87.806 Y94.501 E5.0627
G1 X87.824 Y94.292 E5.07735
G1 X87.877 Y94.094 E5.09166
G1 X87.966 Y93.904 E5.10632
G1 X88.091 Y93.725 E5.12157
G1 X88.224 Y93.592 E5.13471
G0 F3000 X88.486 Y93.896
G1 F1800 X88.597 Y93.818 E5.14418
G1 X88.735 Y93.754 E5.15481
G1 X88.86 Y93.72 E5.16385
G1 X89.075 Y93.701 E5.17893
G1 X102.925 Y93.701 E6.1463
G1 X103.14 Y93.72 E6.16138
G1 X103.265 Y93.754 E6.17042
G1 X103.403 Y93.818 E6.18105
G1 X103.514 Y93.896 E6.19053
G1 X103.605 Y93.987 E6.19951
G1 X103.683 Y94.098 E6.20899
G1 X103.747 Y94.236 E6.21961
G1 X103.781 Y94.361 E6.22866
G1 X103.793 Y94.501 E6.23848
G1 X103.781 Y94.641 E6.24829
G1 X103.747 Y94.766 E6.25734
G1 X103.683 Y94.904 E6.26796
G1 X103.605 Y95.015 E6.27744
G1 X103.514 Y95.106 E6.28643
G1 X103.403 Y95.184 E6.2959
G1 X103.265 Y95.248 E6.30653
G1 X103.14 Y95.282 E6.31558
G1 X102.925 Y95.301 E6.33065
G1 X89.075 Y95.301 E7.29802
G1 X88.86 Y95.282 E7.3131
G1 X88.735 Y95.248 E7.32215
G1 X88.597 Y95.184 E7.33277
G1 X88.486 Y95.106 E7.34225
G1 X88.395 Y95.015 E7.35124
G1 X88.317 Y94.904 E7.36071
G1 X88.253 Y94.766 E7.37134
G1 X88.219 Y94.641 E7.38039
G1 X88.207 Y94.501 E7.3902
G1 X88.219 Y94.361 E7.40001
G1 X88.253 Y94.236 E7.40906
G1 X88.317 Y94.098 E7.41969
G1 X88.395 Y93.987 E7.42916
G1 X88.486 Y93.896 E7.43815
G1 F1800 E3.43815
G0 F3000 X107.853 Y94.501
G1 F1800 E7.43815
G1 X109.426 Y91.776 E7.65792
G1 X112.574 Y91.776 E7.87779
G1 X114.147 Y94.501 E8.09756
G1 X112.574 Y97.226 E8.31732
G1 X109.426 Y97.226 E8.5372
G1 X107.853 Y94.501 E8.75697
G0 F3000 X108.315 Y94.501
G1 F1800 X109.658 Y92.176 E8.9445
G1 X112.342 Y92.176 E9.13197
G1 X113.685 Y94.501 E9.31951
G1 X112.342 Y96.826 E9.50705
G1 X109.658 Y96.826 E9.69451
G1 X108.315 Y94.501 E9.88205
G0 F3000 X108.777 Y94.501
G1 F1800 X109.888 Y92.576 E10.03729
G1 X112.112 Y92.576 E10.19263
G1 X113.223 Y94.501 E10.34787
G1 X112.112 Y96.426 E10.50311
G1 X109.888 Y96.426 E10.65845
G1 X108.777 Y94.501 E10.81369
G0 F3000 X109.238 Y94.501
;TYPE:SUPPORT
G1 F900 X110.12 Y92.976 Z0.25 E10.93694
G1 X111.88 Y92.976 E11.05986
G1 X112.761 Y94.501 E11.18288
G1 X111.88 Y96.026 E11.30589
G1 X110.12 Y96.026 E11.42882
G1 X109.238 Y94.501 E11.55187
G1 F1800 E7.55187
G0 F3000 X110.092 Y93.345
G1 F1800 E11.55187
G1 F900 X111.908 Y93.345 E11.67871
G0 F3000 X112.014 Y93.529
G1 F900 X112.014 Y95.474 E11.81456
G1 F1800 E7.81456
G0 F3000 X112.014 Y95.474 Z0.35
G0 X103.362 Y94.629
G1 F1800 E11.81456
G1 F900 X103.243 Y94.801 Z0.25 E11.83075
G1 X103.131 Y94.866 E11.8398
G1 X102.899 Y94.901 E11.85618
G1 X89.101 Y94.901 E12.81992
G1 X88.878 Y94.867 E12.83568
G1 X88.7 Y94.744 E12.85079
G1 X88.634 Y94.629 E12.86005
G1 X88.629 Y94.388 E12.87689
G1 X88.757 Y94.2 E12.89277
G1 X88.869 Y94.136 E12.90178
G1 X89.101 Y94.101 E12.91817
G1 X102.899 Y94.101 E13.88191
G1 X103.131 Y94.136 E13.8983
G1 X103.251 Y94.206 E13.908
G1 X103.378 Y94.417 E13.9252
G1 X103.362 Y94.629 E13.94005
G1 F1800 E9.94005
G0 F3000 X101.346 Y94.741
G1 F1800 E13.94005
G1 F900 X101.346 Y94.261 E13.97358
G1 F1800 E9.97358
G0 F3000 X98.679 Y94.261
G1 F1800 E13.97358
G1 F900 X98.679 Y94.741 E14.0071
G1 F1800 E10.0071
G0 F3000 X96.012 Y94.741
G1 F1800 E14.0071
G1 F900 X96.012 Y94.261 E14.04063
G1 F1800 E10.04063
G0 F3000 X93.345 Y94.261
G1 F1800 E14.04063
G1 F900 X93.345 Y94.741 E14.07416
G1 F1800 E10.07416
G0 F3000 X90.678 Y94.741
G1 F1800 E14.07416
G1 F900 X90.678 Y94.261 E14.10768
G1 F1800 E10.10768
;MESH:left_wheel_suspension_2_V1.STL
G0 F3000 X90.678 Y94.261 Z0.35
G0 X90.678 Y96.336
G0 X90.678 Y97.401
G0 X89.835 Y102.898
G0 X90.761 Y103.402
G0 X91.374 Y104.13
G0 X91.699 Y105.026
G0 X91.699 Y105.977
G0 X91.374 Y106.871
G0 X90.761 Y107.601
G0 X88.948 Y108.699
G0 X88.974 Y108.4
;TYPE:WALL-INNER
G1 F1800 E14.10768
G1 F900 X88.443 Y108.345 E14.14497
G1 X88.002 Y108.224 E14.17691
G1 X87.548 Y108.012 E14.21191
G1 X87.143 Y107.729 E14.24642
G1 X86.813 Y107.405 E14.27872
G1 X86.5 Y106.972 E14.31604
G1 X86.265 Y106.463 E14.35519
G1 X86.142 Y105.989 E14.3894
G1 X86.101 Y105.478 E14.4252
G1 X86.156 Y104.944 E14.4627
G1 X86.259 Y104.561 E14.4904
G1 X86.486 Y104.048 E14.52958
G1 X86.812 Y103.599 E14.56834
G1 X87.178 Y103.246 E14.60386
G1 X87.582 Y102.971 E14.63799
G1 X88.047 Y102.763 E14.67357
G1 X88.49 Y102.646 E14.70557
G1 X89.001 Y102.602 E14.7414
G1 X89.557 Y102.657 E14.78042
G1 X89.94 Y102.76 E14.80812
G1 X90.402 Y102.964 E14.8434
G1 X90.822 Y103.246 E14.87873
G1 X91.188 Y103.599 E14.91425
G1 X91.514 Y104.048 E14.953
G1 X91.741 Y104.561 E14.99219
G1 X91.862 Y105.047 E15.02717
G1 X91.897 Y105.554 E15.06266
G1 X91.844 Y106.06 E15.0982
G1 X91.741 Y106.442 E15.12583
G1 X91.514 Y106.955 E15.16502
G1 X91.187 Y107.405 E15.20387
G1 X90.901 Y107.69 E15.23207
G1 X90.495 Y107.985 E15.26712
G1 X90.024 Y108.213 E15.30367
G1 X89.536 Y108.35 E15.33907
G1 X88.974 Y108.4 E15.37848
G0 F3000 X88.948 Y108.699
G0 X104.175 Y106.312
G0 X104.262 Y106.597
G1 F900 X104.98 Y106.376 E15.43095
G1 X105.777 Y106.233 E15.48751
G1 X106.559 Y106.186 E15.54223
G1 X111.805 Y106.187 E15.90864
G1 X112.714 Y106.111 E15.97235
G1 X113.584 Y105.892 E16.03502
G1 X114.385 Y105.544 E16.09602
G1 X115.136 Y105.055 E16.15861
G1 X115.786 Y104.462 E16.22006
G1 X116.338 Y103.762 E16.28233
G1 X116.792 Y102.953 E16.34712
G1 X117.124 Y102.081 E16.4123
G1 X117.33 Y101.159 E16.47828
G1 X117.4 Y100.21 E16.54475
G1 X117.4 Y94.521 E16.9421
G1 X117.32 Y93.509 E17.01301
G1 X117.082 Y92.519 E17.08412
G1 X116.696 Y91.59 E17.15439
G1 X116.173 Y90.736 E17.22434
G1 X115.53 Y89.984 E17.29344
G1 X114.772 Y89.334 E17.36319
G1 X113.916 Y88.808 E17.43336
G1 X112.984 Y88.42 E17.50387
G1 X112.005 Y88.184 E17.57421
G1 X110.978 Y88.102 E17.64617
G1 X89.028 Y88.101 E19.1793
G1 X88.001 Y88.183 E19.25126
G1 X87.025 Y88.417 E19.32136
G1 X86.089 Y88.804 E19.3921
G1 X85.236 Y89.328 E19.46203
G1 X84.476 Y89.977 E19.53183
G1 X83.827 Y90.737 E19.60164
G1 X83.304 Y91.59 E19.67152
G1 X82.918 Y92.519 E19.74179
G1 X82.68 Y93.509 E19.8129
G1 X82.6 Y94.529 E19.88437
G1 X82.6 Y105.481 E20.64932
G1 X82.684 Y106.517 E20.72192
G1 X82.933 Y107.531 E20.79485
G1 X83.33 Y108.464 E20.86567
G1 X83.878 Y109.334 E20.93749
G1 X84.565 Y110.112 E21.00998
G1 X85.358 Y110.76 E21.08151
G1 X86.252 Y111.279 E21.15371
G1 X87.21 Y111.643 E21.22529
G1 X88.215 Y111.85 E21.29696
G1 X89.24 Y111.894 E21.36862
G1 X90.272 Y111.771 E21.44121
G1 X91.272 Y111.484 E21.51388
G1 X104.262 Y106.597 E22.48326
G0 F3000 X104.175 Y106.312
G0 X113.2 Y99.026
G0 X113.2 Y98.727
G1 F900 X108.832 Y98.726 E22.78835
G1 X108.696 Y98.689 E22.7982
G1 X108.426 Y98.486 E22.82179
G1 F859.2 X107.67 Y97.177 E22.93239
G1 F784.3 X106.914 Y95.868 E23.05354
G1 F722.9 X106.157 Y94.558 E23.18511
G1 F737.7 X105.969 Y95.418 E23.26012
G1 F839.2 X105.689 Y96.051 E23.31197
G1 F900 X105.341 Y96.532 E23.35344
G1 X105.031 Y96.842 E23.38406
G1 X104.594 Y97.158 E23.42173
G1 X104.06 Y97.414 E23.46309
G1 X103.531 Y97.555 E23.50133
G1 X103.05 Y97.599 E23.53507
G1 X88.95 Y97.599 E24.5199
G1 X88.461 Y97.554 E24.5542
G1 X87.991 Y97.43 E24.58815
G1 X87.467 Y97.196 E24.62823
G1 X87.005 Y96.878 E24.66741
G1 X86.592 Y96.452 E24.70885
G1 X86.29 Y96.003 E24.74664
G1 X86.071 Y95.509 E24.78438
G1 X85.947 Y95.041 E24.8182
G1 X85.901 Y94.526 E24.85431
G1 X85.944 Y93.985 E24.89222
G1 X86.096 Y93.418 E24.93322
G1 X86.323 Y92.937 E24.97037
G1 X86.627 Y92.505 E25.00727
G1 X87.004 Y92.128 E25.04451
G1 X87.436 Y91.824 E25.0814
G1 X87.918 Y91.597 E25.11861
G1 X88.482 Y91.445 E25.15941
G1 X88.956 Y91.402 E25.19266
G1 X103.049 Y91.403 E26.177
G1 X103.592 Y91.46 E26.21514
G1 X104.008 Y91.572 E26.24523
G1 X104.55 Y91.812 E26.28663
G1 X105.031 Y92.16 E26.3281
G1 X105.409 Y92.55 E26.36603
G1 X105.71 Y92.998 E26.40373
G1 F839.2 X105.969 Y93.584 E26.45172
G1 F737.7 X106.157 Y94.444 E26.52674
G1 F722.9 X106.9 Y93.155 E26.65611
G1 F784.3 X107.643 Y91.866 E26.77536
G1 F859.2 X108.387 Y90.576 E26.88431
G1 F900 X108.587 Y90.367 E26.90452
G1 X108.824 Y90.276 E26.92225
G1 X113.093 Y90.275 E27.22042
G1 X113.409 Y90.363 E27.24333
G1 X113.58 Y90.523 E27.25969
G1 X115.706 Y94.201 E27.55641
G1 X115.786 Y94.453 E27.57488
G1 X115.778 Y94.605 E27.58551
G1 X115.706 Y94.801 E27.6001
G1 X113.613 Y98.426 E27.89246
G1 X113.417 Y98.632 E27.91232
G1 X113.2 Y98.727 E27.92887
G0 F3000 X113.121 Y98.325
;TYPE:WALL-OUTER
G1 F900 X108.871 Y98.323 E28.22572
G1 X108.733 Y98.226 E28.2375
G1 F902.3 X106.641 Y94.601 E28.5291
G1 X106.608 Y94.458 E28.53932
G1 F900 X108.733 Y90.776 E28.83625
G1 X108.872 Y90.678 E28.84813
G1 X113.093 Y90.675 E29.14295
G1 X113.256 Y90.758 E29.15573
G1 X115.392 Y94.457 E29.45407
G1 X115.36 Y94.601 E29.46438
G1 X113.249 Y98.257 E29.75924
G1 X113.121 Y98.325 E29.76937
G0 F3000 X112.921 Y98.325
G0 X112.921 Y99.026
G0 X108.425 Y98.96
G0 X103.514 Y97.859
G0 X103.454 Y97.162
G1 F900 X103.014 Y97.201 E29.80022
G1 X88.986 Y97.201 E30.78003
G1 X88.529 Y97.16 E30.81207
G1 X88.095 Y97.044 E30.84345
G1 X87.655 Y96.843 E30.87724
G1 X87.252 Y96.559 E30.91167
G1 X86.942 Y96.249 E30.94229
G1 X86.653 Y95.835 E30.97756
G1 X86.457 Y95.405 E31.01057
G1 X86.341 Y94.972 E31.04188
G1 X86.301 Y94.483 E31.07614
G1 X86.34 Y94.038 E31.10735
G1 X86.458 Y93.593 E31.1395
G1 X86.664 Y93.146 E31.17388
G1 X86.931 Y92.765 E31.20637
G1 X87.264 Y92.432 E31.23927
G1 X87.645 Y92.165 E31.27176
G1 X88.096 Y91.958 E31.30642
G1 X88.546 Y91.84 E31.33892
G1 X88.988 Y91.801 E31.36991
G1 X103.014 Y91.801 E32.34957
G1 X103.488 Y91.846 E32.38283
G1 X103.904 Y91.958 E32.41292
G1 X104.334 Y92.154 E32.44593
G1 X104.748 Y92.443 E32.48119
G1 X105.081 Y92.78 E32.51428
G1 X105.347 Y93.166 E32.54702
G1 X105.543 Y93.597 E32.58009
G1 X105.661 Y94.047 E32.61259
G1 X105.699 Y94.519 E32.64566
G1 X105.661 Y94.955 E32.67623
G1 X105.543 Y95.405 E32.70872
G1 X105.347 Y95.835 E32.74173
G1 X105.058 Y96.249 E32.77699
G1 X104.748 Y96.559 E32.80762
G1 X104.334 Y96.848 E32.84288
G1 X103.905 Y97.044 E32.87582
G1 X103.454 Y97.162 E32.90839
G0 F3000 X103.255 Y97.179
G0 X103.315 Y97.877
G0 X104.135 Y106.326
G0 X104.38 Y106.979
G1 F900 X105.091 Y106.761 E32.96033
G1 X105.829 Y106.63 E33.01268
G1 X106.559 Y106.586 E33.06376
G1 X111.821 Y106.587 E33.43129
G1 X112.78 Y106.507 E33.49851
G1 X113.713 Y106.272 E33.56571
G1 X114.575 Y105.898 E33.63134
G1 X115.382 Y105.373 E33.69858
G1 X116.08 Y104.736 E33.76459
G1 X116.672 Y103.985 E33.83138
G1 X117.156 Y103.123 E33.90043
G1 X117.508 Y102.196 E33.96969
G1 X117.727 Y101.217 E34.03975
G1 X117.8 Y100.224 E34.1093
G1 X117.8 Y94.505 E34.50875
G1 X117.716 Y93.446 E34.58295
G1 X117.464 Y92.395 E34.65844
G1 X117.054 Y91.408 E34.73309
G1 X116.497 Y90.5 E34.80749
G1 X115.814 Y89.7 E34.88096
G1 X115.008 Y89.01 E34.95507
G1 X114.099 Y88.45 E35.02964
G1 X113.108 Y88.038 E35.1046
G1 X112.068 Y87.788 E35.17931
G1 X110.994 Y87.702 E35.25457
G1 X89.012 Y87.701 E36.78993
G1 X87.938 Y87.787 E36.86518
G1 X86.901 Y88.035 E36.93966
G1 X85.907 Y88.447 E37.01481
G1 X85 Y89.004 E37.08915
G1 X84.192 Y89.693 E37.16332
G1 X83.503 Y90.501 E37.23749
G1 X82.946 Y91.408 E37.31183
G1 X82.536 Y92.395 E37.38648
G1 X82.284 Y93.446 E37.46197
G1 X82.2 Y94.513 E37.53673
G1 X82.2 Y105.497 E38.30392
G1 X82.288 Y106.581 E38.37988
G1 X82.552 Y107.658 E38.45733
G1 X82.974 Y108.65 E38.53263
G1 X83.557 Y109.574 E38.60894
G1 X84.287 Y110.401 E38.68599
G1 X85.13 Y111.09 E38.76203
G1 X86.079 Y111.641 E38.83868
G1 X87.098 Y112.029 E38.91484
G1 X88.166 Y112.248 E38.99099
G1 X89.255 Y112.295 E39.06712
G1 X90.351 Y112.165 E39.14421
G1 X91.398 Y111.864 E39.2203
G1 X104.38 Y106.979 E40.18911
G0 F3000 X104.571 Y106.921
G0 X104.365 Y106.253
G0 X88.921 Y108.696
G0 X88.982 Y108
G1 F900 X88.547 Y107.959 E40.21963
G1 X88.144 Y107.85 E40.24879
G1 X87.749 Y107.666 E40.27923
G1 X87.381 Y107.406 E40.3107
G1 X87.087 Y107.112 E40.33974
G1 X86.838 Y106.758 E40.36997
G1 X86.654 Y106.364 E40.40034
G1 X86.536 Y105.921 E40.43236
G1 X86.501 Y105.483 E40.46305
G1 X86.542 Y105.048 E40.49357
G1 X86.645 Y104.665 E40.52127
G1 X86.844 Y104.236 E40.5543
G1 X87.095 Y103.882 E40.58461
G1 X87.381 Y103.596 E40.61286
G1 X87.76 Y103.329 E40.64524
G1 X88.145 Y103.152 E40.67484
G1 X88.581 Y103.037 E40.70633
G1 X89.018 Y103.002 E40.73695
G1 X89.453 Y103.043 E40.76747
G1 X89.836 Y103.146 E40.79517
G1 X90.234 Y103.327 E40.82571
G1 X90.619 Y103.596 E40.85852
G1 X90.905 Y103.882 E40.88677
G1 X91.174 Y104.267 E40.91957
G1 X91.355 Y104.665 E40.95011
G1 X91.464 Y105.082 E40.98021
G1 X91.499 Y105.519 E41.01084
G1 X91.458 Y105.956 E41.04149
G1 X91.355 Y106.338 E41.06913
G1 X91.157 Y106.766 E41.10206
G1 X90.905 Y107.121 E41.13247
G1 X90.619 Y107.406 E41.16067
G1 X90.234 Y107.675 E41.19348
G1 X89.836 Y107.856 E41.22402
G1 X89.419 Y107.965 E41.25412
G1 X88.982 Y108 E41.28474
G0 F3000 X88.783 Y107.982
G0 X88.722 Y108.679
G0 X89.545 Y108.596
G0 X113.474 Y99.029
;TYPE:SKIN
G1 F900 X113.852 Y98.772 E41.31667
G1 X116.036 Y94.991 E41.62165
G1 X116.154 Y94.671 E41.64547
G1 X116.164 Y94.423 E41.6628
G1 X116.05 Y94.046 E41.69031
G1 X113.893 Y90.304 E41.99199
G1 X113.605 Y90.035 E42.01952
G1 X113.143 Y89.9 E42.05314
G1 X108.767 Y89.898 E42.35878
G1 X108.345 Y90.078 E42.39083
G1 X108.057 Y90.387 E42.42033
G1 X106.306 Y93.42 E42.66494
G1 X106.061 Y92.846 E42.70853
G1 X105.721 Y92.334 E42.75146
G1 X105.257 Y91.845 E42.79855
G1 X104.685 Y91.457 E42.84682
G1 X104.104 Y91.203 E42.89111
G1 X103.557 Y91.067 E42.93048
G1 X103.079 Y91.023 E42.96401
G1 X88.93 Y91.023 E43.95226
G1 X88.33 Y91.088 E43.99442
G1 X87.768 Y91.248 E44.03523
G1 X87.239 Y91.497 E44.07607
G1 X86.756 Y91.838 E44.11736
G1 X86.337 Y92.258 E44.1588
G1 X85.998 Y92.738 E44.19985
G1 X85.731 Y93.299 E44.24324
G1 X85.566 Y93.932 E44.28893
G1 X85.522 Y94.544 E44.33179
G1 X85.573 Y95.112 E44.37162
