;FLAVOR:Marlin
;TIME:6655
;Filament used: 4.83273m
;Layer height: 0.2
;MINX:67.912
;MINY:70.096
;MINZ:0.25
;MAXX:132.086
;MAXY:129.903
;MAXZ:11.55
;TARGET_MACHINE.NAME:XYZprinting da Vinci 1.0 Pro
;Generated with Cura_SteamEngine 5.6.0
M140 S45
M105
M190 S45
M104 S190
M105
M109 S190
M82 ;absolute extrusion mode
G28 ; home all axes
G1 Z15 F5000 ; lift nozzle
G92 E0
G1 F200 E3

G92 E0
G92 E0
G1 F1800 E-4
;LAYER_COUNT:57
;LAYER:0
M106 S255
G0 F3000 X73.247 Y83.249 Z0.35
;TYPE:SKIRT
G1 F1800 E0
G1 X73.695 Y82.943 E0.03789
G1 X74.185 Y82.721 E0.07547
G1 X74.711 Y82.587 E0.11338
G1 X75.242 Y82.547 E0.15057
G1 X75.783 Y82.601 E0.18855
G1 X76.307 Y82.747 E0.22654
G1 X76.789 Y82.98 E0.26393
G1 X77.225 Y83.293 E0.30142
G1 X77.603 Y83.679 E0.33916
G1 X77.91 Y84.129 E0.37721
G1 X78.132 Y84.619 E0.41478
G1 X78.266 Y85.145 E0.45269
G1 X78.306 Y85.676 E0.48989
G1 X78.252 Y86.215 E0.52772
G1 X78.106 Y86.736 E0.56551
G1 X77.869 Y87.229 E0.60372
G1 X77.56 Y87.659 E0.6407
G1 X77.172 Y88.038 E0.67859
G1 X76.724 Y88.344 E0.71648
G1 X76.234 Y88.566 E0.75405
G1 X75.708 Y88.7 E0.79197
G1 X75.177 Y88.74 E0.82916
G1 X74.639 Y88.686 E0.86693
G1 X74.117 Y88.54 E0.90479
G1 X73.626 Y88.305 E0.94281
G1 X73.191 Y87.993 E0.9802
G1 X72.814 Y87.604 E1.01803
G1 X72.509 Y87.158 E1.05577
G1 X72.287 Y86.668 E1.09334
G1 X72.153 Y86.142 E1.13126
G1 X72.113 Y85.608 E1.16866
G1 X72.167 Y85.07 E1.20643
G1 X72.313 Y84.546 E1.24442
G1 X72.546 Y84.063 E1.28188
G1 X72.861 Y83.626 E1.3195
G1 X73.247 Y83.249 E1.35719
G0 F3000 X73.502 Y83.56
G1 F1800 X73.895 Y83.291 E1.39045
G1 X74.319 Y83.099 E1.42296
G1 X74.772 Y82.983 E1.45562
G1 X75.238 Y82.949 E1.48826
G1 X75.711 Y82.996 E1.52146
G1 X76.164 Y83.122 E1.5543
G1 X76.584 Y83.325 E1.58688
G1 X76.965 Y83.599 E1.61966
G1 X77.29 Y83.93 E1.65206
G1 X77.562 Y84.329 E1.68579
G1 X77.754 Y84.753 E1.7183
G1 X77.87 Y85.206 E1.75096
G1 X77.904 Y85.672 E1.78359
G1 X77.857 Y86.14 E1.81645
G1 X77.731 Y86.592 E1.84922
G1 X77.523 Y87.026 E1.88284
G1 X77.258 Y87.394 E1.91451
G1 X76.919 Y87.726 E1.94765
G1 X76.524 Y87.996 E1.98107
G1 X76.1 Y88.188 E2.01358
G1 X75.647 Y88.304 E2.04624
G1 X75.181 Y88.338 E2.07888
G1 X74.713 Y88.291 E2.11173
G1 X74.258 Y88.164 E2.14472
G1 X73.83 Y87.96 E2.17784
G1 X73.455 Y87.69 E2.21011
G1 X73.125 Y87.35 E2.24321
G1 X72.858 Y86.959 E2.27628
G1 X72.665 Y86.534 E2.30888
G1 X72.549 Y86.081 E2.34154
G1 X72.515 Y85.613 E2.37432
G1 X72.562 Y85.143 E2.40731
G1 X72.687 Y84.692 E2.44
G1 X72.891 Y84.27 E2.47273
G1 X73.166 Y83.887 E2.50567
G1 X73.502 Y83.56 E2.53842
G0 F3000 X73.756 Y83.869
G1 F1800 X74.086 Y83.645 E2.56627
G1 X74.453 Y83.478 E2.59444
G1 X74.839 Y83.379 E2.62227
G1 X75.233 Y83.35 E2.64986
G1 X75.639 Y83.391 E2.67836
G1 X76.016 Y83.496 E2.7057
G1 X76.379 Y83.671 E2.73385
G1 X76.705 Y83.905 E2.76187
G1 X76.983 Y84.189 E2.78963
G1 X77.208 Y84.52 E2.81759
G1 X77.375 Y84.887 E2.84575
G1 X77.474 Y85.273 E2.87358
G1 X77.503 Y85.667 E2.90118
G1 X77.463 Y86.067 E2.92925
G1 X77.355 Y86.453 E2.95725
G1 X77.18 Y86.816 E2.9854
G1 X76.949 Y87.138 E3.01308
G1 X76.663 Y87.418 E3.04103
G1 X76.333 Y87.642 E3.06889
G1 X75.966 Y87.809 E3.09705
G1 X75.58 Y87.908 E3.12489
G1 X75.186 Y87.937 E3.15248
G1 X74.786 Y87.897 E3.18056
G1 X74.399 Y87.788 E3.20864
G1 X74.038 Y87.616 E3.23657
G1 X73.717 Y87.385 E3.26419
G1 X73.436 Y87.096 E3.29235
G1 X73.209 Y86.764 E3.32044
G1 X73.044 Y86.4 E3.34835
G1 X72.945 Y86.014 E3.37619
G1 X72.916 Y85.618 E3.40392
G1 X72.957 Y85.214 E3.43228
G1 X73.062 Y84.834 E3.45982
G1 X73.236 Y84.474 E3.48775
G1 X73.471 Y84.149 E3.51576
G1 X73.756 Y83.869 E3.54366
G1 F1800 E-0.45634
G0 F3000 X99.099 Y89.483
G1 F1800 E3.54366
G1 X102.067 Y88.443 E3.76333
G1 X104.452 Y90.491 E3.9829
G1 X103.867 Y93.586 E4.2029
G1 X100.899 Y94.626 E4.42256
G1 X98.514 Y92.577 E4.64218
G1 X99.099 Y89.483 E4.86211
G0 F3000 X99.449 Y89.783
G1 F1800 X101.981 Y88.896 E5.0495
G1 X104.016 Y90.644 E5.23688
G1 X103.517 Y93.286 E5.42467
G1 X100.985 Y94.173 E5.61206
G1 X98.95 Y92.424 E5.79948
G1 X99.449 Y89.783 E5.98721
G0 F3000 X99.799 Y90.085
G1 F1800 X101.895 Y89.351 E6.14232
G1 X103.58 Y90.798 E6.29746
G1 X103.167 Y92.984 E6.45284
G1 X101.07 Y93.719 E6.60804
G1 X99.386 Y92.272 E6.76312
G1 X99.799 Y90.085 E6.91858
G1 F1800 E2.91858
G0 F3000 X121.83 Y86.533
G1 F1800 E6.91858
G1 X121.791 Y86 E6.9559
G1 X121.845 Y85.466 E6.99339
G1 X121.992 Y84.939 E7.03161
G1 X122.226 Y84.454 E7.06922
G1 X122.537 Y84.021 E7.10646
G1 X122.927 Y83.639 E7.14459
G1 X123.373 Y83.335 E7.18229
G1 X123.861 Y83.115 E7.21967
G1 X124.389 Y82.979 E7.25776
G1 X124.921 Y82.939 E7.29502
G1 X125.457 Y82.993 E7.33265
G1 X125.987 Y83.141 E7.37108
G1 X126.467 Y83.373 E7.40832
G1 X126.908 Y83.689 E7.44621
G1 X127.282 Y84.072 E7.4836
G1 X127.586 Y84.517 E7.52124
G1 X127.81 Y85.012 E7.55919
G1 X127.944 Y85.537 E7.59704
G1 X127.984 Y86.068 E7.63423
G1 X127.93 Y86.607 E7.67207
G1 X127.783 Y87.133 E7.71021
G1 X127.55 Y87.617 E7.74773
G1 X127.239 Y88.052 E7.78508
G1 X126.848 Y88.433 E7.82321
G1 X126.402 Y88.737 E7.86091
G1 X125.914 Y88.957 E7.8983
G1 X125.386 Y89.093 E7.93638
G1 X124.854 Y89.133 E7.97365
G1 X124.318 Y89.079 E8.01127
G1 X123.79 Y88.931 E8.04957
G1 X123.307 Y88.699 E8.087
G1 X122.866 Y88.382 E8.12493
G1 X122.493 Y87.999 E8.16228
G1 X122.188 Y87.552 E8.20007
G1 X121.967 Y87.062 E8.23762
G1 X121.83 Y86.533 E8.27578
G0 F3000 X122.227 Y86.47
G1 F1800 X122.193 Y86.005 E8.30835
G1 X122.24 Y85.537 E8.3412
G1 X122.366 Y85.085 E8.37398
G1 X122.572 Y84.657 E8.40715
G1 X122.843 Y84.281 E8.43953
G1 X123.178 Y83.952 E8.47232
G1 X123.568 Y83.686 E8.50529
G1 X123.999 Y83.492 E8.53831
G1 X124.45 Y83.376 E8.57083
G1 X124.917 Y83.341 E8.60354
G1 X125.384 Y83.388 E8.63633
G1 X125.845 Y83.517 E8.66976
G1 X126.262 Y83.718 E8.70209
G1 X126.648 Y83.995 E8.73528
G1 X126.969 Y84.323 E8.76733
G1 X127.238 Y84.717 E8.80066
G1 X127.432 Y85.146 E8.83354
G1 X127.548 Y85.599 E8.8662
G1 X127.582 Y86.064 E8.89877
G1 X127.535 Y86.534 E8.93176
G1 X127.409 Y86.987 E8.9646
G1 X127.203 Y87.414 E8.99771
G1 X126.934 Y87.791 E9.03006
G1 X126.597 Y88.12 E9.06296
G1 X126.208 Y88.385 E9.09583
G1 X125.776 Y88.58 E9.12894
G1 X125.325 Y88.696 E9.16146
G1 X124.858 Y88.731 E9.19417
G1 X124.391 Y88.684 E9.22696
G1 X123.934 Y88.556 E9.26011
G1 X123.513 Y88.354 E9.29272
G1 X123.128 Y88.077 E9.32585
G1 X122.804 Y87.745 E9.35825
G1 X122.539 Y87.357 E9.39107
G1 X122.344 Y86.924 E9.42424
G1 X122.227 Y86.47 E9.45698
G0 F3000 X122.623 Y86.407
G1 F1800 X122.594 Y86.011 E9.48472
G1 X122.634 Y85.611 E9.51279
G1 X122.742 Y85.226 E9.54072
G1 X122.916 Y84.865 E9.56871
G1 X123.149 Y84.541 E9.59659
G1 X123.437 Y84.259 E9.62474
G1 X123.765 Y84.036 E9.65244
G1 X124.126 Y83.873 E9.68011
G1 X124.517 Y83.772 E9.70832
G1 X124.913 Y83.743 E9.73605
G1 X125.312 Y83.782 E9.76405
G1 X125.697 Y83.89 E9.79198
G1 X126.061 Y84.066 E9.82022
G1 X126.385 Y84.298 E9.84805
G1 X126.662 Y84.581 E9.87571
G1 X126.884 Y84.908 E9.90332
G1 X127.053 Y85.28 E9.93186
G1 X127.152 Y85.665 E9.95962
G1 X127.181 Y86.059 E9.98722
G1 X127.141 Y86.461 E10.01543
G1 X127.034 Y86.843 E10.04314
G1 X126.858 Y87.21 E10.07157
G1 X126.629 Y87.529 E10.099
G1 X126.339 Y87.812 E10.1273
G1 X126.01 Y88.036 E10.1551
G1 X125.649 Y88.199 E10.18276
G1 X125.258 Y88.3 E10.21097
G1 X124.862 Y88.329 E10.2387
G1 X124.465 Y88.29 E10.26657
G1 X124.078 Y88.181 E10.29465
G1 X123.716 Y88.007 E10.3227
G1 X123.388 Y87.771 E10.35093
G1 X123.114 Y87.49 E10.37834
G1 X122.89 Y87.162 E10.40608
G1 X122.723 Y86.792 E10.43443
G1 X122.623 Y86.407 E10.46222
G1 F1800 E6.46222
G0 F3000 X103.176 Y121.181
G1 F1800 E10.46222
G1 X103.612 Y121.494 E10.49971
G1 X103.991 Y121.882 E10.53759
G1 X104.297 Y122.33 E10.57548
G1 X104.519 Y122.82 E10.61306
G1 X104.653 Y123.346 E10.65097
G1 X104.693 Y123.877 E10.68816
G1 X104.639 Y124.418 E10.72614
G1 X104.493 Y124.942 E10.76413
G1 X104.26 Y125.424 E10.80152
G1 X103.947 Y125.86 E10.83901
G1 X103.559 Y126.239 E10.87689
G1 X103.111 Y126.545 E10.91479
G1 X102.621 Y126.767 E10.95236
G1 X102.095 Y126.901 E10.99027
G1 X101.564 Y126.941 E11.02747
G1 X101.026 Y126.887 E11.06523
G1 X100.504 Y126.741 E11.10309
G1 X100.013 Y126.506 E11.14111
G1 X99.578 Y126.194 E11.1785
G1 X99.202 Y125.806 E11.21624
G1 X98.896 Y125.359 E11.25408
G1 X98.674 Y124.869 E11.29165
G1 X98.54 Y124.343 E11.32956
G1 X98.5 Y123.808 E11.36704
G1 X98.554 Y123.274 E11.40452
G1 X98.7 Y122.752 E11.44238
G1 X98.935 Y122.261 E11.4804
G1 X99.247 Y121.826 E11.51779
G1 X99.635 Y121.45 E11.55553
G1 X100.082 Y121.144 E11.59337
G1 X100.572 Y120.922 E11.63094
G1 X101.098 Y120.788 E11.66885
G1 X101.629 Y120.748 E11.70605
G1 X102.17 Y120.802 E11.74402
G1 X102.694 Y120.948 E11.78201
G1 X103.176 Y121.181 E11.81941
G0 F3000 X102.971 Y121.526
G1 F1800 X103.349 Y121.797 E11.85189
G1 X103.68 Y122.137 E11.88504
G1 X103.949 Y122.53 E11.9183
G1 X104.141 Y122.954 E11.95081
G1 X104.257 Y123.407 E11.98347
G1 X104.291 Y123.873 E12.01611
G1 X104.244 Y124.346 E12.04931
G1 X104.118 Y124.799 E12.08215
G1 X103.915 Y125.219 E12.11473
G1 X103.645 Y125.595 E12.14706
G1 X103.306 Y125.927 E12.1802
G1 X102.911 Y126.197 E12.21362
G1 X102.487 Y126.389 E12.24613
G1 X102.034 Y126.505 E12.27879
G1 X101.568 Y126.539 E12.31143
G1 X101.1 Y126.492 E12.34428
G1 X100.645 Y126.365 E12.37728
G1 X100.217 Y126.161 E12.41039
G1 X99.842 Y125.891 E12.44267
G1 X99.512 Y125.551 E12.47576
G1 X99.245 Y125.16 E12.50883
G1 X99.052 Y124.735 E12.54143
G1 X98.936 Y124.282 E12.57409
G1 X98.902 Y123.813 E12.60694
G1 X98.949 Y123.347 E12.63965
G1 X99.076 Y122.893 E12.67258
G1 X99.28 Y122.465 E12.7057
G1 X99.55 Y122.09 E12.73797
G1 X99.89 Y121.76 E12.77106
G1 X100.281 Y121.493 E12.80413
G1 X100.706 Y121.3 E12.83674
G1 X101.159 Y121.184 E12.8694
G1 X101.625 Y121.15 E12.90203
G1 X102.098 Y121.197 E12.93523
G1 X102.551 Y121.323 E12.96807
G1 X102.971 Y121.526 E13.00066
G0 F3000 X102.766 Y121.872
G1 F1800 X103.091 Y122.105 E13.02859
G1 X103.371 Y122.391 E13.05654
G1 X103.595 Y122.721 E13.0844
G1 X103.762 Y123.088 E13.11256
G1 X103.861 Y123.474 E13.1404
G1 X103.89 Y123.868 E13.16799
G1 X103.849 Y124.274 E13.19649
G1 X103.744 Y124.651 E13.22383
G1 X103.569 Y125.014 E13.25197
G1 X103.336 Y125.339 E13.2799
G1 X103.05 Y125.619 E13.30786
G1 X102.72 Y125.843 E13.33572
G1 X102.353 Y126.01 E13.36388
G1 X101.967 Y126.109 E13.39171
G1 X101.573 Y126.138 E13.41931
G1 X101.173 Y126.098 E13.44739
G1 X100.786 Y125.989 E13.47547
G1 X100.425 Y125.817 E13.5034
G1 X100.104 Y125.586 E13.53102
G1 X99.823 Y125.297 E13.55917
G1 X99.596 Y124.965 E13.58727
G1 X99.431 Y124.601 E13.61518
G1 X99.332 Y124.215 E13.64301
G1 X99.303 Y123.819 E13.67075
G1 X99.343 Y123.421 E13.69869
G1 X99.452 Y123.034 E13.72677
G1 X99.624 Y122.673 E13.7547
G1 X99.855 Y122.352 E13.78232
G1 X100.144 Y122.071 E13.81047
G1 X100.476 Y121.844 E13.83857
G1 X100.84 Y121.679 E13.86648
G1 X101.226 Y121.58 E13.89431
G1 X101.62 Y121.551 E13.92191
G1 X102.026 Y121.592 E13.95041
G1 X102.403 Y121.697 E13.97774
G1 X102.766 Y121.872 E14.00589
G0 F3000 X102.57 Y122.223
;TYPE:SUPPORT
G1 F900 X102.832 Y122.412 Z0.25 E14.02951
G1 X103.06 Y122.646 E14.05233
G1 X103.242 Y122.912 E14.07484
G1 X103.382 Y123.22 E14.09847
G1 X103.464 Y123.544 E14.12182
G1 X103.488 Y123.863 E14.14416
G1 X103.453 Y124.203 E14.16803
G1 X103.37 Y124.504 E14.18984
G1 X103.219 Y124.817 E14.21411
G1 X103.032 Y125.077 E14.23648
G1 X102.795 Y125.308 E14.2596
G1 X102.529 Y125.49 E14.28211
G1 X102.221 Y125.63 E14.30574
G1 X101.901 Y125.71 E14.32878
G1 X101.578 Y125.736 E14.35141
G1 X101.238 Y125.701 E14.37529
G1 X100.936 Y125.617 E14.39718
G1 X100.625 Y125.469 E14.42124
G1 X100.362 Y125.279 E14.4439
G1 X100.136 Y125.045 E14.46662
G1 X99.949 Y124.773 E14.48968
G1 X99.811 Y124.469 E14.513
G1 X99.729 Y124.144 E14.53641
G1 X99.705 Y123.824 E14.55882
G1 X99.74 Y123.486 E14.58256
G1 X99.824 Y123.184 E14.60445
G1 X99.972 Y122.873 E14.62851
G1 X100.162 Y122.61 E14.65117
G1 X100.395 Y122.384 E14.67384
G1 X100.668 Y122.198 E14.69691
G1 X100.972 Y122.06 E14.72023
G1 X101.292 Y121.979 E14.74329
G1 X101.615 Y121.953 E14.76592
G1 X101.955 Y121.988 E14.78979
G1 X102.256 Y122.071 E14.8116
G1 X102.57 Y122.223 E14.83597
G0 F3000 X102.849 Y122.682
G1 F900 X100.323 Y122.682 E15.0124
G1 F1800 E11.0124
G0 F3000 X101.346 Y122.157
G1 F1800 E15.0124
G1 F900 X101.346 Y125.532 E15.24813
G0 F3000 X100.744 Y125.349
G1 F900 X102.397 Y125.349 E15.36359
G1 F1800 E11.36359
G0 F3000 X102.397 Y125.349 Z0.35
G0 X101.156 Y93.264
G1 F1800 E15.36359
G1 F900 X99.822 Y92.118 Z0.25 E15.48662
G1 X100.148 Y90.387 E15.60965
G1 X101.809 Y89.806 E15.73256
G1 X103.143 Y90.95 E15.8553
G1 X102.818 Y92.682 E15.97839
G1 X101.156 Y93.264 E16.10138
G0 F3000 X101.346 Y93.028
G1 F900 X101.346 Y90.138 E16.30324
G1 F1800 E12.30324
G0 F3000 X100.256 Y90.678
G1 F1800 E16.30324
G1 F900 X102.58 Y90.678 E16.46556
G1 F1800 E12.46556
G0 F3000 X102.58 Y90.678 Z0.35
G0 X123.02 Y86.337
G1 F1800 E16.46556
G1 F900 X122.996 Y86.016 Z0.25 E16.48911
G1 X123.031 Y85.681 E16.51263
G1 X123.116 Y85.372 E16.53502
G1 X123.261 Y85.071 E16.55835
G1 X123.455 Y84.801 E16.58157
G1 X123.692 Y84.57 E16.60469
G1 X123.956 Y84.391 E16.62697
G1 X124.266 Y84.25 E16.65075
G1 X124.579 Y84.171 E16.6733
G1 X124.91 Y84.145 E16.69649
G1 X125.241 Y84.178 E16.71973
G1 X125.552 Y84.266 E16.7423
G1 X125.853 Y84.41 E16.76561
G1 X126.128 Y84.608 E16.78928
G1 X126.352 Y84.838 E16.8117
G1 X126.531 Y85.099 E16.83381
G1 X126.672 Y85.41 E16.85766
G1 X126.755 Y85.737 E16.88122
G1 X126.779 Y86.053 E16.90335
G1 X126.744 Y86.39 E16.92702
G1 X126.658 Y86.698 E16.94935
G1 X126.51 Y87.008 E16.97335
G1 X126.32 Y87.272 E16.99607
G1 X126.088 Y87.498 E17.01869
G1 X125.819 Y87.681 E17.04141
G1 X125.509 Y87.822 E17.0652
G1 X125.196 Y87.901 E17.08775
G1 X124.865 Y87.927 E17.11094
G1 X124.53 Y87.893 E17.13446
G1 X124.227 Y87.809 E17.15642
G1 X123.92 Y87.661 E17.18022
G1 X123.649 Y87.465 E17.20358
G1 X123.425 Y87.235 E17.22601
G1 X123.245 Y86.973 E17.24821
G1 X123.102 Y86.658 E17.27237
G1 X123.02 Y86.337 E17.29551
G1 F1800 E13.29551
G0 F3000 X123.316 Y85.344
G1 F1800 E17.29551
G1 F900 X126.467 Y85.344 E17.5156
G1 F1800 E13.5156
G0 F3000 X125.349 Y84.388
G1 F1800 E17.5156
G1 F900 X125.349 Y87.688 E17.74609
G1 F1800 E13.74609
G0 F3000 X125.349 Y87.688 Z0.35
G0 X77.101 Y85.663
G1 F1800 E17.74609
G1 F900 X77.067 Y85.997 Z0.25 E17.77056
G1 X76.981 Y86.305 E17.79289
G1 X76.833 Y86.613 E17.81676
G1 X76.64 Y86.88 E17.83977
G1 X76.408 Y87.107 E17.86244
G1 X76.142 Y87.288 E17.88492
G1 X75.834 Y87.429 E17.90857
G1 X75.514 Y87.509 E17.93161
G1 X75.191 Y87.535 E17.95425
G1 X74.851 Y87.5 E17.97812
G1 X74.549 Y87.416 E18.00001
G1 X74.238 Y87.268 E18.02407
G1 X73.975 Y87.078 E18.04673
G1 X73.749 Y86.844 E18.06945
G1 X73.562 Y86.572 E18.09251
G1 X73.424 Y86.268 E18.11583
G1 X73.342 Y85.943 E18.13924
G1 X73.318 Y85.623 E18.16165
G1 X73.353 Y85.285 E18.18539
G1 X73.436 Y84.982 E18.20733
G1 X73.586 Y84.673 E18.23132
G1 X73.775 Y84.412 E18.25383
G1 X74.015 Y84.177 E18.27729
G1 X74.277 Y83.998 E18.29945
G1 X74.585 Y83.858 E18.32308
G1 X74.905 Y83.778 E18.34612
G1 X75.228 Y83.752 E18.36876
G1 X75.568 Y83.787 E18.39263
G1 X75.869 Y83.87 E18.41444
G1 X76.183 Y84.022 E18.4388
G1 X76.438 Y84.206 E18.46077
G1 X76.675 Y84.448 E18.48443
G1 X76.856 Y84.713 E18.50684
G1 X76.995 Y85.019 E18.53032
G1 X77.077 Y85.343 E18.55366
G1 X77.101 Y85.663 E18.57607
G0 F3000 X76.889 Y85.344
G1 F900 X73.53 Y85.344 E18.81069
G1 F1800 E14.81069
G0 F3000 X74.676 Y84.003
G1 F1800 E18.81069
G1 F900 X74.676 Y87.278 E19.03943
G1 F1800 E15.03943
;MESH:left_gearbox_2_V1_1.STL
G0 F3000 X74.676 Y87.278 Z0.35
G0 X74.409 Y89.989
G0 X75.121 Y90.542
G0 X75.15 Y90.245
;TYPE:WALL-INNER
G1 F1800 E19.03943
G1 F900 X74.319 Y90.155 E19.09781
G1 X73.604 Y89.955 E19.14967
G1 X72.863 Y89.604 E19.20694
G1 X72.208 Y89.132 E19.26333
G1 X71.646 Y88.558 E19.31944
G1 X71.197 Y87.898 E19.37519
G1 X70.865 Y87.167 E19.43127
G1 X70.673 Y86.408 E19.48595
G1 X70.611 Y85.558 E19.54548
G1 X70.693 Y84.775 E19.60047
G1 X70.908 Y84.013 E19.65577
G1 X71.248 Y83.304 E19.71069
G1 X71.717 Y82.647 E19.76707
G1 X72.292 Y82.081 E19.82343
G1 X72.956 Y81.631 E19.87945
G1 X73.685 Y81.299 E19.9354
G1 X74.462 Y81.101 E19.99141
G1 X75.267 Y81.042 E20.04778
