;FLAVOR:Marlin
;TIME:1156
;Filament used: 0.763479m
;Layer height: 0.2
;MINX:83.028
;MINY:78.866
;MINZ:0.35
;MAXX:116.971
;MAXY:121.132
;MAXZ:4.95
;TARGET_MACHINE.NAME:XYZprinting da Vinci 1.0 Pro
;Generated with Cura_SteamEngine 5.6.0
M140 S45
M105
M190 S45
M104 S190
M105
M109 S190
M82 ;absolute extrusion mode
G28 ; home all axes
G1 Z15 F5000 ; lift nozzle
G92 E0
G1 F200 E3

G92 E0
G92 E0
G1 F1800 E-4
;LAYER_COUNT:24
;LAYER:0
M106 S255
;MESH:left_gear_cover_gearbox_V1.STL
G0 F3000 X102.741 Y84.417 Z0.35
;TYPE:WALL-INNER
G1 F1800 E0
G1 F900 X102.258 Y84.373 E0.03388
G1 X101.585 Y84.144 E0.08353
G1 F886.7 X100.97 Y83.65 E0.13945
G1 F861.2 X100.601 Y83.059 E0.19031
G1 F715.7 X100.452 Y82.889 E0.21016
G1 F652.2 X100.361 Y82.235 E0.27381
G1 F688.3 X100.51 Y81.357 E0.35514
G1 X100.874 Y80.701 E0.42365
G1 F689.7 X101.478 Y80.177 E0.49653
G1 F691 X102.23 Y79.887 E0.56986
G1 F692.3 X103.044 Y79.874 E0.64378
G1 F691 X103.797 Y80.143 E0.71652
G1 X104.173 Y80.405 E0.75821
G1 F689.7 X104.654 Y80.97 E0.82585
G1 X104.855 Y81.401 E0.8692
G1 F693.6 X104.983 Y82.065 E0.93048
G1 F685.7 X104.983 Y82.241 E0.94661
G1 F774.2 X104.794 Y82.919 E1.00376
G1 F900 X104.443 Y83.561 E1.05487
G1 X104.122 Y83.887 E1.08682
G1 X103.467 Y84.28 E1.14018
G1 X102.741 Y84.417 E1.19178
G0 F3000 X102.691 Y84.013
;TYPE:WALL-OUTER
G1 F900 X102.362 Y83.987 E1.21483
G1 X101.777 Y83.787 E1.25801
G1 X101.276 Y83.379 E1.30314
G1 F902.3 X100.936 Y82.812 E1.3492
G1 X100.823 Y82.18 E1.39393
G1 F900 X100.919 Y81.578 E1.43651
G1 X101.238 Y80.998 E1.48275
G1 X101.706 Y80.587 E1.52625
G1 X102.319 Y80.347 E1.57223
G1 X102.964 Y80.336 E1.61729
G1 X103.555 Y80.537 E1.66089
G1 X103.853 Y80.738 E1.686
G1 X104.252 Y81.197 E1.72848
G1 X104.412 Y81.529 E1.75422
G1 X104.529 Y82.133 E1.79719
G1 X104.421 Y82.775 E1.84266
G1 X104.107 Y83.334 E1.88744
G1 X103.878 Y83.57 E1.91041
G1 X103.307 Y83.904 E1.95661
G1 X102.691 Y84.013 E2.00031
G0 F3000 X102.492 Y83.998
G0 X102.444 Y84.697
G0 X92.188 Y94.851
G0 X91.74 Y95.514
G0 X91.414 Y96.245
G0 X91.219 Y97.022
G0 X91.163 Y97.821
G0 X91.246 Y98.617
G0 X91.816 Y100.106
G0 X92.287 Y100.755
G0 X93.526 Y101.758
G0 X94.257 Y102.084
G0 X95.91 Y102.388
G0 X95.838 Y101.692
G1 F900 X95.115 Y101.642 E2.05093
G1 X94.484 Y101.484 E2.09636
G1 X93.833 Y101.194 E2.14614
G1 X93.272 Y100.816 E2.19339
G1 X92.763 Y100.322 E2.24293
G1 X92.366 Y99.774 E2.29019
G1 X92.066 Y99.156 E2.33818
G1 X91.88 Y98.507 E2.38533
G1 X91.806 Y97.812 E2.43415
G1 X91.853 Y97.119 E2.48266
G1 X92.015 Y96.47 E2.52938
G1 X92.299 Y95.83 E2.57829
G1 X92.684 Y95.259 E2.62639
G1 X93.153 Y94.772 E2.67361
G1 X93.719 Y94.359 E2.72255
G1 X94.334 Y94.058 E2.77038
G1 X95.003 Y93.866 E2.81899
G1 X95.68 Y93.795 E2.86654
G1 X96.395 Y93.845 E2.9166
G1 X97.04 Y94.007 E2.96305
G1 X97.675 Y94.293 E3.01169
G1 X98.254 Y94.684 E3.06049
G1 X98.747 Y95.165 E3.1086
G1 X99.153 Y95.728 E3.15708
G1 X99.436 Y96.311 E3.20235
G1 X99.635 Y97.009 E3.25304
G1 X99.703 Y97.693 E3.30105
G1 X99.653 Y98.385 E3.34951
G1 X99.485 Y99.048 E3.39728
G1 X99.216 Y99.65 E3.44334
G1 X98.829 Y100.223 E3.49163
G1 X98.362 Y100.711 E3.53881
G1 X97.814 Y101.113 E3.58628
G1 X97.159 Y101.434 E3.63723
G1 X96.53 Y101.616 E3.68296
G1 X95.838 Y101.692 E3.73159
G0 F3000 X95.639 Y101.679
G0 X95.589 Y102.378
G0 X92.724 Y114.912
G0 X92.212 Y115.387
G1 F900 X92.523 Y115.731 E3.76398
G1 X95.416 Y120.908 E4.1782
G1 X95.586 Y121.054 E4.19385
G1 X95.763 Y121.122 E4.2071
G1 X95.955 Y121.125 E4.22051
G1 X96.13 Y121.064 E4.23345
G1 X96.278 Y120.944 E4.24676
G1 X96.378 Y120.777 E4.26036
G1 X96.415 Y120.567 E4.27525
G1 X96.109 Y117.967 E4.4581
G1 X96.015 Y115.424 E4.63584
G1 X96.127 Y112.872 E4.81426
G1 X96.443 Y110.371 E4.99034
G1 X96.968 Y107.857 E5.16972
G1 X97.687 Y105.422 E5.34705
G1 X98.605 Y103.049 E5.52477
G1 X99.725 Y100.732 E5.70452
G1 X100.974 Y98.602 E5.87698
G1 X102.447 Y96.497 E6.05643
G1 X104.075 Y94.533 E6.23461
G1 X105.864 Y92.701 E6.41346
G1 X107.787 Y91.029 E6.59144
G1 X109.834 Y89.522 E6.76899
G1 X112.004 Y88.18 E6.9472
G1 X114.271 Y87.02 E7.12506
G1 X116.665 Y86.033 E7.30593
G1 X116.902 Y85.802 E7.32904
G1 X116.963 Y85.635 E7.34146
G1 X116.962 Y85.442 E7.35494
G1 X116.897 Y85.265 E7.36811
G1 X116.778 Y85.122 E7.38111
G1 X116.489 Y84.99 E7.4033
G1 X108.171 Y84.989 E7.98428
G1 X107.788 Y84.952 E8.01116
G1 X107.459 Y84.864 E8.03494
G1 X107.096 Y84.7 E8.06276
G1 X106.784 Y84.486 E8.08919
G1 X106.504 Y84.207 E8.1168
G1 X106.3 Y83.924 E8.14116
G1 X106.124 Y83.555 E8.16972
G1 X105.991 Y83.082 E8.20404
G1 X105.973 Y82.116 E8.27152
G1 X105.911 Y81.531 E8.31261
G1 X105.754 Y80.985 E8.35229
G1 X105.499 Y80.462 E8.39293
G1 X105.167 Y80.003 E8.4325
G1 X104.752 Y79.603 E8.47276
G1 X104.277 Y79.281 E8.51284
G1 X103.757 Y79.049 E8.55261
G1 X103.188 Y78.908 E8.59355
G1 X102.621 Y78.866 E8.63327
G1 X102.04 Y78.927 E8.67407
G1 X101.495 Y79.084 E8.71368
G1 X100.971 Y79.339 E8.75439
G1 X100.512 Y79.671 E8.79395
G1 X100.112 Y80.086 E8.83421
G1 X99.791 Y80.562 E8.87431
G1 X99.558 Y81.081 E8.91405
G1 X99.415 Y81.655 E8.95537
G1 X99.375 Y82.233 E8.99583
G1 X99.387 Y82.962 E9.04676
G1 X99.29 Y83.424 E9.07973
G1 X99.139 Y83.796 E9.10777
G1 X98.758 Y84.327 E9.15342
G1 X98.501 Y84.552 E9.17728
G1 X97.894 Y84.872 E9.22521
G1 X97.416 Y84.987 E9.25955
G1 X95.828 Y84.989 E9.37046
G1 X94.185 Y85.095 E9.48546
G1 X92.588 Y85.404 E9.59907
G1 X91.031 Y85.918 E9.71359
G1 X89.552 Y86.628 E9.82818
G1 X88.18 Y87.518 E9.94241
G1 X86.934 Y88.574 E10.05649
G1 X85.841 Y89.774 E10.16986
G1 X84.893 Y91.12 E10.28485
G1 X84.133 Y92.566 E10.39895
G1 X83.566 Y94.087 E10.51233
G1 X83.192 Y95.69 E10.6273
G1 X83.028 Y97.318 E10.74158
G1 X83.071 Y98.95 E10.85561
G1 X83.321 Y100.553 E10.96893
G1 X83.779 Y102.132 E11.08376
G1 X84.427 Y103.623 E11.19731
G1 X85.271 Y105.037 E11.31233
G1 X86.484 Y106.593 E11.45013
G1 X86.664 Y106.931 E11.47688
G1 X86.779 Y107.301 E11.50394
G1 X86.826 Y107.938 E11.54856
G1 X86.769 Y108.323 E11.57574
G1 X86.499 Y108.951 E11.62348
G1 X86.254 Y109.272 E11.65169
G1 F902.3 X85.902 Y109.597 E11.68507
G1 X85.084 Y110.054 E11.75035
G1 F900 X84.602 Y110.381 E11.79103
G1 X84.194 Y110.78 E11.83089
G1 X83.859 Y111.243 E11.87081
G1 X83.603 Y111.775 E11.91205
G1 X83.45 Y112.313 E11.95111
G1 X83.39 Y112.895 E11.99198
G1 X83.432 Y113.456 E12.03127
G1 X83.577 Y114.028 E12.07249
G1 X83.811 Y114.549 E12.11238
G1 X84.133 Y115.024 E12.15246
G1 X84.531 Y115.432 E12.19227
G1 X84.994 Y115.767 E12.23219
G1 X85.526 Y116.023 E12.27342
G1 X86.064 Y116.176 E12.31249
G1 X86.646 Y116.236 E12.35336
G1 X87.213 Y116.192 E12.39308
G1 X87.781 Y116.049 E12.43399
G1 X88.337 Y115.796 E12.47666
G1 X89.863 Y114.95 E12.59853
G1 X90.301 Y114.83 E12.63025
G1 X90.979 Y114.808 E12.67763
G1 X91.297 Y114.873 E12.7003
G1 X91.925 Y115.159 E12.74849
G1 X92.212 Y115.387 E12.7741
G0 F3000 X92.346 Y115.535
G0 X92.86 Y115.058
G0 X91.513 Y114.264
G0 X90.186 Y114.195
G0 X88.514 Y114.961
G0 X86.863 Y115.475
G0 X86.734 Y114.788
G1 F900 X86.096 Y114.69 E12.81918
G1 X85.53 Y114.38 E12.86425
G1 X85.108 Y113.899 E12.90895
G1 X84.952 Y113.577 E12.93394
G1 X84.84 Y112.983 E12.97616
G1 X84.86 Y112.656 E12.99904
G1 X85.064 Y112.051 E13.04364
G1 X85.468 Y111.547 E13.08875
G1 X85.759 Y111.337 E13.11382
G1 F902.3 X86.332 Y111.118 E13.15655
G1 X86.984 Y111.108 E13.20199
G1 F900 X87.554 Y111.304 E13.24409
G1 X87.855 Y111.5 E13.26917
G1 X88.27 Y111.975 E13.31323
G1 X88.422 Y112.29 E13.33766
G1 X88.542 Y112.904 E13.38136
G1 X88.441 Y113.529 E13.42558
G1 X88.127 Y114.106 E13.47146
G1 X87.635 Y114.528 E13.51673
G1 X87.328 Y114.674 E13.54048
G1 X86.734 Y114.788 E13.58272
G0 F3000 X86.537 Y114.758
G0 X86.707 Y115.258
;TYPE:WALL-INNER
G1 F689.7 X85.915 Y115.123 E13.65595
G1 F691 X85.211 Y114.725 E13.72953
G1 X84.727 Y114.158 E13.79735
G1 F689.7 X84.512 Y113.713 E13.84239
G1 X84.381 Y113.017 E13.90695
G1 F688.3 X84.422 Y112.495 E13.95477
G1 F685.7 X84.67 Y111.795 E14.02285
G1 F688.3 X85.147 Y111.218 E14.09121
G1 X85.572 Y110.913 E14.13899
G1 F656.9 X86.129 Y110.677 E14.19687
G1 F727.3 X86.364 Y110.707 E14.21735
G1 F867.5 X87.03 Y110.708 E14.26561
G1 F888.9 X87.684 Y110.926 E14.31436
G1 F900 X88.136 Y111.209 E14.35161
G1 X88.601 Y111.75 E14.40144
G1 X88.811 Y112.18 E14.43486
G1 X88.948 Y112.898 E14.48592
G1 F865.4 X88.819 Y113.686 E14.54392
G1 F800 X88.467 Y114.316 E14.60063
G1 F718.6 X87.977 Y114.856 E14.66442
G1 F681.8 X87.466 Y115.115 E14.71724
G1 F689.7 X86.707 Y115.258 E14.78764
G0 F3000 X86.67 Y115.49
G0 X88.019 Y115.242
G0 X89.595 Y114.363
G0 X91.01 Y114.164
G0 X92.624 Y114.82
G0 X92.439 Y115.053
G1 F900 X92.833 Y115.466 E14.8275
G1 X95.731 Y120.651 E15.24238
G1 X95.89 Y120.724 E15.2546
G1 X95.971 Y120.677 E15.26115
G1 X96.01 Y120.555 E15.27009
G1 X95.709 Y117.982 E15.45103
G1 X95.615 Y115.406 E15.63108
G1 X95.73 Y112.822 E15.81174
G1 X96.046 Y110.321 E15.98781
G1 X96.578 Y107.767 E16.17003
G1 X97.304 Y105.305 E16.34931
G1 X98.245 Y102.875 E16.53132
G1 X99.029 Y101.253 E16.65715
G1 F751.6 X99.24 Y100.636 E16.71169
G1 F670.4 X99.264 Y100.487 E16.72584
G1 F786 X98.571 Y101.056 E16.79755
G1 F900 X98.007 Y101.468 E16.84634
G1 X97.299 Y101.809 E16.90122
G1 X96.592 Y102.014 E16.95264
G1 X95.833 Y102.095 E17.00595
G1 X95.101 Y102.044 E17.0572
G1 X94.338 Y101.86 E17.11202
G1 X93.629 Y101.538 E17.16641
G1 X93.003 Y101.113 E17.21926
G1 X92.451 Y100.573 E17.2732
G1 X92.022 Y99.979 E17.32438
G1 X91.689 Y99.291 E17.37776
G1 X91.481 Y98.55 E17.43152
G1 X91.406 Y97.822 E17.48264
G1 X91.458 Y97.055 E17.53633
G1 X91.646 Y96.311 E17.58993
G1 X91.945 Y95.644 E17.64098
G1 X92.372 Y95.009 E17.69443
G1 X92.9 Y94.458 E17.74773
G1 X93.501 Y94.023 E17.79955
G1 X94.183 Y93.688 E17.85263
G1 X94.927 Y93.473 E17.90672
G1 X95.654 Y93.396 E17.95778
G1 X96.442 Y93.444 E18.01292
G1 X97.164 Y93.627 E18.06494
G1 X97.849 Y93.932 E18.11732
G1 X98.524 Y94.389 E18.17425
G1 X99.041 Y94.889 E18.22449
G1 X99.492 Y95.51 E18.27809
G1 X99.818 Y96.181 E18.3302
G1 X100.028 Y96.917 E18.38366
G1 X100.106 Y97.675 E18.43688
G1 X100.057 Y98.377 E18.48603
G1 F774.2 X99.952 Y99.28 E18.55985
G1 F649.8 X100.073 Y99.174 E18.57541
G1 F737.7 X100.477 Y98.659 E18.63119
G1 F900 X100.655 Y98.36 E18.65549
G1 X102.139 Y96.242 E18.83612
G1 X103.8 Y94.241 E19.01776
G1 X105.579 Y92.419 E19.19562
G1 X107.545 Y90.71 E19.37757
G1 X109.624 Y89.182 E19.55778
G1 X111.822 Y87.824 E19.73824
G1 X114.118 Y86.65 E19.91836
G1 X116.441 Y85.693 E20.09384
G1 X116.557 Y85.58 E20.10515
G1 X116.518 Y85.434 E20.11571
G1 X116.437 Y85.39 E20.12214
G1 X108.135 Y85.387 E20.70201
G1 X107.684 Y85.338 E20.73369
G1 X107.26 Y85.216 E20.76451
G1 X106.903 Y85.05 E20.79201
G1 X106.534 Y84.798 E20.82322
G1 X106.18 Y84.441 E20.85834
G1 X105.93 Y84.083 E20.88883
G1 X105.739 Y83.665 E20.92093
G1 X105.595 Y83.144 E20.95869
G1 X105.586 Y82.852 E20.97909
G1 F774.2 X105.511 Y82.278 E21.0261
G1 F681.8 X105.512 Y82.155 E21.03744
G1 F679.2 X105.451 Y81.621 E21.08718
G1 F680.5 X105.322 Y81.151 E21.1322
G1 F688.3 X105.102 Y80.7 E21.17802
G1 F679.2 X104.812 Y80.311 E21.22293
G1 F680.5 X104.46 Y79.962 E21.26871
G1 F688.3 X104.052 Y79.686 E21.3137
G1 F680.5 X103.604 Y79.493 E21.35876
G1 F681.8 X103.115 Y79.364 E21.40539
G1 X102.628 Y79.335 E21.45037
G1 X102.128 Y79.382 E21.49667
G1 X101.663 Y79.522 E21.54144
G1 F680.5 X101.209 Y79.736 E21.5878
G1 X100.82 Y80.026 E21.63262
G1 F679.2 X100.472 Y80.377 E21.67836
G1 X100.201 Y80.79 E21.72408
G1 F680.5 X99.996 Y81.232 E21.76909
G1 F681.8 X99.879 Y81.728 E21.81607
G1 F680.5 X99.838 Y82.255 E21.8649
G1 F652.2 X99.877 Y82.954 E21.93238
G1 F715.7 X99.765 Y83.192 E21.95548
G1 F873.8 X99.491 Y83.988 E22.01604
G1 F900 X99.049 Y84.601 E22.06883
G1 X98.689 Y84.909 E22.10192
G1 X98.018 Y85.258 E22.15475
G1 X97.45 Y85.389 E22.19546
G1 X95.841 Y85.389 E22.30784
G1 X94.236 Y85.493 E22.42018
G1 X92.689 Y85.792 E22.53023
G1 X91.181 Y86.29 E22.64116
G1 X89.748 Y86.978 E22.75218
G1 X88.419 Y87.84 E22.86283
G1 X87.212 Y88.862 E22.97329
G1 X86.153 Y90.025 E23.08315
G1 X85.235 Y91.329 E23.19454
G1 X84.499 Y92.73 E23.30508
G1 X83.95 Y94.203 E23.41487
G1 X83.588 Y95.756 E23.52625
G1 X83.428 Y97.333 E23.63697
G1 X83.47 Y98.914 E23.74743
G1 X83.712 Y100.466 E23.85714
G1 X84.156 Y101.996 E23.96842
G1 X84.784 Y103.44 E24.0784
G1 X85.602 Y104.811 E24.18991
G1 X86.811 Y106.363 E24.32732
G1 X87.048 Y106.817 E24.36309
G1 X87.171 Y107.212 E24.39199
G1 X87.23 Y107.972 E24.44523
G1 X87.152 Y108.456 E24.47947
G1 X86.833 Y109.184 E24.53499
G1 X86.53 Y109.562 E24.56882
G1 F814.5 X85.93 Y110.14 E24.63312
G1 F712.9 X85.328 Y110.449 E24.69279
G1 F685.7 X84.895 Y110.741 E24.74067
G1 F679.2 X84.549 Y111.086 E24.78589
G1 F680.5 X84.258 Y111.481 E24.83121
G1 X84.042 Y111.941 E24.87815
G1 X83.906 Y112.401 E24.92246
G1 F687 X83.854 Y112.902 E24.96855
G1 F679.2 X83.894 Y113.381 E25.01303
G1 F680.5 X84.014 Y113.876 E25.06008
G1 F688.3 X84.216 Y114.323 E25.10488
G1 F680.5 X84.497 Y114.727 E25.15033
G1 X84.834 Y115.081 E25.19548
G1 X85.234 Y115.364 E25.24074
G1 X85.69 Y115.59 E25.28775
G1 F681.8 X86.153 Y115.715 E25.33197
G1 X86.652 Y115.772 E25.37827
G1 F680.5 X87.138 Y115.73 E25.42333
G1 F681.8 X87.629 Y115.611 E25.46991
G1 F688.3 X88.112 Y115.392 E25.51834
G1 F680.5 X88.282 Y115.292 E25.53656
G1 F770.9 X88.812 Y115.072 E25.58336
G1 F900 X89.689 Y114.582 E25.65353
G1 X90.265 Y114.432 E25.6951
G1 X90.993 Y114.404 E25.74598
G1 X91.437 Y114.493 E25.77761
G1 X92.086 Y114.791 E25.82749
G1 X92.439 Y115.053 E25.8582
G0 F3000 X92.624 Y114.82
G0 X97.478 Y104.002
G0 X98.892 Y101.047
G0 X99.261 Y100.507
G1 F592.1 X99.642 Y99.9 E25.93428
G1 F577.8 X99.97 Y99.264 E26.01213
G0 F3000 X100.205 Y98.698
G0 X100.346 Y97.664
G0 X100.044 Y96.101
G0 X99.694 Y95.381
G0 X99.223 Y94.732
G0 X97.984 Y93.729
G0 X97.253 Y93.403
G0 X96.476 Y93.208
G0 X94.882 Y93.235
G0 X94.112 Y93.455
G0 X92.745 Y94.276
G0 X92.188 Y94.851
G0 X91.74 Y95.514
G0 X91.414 Y96.245
G0 X91.219 Y97.022
G0 X92.678 Y114.757
;TYPE:SKIN
G1 F900 X92.32 Y114.486 E26.04349
G1 X91.541 Y114.126 E26.10343
G1 X91.046 Y114.026 E26.1387
G1 X90.237 Y114.053 E26.19524
G1 X89.536 Y114.231 E26.24576
G1 X88.646 Y114.73 E26.31702
G1 X88.602 Y114.743 E26.32023
G1 X88.825 Y114.456 E26.34561
G1 X89.183 Y113.805 E26.39751
G1 X89.335 Y112.889 E26.46236
G1 X89.17 Y112.053 E26.52188
G1 X88.932 Y111.549 E26.56081
G1 X88.381 Y110.918 E26.61932
G1 X87.844 Y110.583 E26.66353
G1 X87.126 Y110.331 E26.71668
G1 X86.297 Y110.315 E26.77459
G1 X86.791 Y109.84 E26.82246
G1 X87.165 Y109.38 E26.86387
G1 X87.517 Y108.574 E26.9253
G1 X87.608 Y108.003 E26.96568
G1 X87.543 Y107.134 E27.02655
G1 X87.392 Y106.65 E27.06196
G1 X87.155 Y106.193 E27.09792
G1 X85.914 Y104.591 E27.23946
G1 X85.121 Y103.261 E27.34761
G1 X84.516 Y101.869 E27.45362
G1 X84.082 Y100.377 E27.56215
G1 X83.85 Y98.885 E27.66762
G1 X83.81 Y97.352 E27.77473
G1 X83.962 Y95.824 E27.88198
G1 X84.317 Y94.307 E27.9908
G1 X84.846 Y92.891 E28.09638
G1 X85.558 Y91.534 E28.20341
G1 X86.455 Y90.259 E28.3123
G1 X87.472 Y89.141 E28.41786
G1 X88.642 Y88.15 E28.52496
G1 X89.935 Y87.311 E28.63261
G1 X91.324 Y86.643 E28.74027
G1 X92.791 Y86.16 E28.84814
G1 X94.281 Y85.872 E28.95414
G1 X95.856 Y85.769 E29.06438
G1 X97.507 Y85.766 E29.1797
G1 X98.157 Y85.614 E29.22632
G1 X98.896 Y85.232 E29.28443
G1 X99.351 Y84.841 E29.32633
G1 X99.824 Y84.167 E29.38384
G1 X100.135 Y83.323 E29.44667
G1 X100.203 Y83.221 E29.45523
G1 X100.285 Y83.293 E29.46285
G1 X100.721 Y83.938 E29.51723
G1 X101.409 Y84.485 E29.57862
G1 X102.194 Y84.749 E29.63647
G1 X102.764 Y84.799 E29.67643
G1 X103.6 Y84.644 E29.73582
G1 X104.374 Y84.173 E29.7991
G1 X104.748 Y83.792 E29.83639
G1 X105.128 Y83.113 E29.89074
G1 X105.203 Y82.885 E29.9075
G1 X105.225 Y83.227 E29.93144
G1 X105.383 Y83.794 E29.97255
G1 X105.605 Y84.281 E30.00994
G1 X105.887 Y84.685 E30.04435
G1 X106.291 Y85.092 E30.0844
G1 X106.736 Y85.392 E30.12189
G1 X107.126 Y85.572 E30.15189
G1 X107.58 Y85.704 E30.18491
G1 X108.114 Y85.767 E30.22247
G1 X115.253 Y85.771 E30.7211
G1 X113.977 Y86.295 E30.81745
G1 X111.651 Y87.484 E30.99991
G1 X109.427 Y88.857 E31.18246
G1 X107.321 Y90.403 E31.36494
G1 X105.318 Y92.14 E31.55012
G1 X103.481 Y94.027 E31.73406
G1 X101.83 Y96.02 E31.91482
G1 X100.467 Y97.968 E32.08088
G1 X100.486 Y97.653 E32.10292
