;FLAVOR:Marlin
;TIME:9682
;Filament used: 6.94137m
;Layer height: 0.2
;MINX:73.282
;MINY:81.586
;MINZ:0.25
;MAXX:126.718
;MAXY:118.4
;MAXZ:34.75
;TARGET_MACHINE.NAME:XYZprinting da Vinci 1.0 Pro
;Generated with Cura_SteamEngine 5.6.0
M140 S45
M105
M190 S45
M104 S190
M105
M109 S190
M82 ;absolute extrusion mode
G28 ; home all axes
G1 Z15 F5000 ; lift nozzle
G92 E0
G1 F200 E3

G92 E0
G92 E0
G1 F1800 E-4
;LAYER_COUNT:173
;LAYER:0
M106 S255
G0 F3000 X92.763 Y91.853 Z0.35
;TYPE:SKIRT
G1 F1800 E0
G1 X93.062 Y91.634 E0.02589
G1 X93.383 Y91.474 E0.05094
G1 X93.731 Y91.373 E0.07625
G1 X94.099 Y91.333 E0.1021
G1 X94.468 Y91.357 E0.12793
G1 X94.818 Y91.442 E0.15309
G1 X95.154 Y91.59 E0.17873
G1 X95.459 Y91.795 E0.2044
G1 X95.713 Y92.037 E0.2289
G1 X95.944 Y92.353 E0.25624
G1 X96.1 Y92.666 E0.28067
G1 X96.201 Y93.014 E0.30598
G1 X96.241 Y93.379 E0.33163
G1 X96.217 Y93.753 E0.3578
G1 X96.133 Y94.099 E0.38267
G1 X95.983 Y94.438 E0.40856
G1 X95.782 Y94.741 E0.43396
G1 X95.532 Y95.001 E0.45915
G1 X95.23 Y95.224 E0.48537
G1 X94.911 Y95.379 E0.51015
G1 X94.554 Y95.484 E0.53614
G1 X94.193 Y95.524 E0.56151
G1 X93.825 Y95.5 E0.58726
G1 X93.475 Y95.415 E0.61242
G1 X93.134 Y95.265 E0.63844
G1 X92.828 Y95.06 E0.66417
G1 X92.575 Y94.817 E0.68867
G1 X92.351 Y94.515 E0.71493
G1 X92.195 Y94.194 E0.73986
G1 X92.088 Y93.834 E0.76609
G1 X92.049 Y93.472 E0.79152
G1 X92.074 Y93.107 E0.81708
G1 X92.159 Y92.756 E0.8423
G1 X92.307 Y92.42 E0.86794
G1 X92.512 Y92.115 E0.89361
G1 X92.763 Y91.853 E0.91895
G0 F3000 X93.027 Y92.157
G1 F1800 X93.273 Y91.976 E0.94029
G1 X93.531 Y91.847 E0.96043
G1 X93.811 Y91.766 E0.98079
G1 X94.105 Y91.734 E1.00145
G1 X94.404 Y91.754 E1.02238
G1 X94.692 Y91.824 E1.04308
G1 X94.955 Y91.94 E1.06316
G1 X95.213 Y92.112 E1.08482
G1 X95.41 Y92.3 E1.10384
G1 X95.6 Y92.561 E1.12638
G1 X95.727 Y92.814 E1.14616
G1 X95.808 Y93.094 E1.16652
G1 X95.84 Y93.388 E1.18717
G1 X95.82 Y93.689 E1.20824
G1 X95.752 Y93.971 E1.2285
G1 X95.629 Y94.248 E1.24967
G1 X95.47 Y94.487 E1.26972
G1 X95.265 Y94.702 E1.29047
G1 X95.024 Y94.879 E1.31136
G1 X94.766 Y95.004 E1.33138
G1 X94.47 Y95.091 E1.35293
G1 X94.186 Y95.123 E1.37289
G1 X93.889 Y95.103 E1.39368
G1 X93.601 Y95.033 E1.41438
G1 X93.333 Y94.915 E1.43484
G1 X93.078 Y94.745 E1.45624
G1 X92.874 Y94.55 E1.47595
G1 X92.693 Y94.305 E1.49723
G1 X92.57 Y94.051 E1.51694
G1 X92.482 Y93.757 E1.53838
G1 X92.451 Y93.462 E1.55909
G1 X92.471 Y93.17 E1.57954
G1 X92.54 Y92.883 E1.60015
G1 X92.657 Y92.619 E1.62032
G1 X92.827 Y92.365 E1.64167
G1 X93.027 Y92.157 E1.66183
G0 F3000 X93.292 Y92.457
G1 F1800 X93.479 Y92.32 E1.67802
G1 X93.678 Y92.221 E1.69354
G1 X93.885 Y92.161 E1.70859
G1 X94.117 Y92.136 E1.72489
G1 X94.341 Y92.15 E1.74057
G1 X94.565 Y92.205 E1.75668
G1 X94.764 Y92.292 E1.77185
G1 X94.958 Y92.422 E1.78816
G1 X95.109 Y92.566 E1.80273
G1 X95.258 Y92.77 E1.82038
G1 X95.353 Y92.961 E1.83528
G1 X95.413 Y93.168 E1.85033
G1 X95.438 Y93.4 E1.86663
G1 X95.424 Y93.627 E1.88251
G1 X95.371 Y93.843 E1.89805
G1 X95.278 Y94.054 E1.91415
G1 X95.157 Y94.235 E1.92936
G1 X94.998 Y94.402 E1.94547
G1 X94.815 Y94.536 E1.96131
G1 X94.621 Y94.63 E1.97637
G1 X94.397 Y94.696 E1.99268
G1 X94.174 Y94.721 E2.00835
G1 X93.952 Y94.707 E2.02389
G1 X93.728 Y94.652 E2.04
G1 X93.523 Y94.562 E2.05563
G1 X93.334 Y94.435 E2.07154
G1 X93.176 Y94.285 E2.08676
G1 X93.037 Y94.096 E2.10314
G1 X92.942 Y93.901 E2.11829
G1 X92.875 Y93.677 E2.13462
G1 X92.852 Y93.459 E2.14993
G1 X92.867 Y93.233 E2.16575
G1 X92.921 Y93.01 E2.18178
G1 X93.009 Y92.81 E2.19704
G1 X93.138 Y92.617 E2.21326
G1 X93.292 Y92.457 E2.22877
G1 F1800 E-1.77123
G0 F3000 X102.848 Y87.843
G1 F1800 E2.22877
G1 X102.724 Y87.499 E2.25431
G1 X102.664 Y87.147 E2.27925
G1 X102.664 Y86.786 E2.30446
G1 X102.727 Y86.43 E2.32971
G1 X102.851 Y86.088 E2.35512
G1 X103.024 Y85.785 E2.37949
G1 X103.26 Y85.497 E2.4055
G1 X103.534 Y85.262 E2.43071
G1 X103.84 Y85.081 E2.45554
G1 X104.183 Y84.95 E2.48119
G1 X104.528 Y84.884 E2.50572
G1 X104.892 Y84.877 E2.53115
G1 X105.248 Y84.931 E2.5563
G1 X105.599 Y85.049 E2.58217
G1 X105.904 Y85.216 E2.60645
G1 X106.19 Y85.441 E2.63187
G1 X106.431 Y85.712 E2.6572
G1 X106.622 Y86.019 E2.68246
G1 X106.759 Y86.355 E2.7078
G1 X106.834 Y86.699 E2.73239
G1 X106.847 Y87.065 E2.75797
G1 X106.801 Y87.419 E2.7829
G1 X106.691 Y87.767 E2.8084
G1 X106.526 Y88.086 E2.83348
G1 X106.307 Y88.376 E2.85886
G1 X106.043 Y88.621 E2.88402
G1 X105.745 Y88.816 E2.90889
G1 X104.926 Y89.167 E2.97113
G1 X104.833 Y89.25 E2.97984
G1 X104.805 Y89.346 E2.98682
G1 X104.782 Y90.373 E3.05857
G1 X104.308 Y90.252 E3.09274
G1 X104.273 Y90.246 E3.09522
G1 X103.701 Y90.206 E3.13527
G1 X103.988 Y89.22 E3.207
G1 X103.984 Y89.095 E3.21573
G1 X103.926 Y89.012 E3.2228
G1 X103.252 Y88.432 E3.28491
G1 X103.022 Y88.152 E3.31022
G1 X102.848 Y87.843 E3.33499
G0 F3000 X103.213 Y87.674
G1 F1800 X103.111 Y87.392 E3.35594
G1 X103.064 Y87.115 E3.37556
G1 X103.064 Y86.822 E3.39602
G1 X103.116 Y86.532 E3.4166
G1 X103.215 Y86.257 E3.43702
G1 X103.357 Y86.009 E3.45698
G1 X103.547 Y85.777 E3.47792
G1 X103.768 Y85.589 E3.49819
G1 X104.017 Y85.441 E3.51842
G1 X104.289 Y85.337 E3.53876
G1 X104.57 Y85.283 E3.55875
G1 X104.869 Y85.278 E3.57963
G1 X105.152 Y85.321 E3.59963
G1 X105.437 Y85.416 E3.62061
G1 X105.682 Y85.55 E3.64011
G1 X105.918 Y85.736 E3.6611
G1 X106.108 Y85.949 E3.68104
G1 X106.263 Y86.199 E3.70158
G1 X106.376 Y86.476 E3.72248
G1 X106.435 Y86.749 E3.74199
G1 X106.446 Y87.044 E3.76261
G1 X106.407 Y87.338 E3.78332
G1 X106.321 Y87.612 E3.80338
G1 X106.187 Y87.872 E3.82381
G1 X106.01 Y88.106 E3.8443
G1 X105.797 Y88.303 E3.86457
G1 X105.555 Y88.463 E3.88483
G1 X104.769 Y88.799 E3.94453
G1 X104.587 Y88.92 E3.9598
G1 X104.461 Y89.098 E3.97503
G1 X104.405 Y89.337 E3.99218
G1 X104.393 Y89.863 E4.02893
G1 X104.301 Y89.847 E4.03545
G1 X104.224 Y89.842 E4.04084
G1 X104.372 Y89.331 E4.078
G1 X104.394 Y89.114 E4.09323
G1 X104.337 Y88.904 E4.10843
G1 X104.187 Y88.709 E4.12561
G1 X103.54 Y88.152 E4.18524
G1 X103.357 Y87.929 E4.20539
G1 X103.213 Y87.674 E4.22585
G0 F3000 X103.578 Y87.509
G1 F1800 X103.501 Y87.295 E4.24173
G1 X103.464 Y87.077 E4.25718
G1 X103.464 Y86.858 E4.27247
G1 X103.503 Y86.637 E4.28815
G1 X103.58 Y86.423 E4.30403
G1 X103.687 Y86.237 E4.31902
G1 X103.832 Y86.061 E4.33495
G1 X104 Y85.916 E4.35045
G1 X104.191 Y85.803 E4.36595
G1 X104.401 Y85.723 E4.38164
G1 X104.611 Y85.683 E4.39658
G1 X104.839 Y85.679 E4.4125
G1 X105.063 Y85.712 E4.42832
G1 X105.274 Y85.783 E4.44387
G1 X105.464 Y85.887 E4.459
G1 X105.64 Y86.026 E4.47466
G1 X105.788 Y86.192 E4.49019
G1 X105.905 Y86.379 E4.5056
G1 X105.991 Y86.592 E4.52164
G1 X106.037 Y86.804 E4.5368
G1 X106.046 Y87.026 E4.55231
G1 X106.017 Y87.246 E4.56781
G1 X105.948 Y87.464 E4.58379
G1 X105.849 Y87.656 E4.59887
G1 X105.712 Y87.837 E4.61473
G1 X105.551 Y87.987 E4.6301
G1 X105.363 Y88.11 E4.64579
G1 X104.611 Y88.432 E4.70293
G1 X104.519 Y88.488 E4.71045
G1 X104.448 Y88.406 E4.71803
G1 X103.827 Y87.872 E4.77523
G1 X103.686 Y87.699 E4.79082
G1 X103.578 Y87.509 E4.80608
G1 F1800 E0.80608
G0 F3000 X111.283 Y95.017
G1 F1800 E4.80608
G1 X111.543 Y94.745 E4.83237
G1 X111.842 Y94.526 E4.85825
G1 X112.163 Y94.366 E4.8833
G1 X112.508 Y94.266 E4.90839
G1 X112.877 Y94.226 E4.93432
G1 X113.248 Y94.25 E4.96028
G1 X113.595 Y94.334 E4.98522
G1 X113.935 Y94.485 E5.01121
G1 X114.231 Y94.683 E5.03608
G1 X114.503 Y94.943 E5.06236
G1 X114.716 Y95.232 E5.08744
G1 X114.88 Y95.564 E5.1133
G1 X114.979 Y95.905 E5.1381
G1 X115.019 Y96.271 E5.16382
G1 X114.995 Y96.645 E5.18999
G1 X114.911 Y96.992 E5.21493
G1 X114.761 Y97.331 E5.24082
G1 X114.56 Y97.634 E5.26622
G1 X114.306 Y97.898 E5.29181
G1 X114.014 Y98.114 E5.31718
G1 X113.689 Y98.272 E5.34242
G1 X113.33 Y98.379 E5.36858
G1 X112.968 Y98.418 E5.39401
G1 X112.605 Y98.393 E5.41943
G1 X112.25 Y98.306 E5.44496
G1 X111.917 Y98.161 E5.47032
G1 X111.612 Y97.954 E5.49607
G1 X111.349 Y97.704 E5.52141
G1 X111.13 Y97.405 E5.5473
G1 X110.97 Y97.084 E5.57235
G1 X110.869 Y96.736 E5.59766
G1 X110.829 Y96.366 E5.62366
G1 X110.853 Y95.996 E5.64955
G1 X110.937 Y95.652 E5.67429
G1 X111.091 Y95.303 E5.70093
G1 X111.283 Y95.017 E5.72499
G0 F3000 X111.594 Y95.27
G1 F1800 X111.809 Y95.046 E5.74668
G1 X112.05 Y94.87 E5.76752
G1 X112.307 Y94.741 E5.7876
G1 X112.593 Y94.659 E5.80839
G1 X112.883 Y94.627 E5.82876
G1 X113.186 Y94.647 E5.84997
G1 X113.465 Y94.715 E5.87003
G1 X113.739 Y94.836 E5.89095
G1 X113.982 Y94.998 E5.91135
G1 X114.204 Y95.21 E5.93279
G1 X114.371 Y95.438 E5.95253
G1 X114.505 Y95.708 E5.97358
G1 X114.586 Y95.991 E5.99414
G1 X114.618 Y96.28 E6.01445
G1 X114.598 Y96.583 E6.03566
G1 X114.53 Y96.862 E6.05572
G1 X114.407 Y97.141 E6.07702
G1 X114.248 Y97.38 E6.09707
G1 X114.039 Y97.598 E6.11816
G1 X113.804 Y97.772 E6.13858
G1 X113.546 Y97.897 E6.15861
G1 X113.253 Y97.985 E6.17998
G1 X112.958 Y98.016 E6.20069
G1 X112.67 Y97.997 E6.22085
G1 X112.376 Y97.924 E6.24201
G1 X112.112 Y97.81 E6.2621
G1 X111.861 Y97.639 E6.28331
G1 X111.652 Y97.441 E6.30342
G1 X111.474 Y97.198 E6.32446
G1 X111.343 Y96.936 E6.34492
G1 X111.262 Y96.656 E6.36528
G1 X111.23 Y96.36 E6.38607
G1 X111.25 Y96.06 E6.40707
G1 X111.319 Y95.778 E6.42735
G1 X111.443 Y95.496 E6.44887
G1 X111.594 Y95.27 E6.46785
G0 F3000 X111.908 Y95.52
G1 F1800 X112.071 Y95.349 E6.48435
G1 X112.262 Y95.21 E6.50085
G1 X112.452 Y95.115 E6.51569
G1 X112.665 Y95.054 E6.53116
G1 X112.895 Y95.029 E6.54732
G1 X113.123 Y95.043 E6.56328
G1 X113.341 Y95.096 E6.57895
G1 X113.545 Y95.187 E6.59455
G1 X113.73 Y95.31 E6.61007
G1 X113.898 Y95.471 E6.62632
G1 X114.032 Y95.653 E6.64211
G1 X114.13 Y95.851 E6.65754
G1 X114.191 Y96.064 E6.67301
G1 X114.216 Y96.292 E6.68903
G1 X114.202 Y96.52 E6.70499
G1 X114.149 Y96.735 E6.72045
G1 X114.056 Y96.947 E6.73662
G1 X113.935 Y97.128 E6.75183
G1 X113.772 Y97.298 E6.76828
G1 X113.596 Y97.428 E6.78356
G1 X113.399 Y97.524 E6.79887
G1 X113.173 Y97.592 E6.81535
G1 X112.955 Y97.615 E6.83066
G1 X112.729 Y97.6 E6.84648
G1 X112.507 Y97.545 E6.86246
G1 X112.304 Y97.457 E6.87791
G1 X112.116 Y97.329 E6.8938
G1 X111.952 Y97.174 E6.90956
G1 X111.816 Y96.988 E6.92565
G1 X111.717 Y96.789 E6.94118
G1 X111.657 Y96.582 E6.95623
G1 X111.632 Y96.349 E6.9726
G1 X111.647 Y96.119 E6.9887
G1 X111.698 Y95.909 E7.00379
G1 X111.794 Y95.69 E7.02049
G1 X111.908 Y95.52 E7.03479
G1 F1800 E3.03479
G0 F3000 X117.608 Y90.445
G1 F1800 E7.03479
G1 X117.28 Y89.995 E7.07368
G1 X117.047 Y89.524 E7.11039
G1 X116.895 Y89.007 E7.14803
G1 X116.836 Y88.462 E7.18631
G1 X116.872 Y87.928 E7.2237
G1 X116.998 Y87.406 E7.2612
G1 X117.219 Y86.907 E7.29932
G1 X117.518 Y86.458 E7.337
G1 X117.888 Y86.072 E7.37435
G1 X118.324 Y85.753 E7.41208
G1 X118.807 Y85.515 E7.44969
G1 X119.326 Y85.363 E7.48746
G1 X119.863 Y85.305 E7.52519
G1 X120.408 Y85.34 E7.56333
G1 X120.925 Y85.466 E7.6005
G1 X121.425 Y85.687 E7.63868
G1 X121.874 Y85.986 E7.67636
G1 X122.258 Y86.354 E7.71351
G1 X122.58 Y86.794 E7.75159
G1 X122.817 Y87.275 E7.78904
G1 X122.969 Y87.793 E7.82675
G1 X123.027 Y88.328 E7.86434
G1 X122.992 Y88.875 E7.90262
G1 X122.866 Y89.392 E7.93979
G1 X122.645 Y89.892 E7.97797
G1 X122.35 Y90.334 E8.01509
G1 X121.972 Y90.729 E8.05327
G1 X121.539 Y91.046 E8.09076
G1 X121.053 Y91.286 E8.12862
G1 X120.54 Y91.437 E8.16597
G1 X119.996 Y91.496 E8.20419
G1 X119.461 Y91.46 E8.24164
G1 X118.938 Y91.333 E8.27923
G1 X118.447 Y91.118 E8.31667
G1 X117.995 Y90.814 E8.35471
G1 X117.608 Y90.445 E8.39206
G0 F3000 X117.909 Y90.179
G1 F1800 X117.624 Y89.788 E8.42586
G1 X117.421 Y89.378 E8.45781
G1 X117.287 Y88.92 E8.49114
G1 X117.237 Y88.457 E8.52367
G1 X117.269 Y87.99 E8.55636
G1 X117.379 Y87.536 E8.58899
G1 X117.571 Y87.101 E8.6222
G1 X117.831 Y86.71 E8.655
G1 X118.152 Y86.376 E8.68736
G1 X118.534 Y86.095 E8.72048
G1 X118.952 Y85.889 E8.75303
G1 X119.404 Y85.757 E8.78592
G1 X119.875 Y85.706 E8.81901
G1 X120.344 Y85.737 E8.85184
G1 X120.796 Y85.847 E8.88433
G1 X121.232 Y86.039 E8.9176
G1 X121.622 Y86.299 E8.95034
G1 X121.954 Y86.618 E8.9825
G1 X122.238 Y87.004 E9.01597
G1 X122.443 Y87.42 E9.04836
G1 X122.575 Y87.871 E9.08119
G1 X122.626 Y88.343 E9.11435
G1 X122.595 Y88.811 E9.1471
G1 X122.485 Y89.263 E9.1796
G1 X122.293 Y89.699 E9.21287
G1 X122.037 Y90.083 E9.24511
G1 X121.706 Y90.428 E9.2785
G1 X121.332 Y90.702 E9.31088
G1 X120.907 Y90.912 E9.34399
G1 X120.456 Y91.044 E9.37682
G1 X119.991 Y91.095 E9.40949
G1 X119.523 Y91.063 E9.44225
G1 X119.064 Y90.952 E9.47524
G1 X118.641 Y90.767 E9.50748
G1 X118.248 Y90.503 E9.54055
G1 X117.909 Y90.179 E9.57331
G0 F3000 X118.213 Y89.916
G1 F1800 X117.967 Y89.579 E9.60245
G1 X117.796 Y89.235 E9.62928
G1 X117.682 Y88.845 E9.65766
G1 X117.639 Y88.447 E9.68562
G1 X117.665 Y88.053 E9.7132
G1 X117.76 Y87.66 E9.74144
G1 X117.922 Y87.295 E9.76933
G1 X118.142 Y86.964 E9.79709
G1 X118.419 Y86.676 E9.825
G1 X118.74 Y86.44 E9.85283
G1 X119.099 Y86.263 E9.88079
G1 X119.486 Y86.15 E9.90895
G1 X119.881 Y86.107 E9.9367
G1 X120.28 Y86.133 E9.96463
G1 X120.67 Y86.228 E9.99266
G1 X121.04 Y86.392 E10.02093
G1 X121.368 Y86.61 E10.04844
G1 X121.654 Y86.885 E10.07615
G1 X121.893 Y87.21 E10.10433
G1 X122.069 Y87.567 E10.13213
G1 X122.182 Y87.953 E10.16022
G1 X122.225 Y88.349 E10.18804
G1 X122.199 Y88.747 E10.2159
G1 X122.104 Y89.137 E10.24394
G1 X121.94 Y89.507 E10.27221
G1 X121.724 Y89.832 E10.29946
G1 X121.446 Y90.122 E10.32752
G1 X121.122 Y90.359 E10.35556
G1 X120.761 Y90.537 E10.38367
G1 X120.378 Y90.65 E10.41156
G1 X119.981 Y90.693 E10.43945
G1 X119.586 Y90.667 E10.4671
G1 X119.196 Y90.572 E10.49514
G1 X118.831 Y90.412 E10.52298
G1 X118.498 Y90.189 E10.55097
G1 X118.213 Y89.916 E10.57853
G1 F1800 E6.57853
G0 F3000 X103.366 Y99.547
G1 F1800 E10.57853
G1 X103.082 Y100.531 E10.65007
G1 X103.086 Y100.656 E10.6588
G1 X103.144 Y100.739 E10.66588
G1 X103.818 Y101.318 E10.72794
G1 X104.044 Y101.592 E10.75275
G1 X104.226 Y101.914 E10.77858
G1 X104.344 Y102.245 E10.80312
G1 X104.406 Y102.605 E10.82864
G1 X104.405 Y102.967 E10.85392
G1 X104.344 Y103.32 E10.87894
G1 X104.22 Y103.661 E10.90429
G1 X104.046 Y103.966 E10.92881
G1 X103.809 Y104.255 E10.95492
G1 X103.538 Y104.486 E10.97979
G1 X103.231 Y104.668 E11.00472
G1 X102.888 Y104.8 E11.03039
G1 X102.542 Y104.866 E11.05499
G1 X102.181 Y104.873 E11.08021
G1 X101.821 Y104.817 E11.10566
G1 X101.48 Y104.702 E11.13079
G1 X101.157 Y104.527 E11.15645
G1 X100.876 Y104.305 E11.18146
G1 X100.639 Y104.04 E11.2063
G1 X100.449 Y103.734 E11.23145
G1 X100.313 Y103.4 E11.25664
G1 X100.236 Y103.043 E11.28215
G1 X100.223 Y102.685 E11.30717
G1 X100.269 Y102.332 E11.33204
G1 X100.38 Y101.981 E11.35775
G1 X100.542 Y101.664 E11.38261
G1 X100.768 Y101.368 E11.40863
G1 X101.018 Y101.135 E11.4325
G1 X101.33 Y100.933 E11.45846
G1 X102.143 Y100.583 E11.52028
G1 X102.237 Y100.5 E11.52904
G1 X102.264 Y100.404 E11.536
G1 X102.287 Y99.386 E11.60713
G1 X102.79 Y99.504 E11.64321
G1 X102.822 Y99.508 E11.64546
G1 X103.366 Y99.547 E11.68356
G0 F3000 X102.845 Y99.911
G1 F1800 X102.698 Y100.42 E11.72056
G1 X102.676 Y100.637 E11.7358
G1 X102.734 Y100.848 E11.75108
G1 X102.883 Y101.042 E11.76817
G1 X103.531 Y101.599 E11.82785
G1 X103.713 Y101.82 E11.84785
G1 X103.86 Y102.079 E11.86865
G1 X103.956 Y102.348 E11.8886
G1 X104.006 Y102.638 E11.90915
G1 X104.005 Y102.933 E11.92976
G1 X103.956 Y103.217 E11.94989
G1 X103.857 Y103.492 E11.9703
G1 X103.716 Y103.738 E11.9901
G1 X103.523 Y103.973 E12.01134
G1 X103.304 Y104.16 E12.03146
G1 X103.055 Y104.307 E12.05165
G1 X102.779 Y104.414 E12.07233
G1 X102.5 Y104.467 E12.09217
G1 X102.206 Y104.472 E12.1127
G1 X101.916 Y104.427 E12.1332
G1 X101.64 Y104.334 E12.15354
G1 X101.382 Y104.194 E12.17405
G1 X101.15 Y104.012 E12.19464
G1 X100.961 Y103.8 E12.21448
G1 X100.805 Y103.549 E12.23512
G1 X100.697 Y103.283 E12.25517
G1 X100.635 Y102.995 E12.27575
G1 X100.624 Y102.705 E12.29602
G1 X100.662 Y102.415 E12.31645
G1 X100.751 Y102.133 E12.3371
G1 X100.881 Y101.88 E12.35697
G1 X101.065 Y101.639 E12.37815
G1 X101.267 Y101.45 E12.39747
G1 X101.521 Y101.286 E12.41859
G1 X102.301 Y100.95 E12.47791
G1 X102.483 Y100.829 E12.49317
G1 X102.609 Y100.651 E12.5084
G1 X102.664 Y100.413 E12.52547
G1 X102.676 Y99.888 E12.56215
G1 X102.698 Y99.893 E12.56372
G1 X102.793 Y99.907 E12.57043
G1 X102.845 Y99.911 E12.57407
G1 F1800 E8.57407
