;FLAVOR:Marlin
;TIME:73
;Filament used: 0.049882m
;Layer height: 0.2
;MINX:90.472
;MINY:90.376
;MINZ:0.35
;MAXX:109.249
;MAXY:109.625
;MAXZ:0.95
;TARGET_MACHINE.NAME:XYZprinting da Vinci 1.0 Pro
;Generated with Cura_SteamEngine 5.6.0
M140 S45
M105
M190 S45
M104 S190
M105
M109 S190
M82 ;absolute extrusion mode
G28 ; home all axes
G1 Z15 F5000 ; lift nozzle
G92 E0
G1 F200 E3

G92 E0
G92 E0
G1 F1800 E-4
;LAYER_COUNT:4
;LAYER:0
M106 S255
;MESH:Logo_V1.STL
G0 F3000 X95.785 Y100.09 Z0.35
;TYPE:WALL-INNER
G1 F1800 E0
G1 F900 X95.145 Y100.018 E0.04498
G1 X94.53 Y99.847 E0.08957
G1 X93.912 Y99.573 E0.13679
G1 X93.379 Y99.226 E0.18121
G1 X92.906 Y98.808 E0.2253
G1 X92.492 Y98.311 E0.27048
G1 X92.144 Y97.725 E0.31808
G1 X91.909 Y97.143 E0.36192
G1 X91.76 Y96.524 E0.40639
G1 X91.71 Y95.883 E0.4513
G1 X91.754 Y95.205 E0.49875
G1 X91.905 Y94.573 E0.54414
G1 X92.139 Y93.994 E0.58776
G1 X92.496 Y93.389 E0.63682
G1 X92.923 Y92.882 E0.68312
G1 X93.374 Y92.482 E0.72522
G1 X93.896 Y92.141 E0.76877
G1 X94.539 Y91.855 E0.81793
G1 X95.153 Y91.688 E0.86237
G1 X95.773 Y91.616 E0.90597
G1 X96.412 Y91.638 E0.95063
G1 X97.093 Y91.768 E0.99905
G1 X97.696 Y91.988 E1.04388
G1 X98.243 Y92.286 E1.08739
G1 X98.754 Y92.672 E1.13212
G1 X99.222 Y93.153 E1.17899
G1 X99.615 Y93.726 E1.22753
G1 X99.884 Y94.268 E1.26979
G1 X100.086 Y94.932 E1.31826
G1 X100.172 Y95.483 E1.35722
G1 X100.175 Y96.213 E1.4082
G1 X100.074 Y96.834 E1.45215
G1 X99.884 Y97.438 E1.49637
G1 X99.605 Y98.003 E1.54039
G1 X99.228 Y98.544 E1.58644
G1 X98.764 Y99.027 E1.63322
G1 X98.254 Y99.414 E1.67794
G1 X97.705 Y99.712 E1.72157
G1 X97.107 Y99.934 E1.76612
G1 X96.423 Y100.067 E1.81479
G1 X95.785 Y100.09 E1.85938
G0 F3000 X95.75 Y100.389
G0 X97.136 Y100.175
G0 X98.384 Y99.615
G0 X99.405 Y98.705
G0 X100.83 Y95.879
G0 X101.461 Y95.754
G1 F900 X101.784 Y95.737 E1.88198
G1 X102.013 Y95.832 E1.89929
G1 X107.059 Y100.809 E2.39433
G1 X108.169 Y100.808 E2.47186
G1 X103.753 Y96.33 E2.91113
G1 X103.587 Y95.816 E2.94886
G1 X103.724 Y95.518 E2.97177
G1 X106.017 Y93.165 E3.20125
G1 F724.3 X106.226 Y92.812 E3.23685
G1 F621.8 X108.104 Y90.909 E3.50716
G1 F637.2 X107.319 Y90.909 E3.5846
G1 F621.8 X105.808 Y92.392 E3.79866
G1 F724.3 X105.453 Y92.598 E3.83428
G1 F900 X103.093 Y94.878 E4.06347
G1 X102.793 Y95.011 E4.08639
G1 X102.571 Y95.001 E4.10192
G1 X102.342 Y94.9 E4.1194
G1 X101.144 Y93.676 E4.23902
G1 X101.026 Y93.352 E4.26311
G1 X101.026 Y92.749 E4.30523
G1 F777.5 X100.963 Y91.761 E4.38526
G1 F688.3 X100.966 Y90.888 E4.46499
G1 F692.3 X100.446 Y90.888 E4.51221
G1 F688.3 X100.441 Y91.716 E4.58782
G1 F777.5 X100.05 Y92.14 E4.63445
G1 F900 X99.914 Y92.199 E4.64481
G1 X99.646 Y92.22 E4.66359
G1 X99.38 Y92.111 E4.68366
G1 X98.9 Y91.724 E4.72673
G1 X98.375 Y91.395 E4.77
G1 X97.81 Y91.13 E4.81359
G1 X97.215 Y90.938 E4.85726
G1 X96.615 Y90.822 E4.89994
G1 X95.99 Y90.777 E4.94371
G1 X95.367 Y90.81 E4.98729
G1 X94.766 Y90.916 E5.02991
G1 X94.166 Y91.102 E5.07379
G1 X93.606 Y91.349 E5.11654
G1 X93.066 Y91.676 E5.16063
G1 X92.587 Y92.05 E5.20308
G1 X92.148 Y92.488 E5.24639
G1 X91.762 Y92.987 E5.29046
G1 X91.443 Y93.517 E5.33366
G1 X91.19 Y94.085 E5.37709
G1 X91.01 Y94.678 E5.42038
G1 X90.906 Y95.278 E5.46291
G1 X90.873 Y95.907 E5.5069
G1 X90.917 Y96.525 E5.55018
G1 X91.034 Y97.126 E5.59294
G1 X91.226 Y97.714 E5.63615
G1 X91.495 Y98.284 E5.68017
G1 X91.82 Y98.806 E5.72312
G1 X92.214 Y99.291 E5.76676
G1 X92.655 Y99.715 E5.80949
G1 X93.157 Y100.092 E5.85334
G1 X93.695 Y100.402 E5.89671
G1 X94.261 Y100.641 E5.93962
G1 X94.862 Y100.812 E5.98327
G1 X95.467 Y100.906 E6.02603
G1 X96.088 Y100.926 E6.06943
G1 X96.716 Y100.87 E6.11347
G1 X97.309 Y100.743 E6.15583
G1 X97.907 Y100.535 E6.20005
G1 X98.453 Y100.267 E6.24253
G1 X98.981 Y99.921 E6.28662
G1 X99.448 Y99.528 E6.32925
G1 X99.877 Y99.065 E6.37334
G1 X100.234 Y98.572 E6.41585
G1 X100.533 Y98.03 E6.45909
G1 X100.768 Y97.444 E6.50319
G1 X100.925 Y96.846 E6.54637
G1 X101.013 Y96.217 E6.59073
G1 X101.151 Y95.943 E6.61216
G1 X101.461 Y95.754 E6.63752
G0 F3000 X101.589 Y96.133
;TYPE:WALL-OUTER
G1 F900 X101.766 Y96.156 E6.64999
G1 X106.895 Y101.209 E7.15288
G1 X109.124 Y101.208 E7.30856
G1 X104.038 Y96.049 E7.81457
G1 X103.983 Y95.877 E7.82718
G1 X104.028 Y95.778 E7.83477
G1 X109.249 Y90.427 E8.35695
G1 X107.124 Y90.427 E8.50538
G1 X102.837 Y94.57 E8.92178
G1 X102.737 Y94.615 E8.92944
G1 X102.593 Y94.585 E8.93972
G1 X101.426 Y93.397 E9.05603
G1 X101.426 Y90.428 E9.26341
G1 X99.986 Y90.428 E9.36398
G1 X99.983 Y91.636 E9.44836
G1 X99.874 Y91.781 E9.46103
G1 X99.67 Y91.833 E9.47573
G1 X99.133 Y91.398 E9.524
G1 X98.567 Y91.043 E9.57067
G1 X97.957 Y90.757 E9.61772
G1 X97.315 Y90.55 E9.66484
G1 X96.667 Y90.424 E9.71095
G1 X95.994 Y90.376 E9.75807
G1 X95.321 Y90.412 E9.80515
G1 X94.672 Y90.526 E9.85117
G1 X94.025 Y90.726 E9.89847
G1 X93.421 Y90.994 E9.94463
G1 X92.839 Y91.346 E9.99213
G1 X92.321 Y91.75 E10.03802
G1 X91.848 Y92.223 E10.08474
G1 X91.431 Y92.76 E10.13223
G1 X91.087 Y93.332 E10.17885
G1 X90.814 Y93.945 E10.22572
G1 X90.62 Y94.585 E10.27243
G1 X90.507 Y95.233 E10.31837
G1 X90.472 Y95.911 E10.36579
G1 X90.52 Y96.578 E10.4125
G1 X90.646 Y97.226 E10.4586
G1 X90.854 Y97.862 E10.50534
G1 X91.143 Y98.476 E10.55274
G1 X91.494 Y99.039 E10.59908
G1 X91.919 Y99.562 E10.64615
G1 X92.395 Y100.02 E10.69229
G1 X92.936 Y100.427 E10.73957
G1 X93.517 Y100.761 E10.78638
G1 X94.128 Y101.019 E10.83271
G1 X94.776 Y101.204 E10.87978
G1 X95.429 Y101.306 E10.92594
G1 X96.1 Y101.327 E10.97283
G1 X96.776 Y101.266 E11.02024
G1 X97.417 Y101.129 E11.06602
G1 X98.061 Y100.905 E11.11364
G1 X98.651 Y100.615 E11.15956
G1 X99.221 Y100.243 E11.2071
G1 X99.724 Y99.818 E11.2531
G1 X100.187 Y99.32 E11.30059
G1 X100.573 Y98.786 E11.34661
G1 X100.895 Y98.202 E11.39319
G1 X101.149 Y97.57 E11.44077
G1 X101.318 Y96.924 E11.48741
G1 X101.405 Y96.299 E11.53148
G1 X101.451 Y96.208 E11.5386
G1 X101.589 Y96.133 E11.54957
G0 F3000 X101.766 Y96.156
G0 X101.781 Y96.171
G0 X102.274 Y95.672
G0 X100.855 Y95.657
G0 X100.105 Y97.528
G0 X99.405 Y98.705
G0 X98.384 Y99.615
G0 X97.201 Y100.152
G0 X95.718 Y100.385
G0 X95.798 Y99.69
G1 F900 X95.228 Y99.624 E11.58965
G1 X94.654 Y99.467 E11.63122
G1 X94.112 Y99.226 E11.67265
G1 X93.606 Y98.896 E11.71484
G1 X93.184 Y98.52 E11.75432
G1 X92.811 Y98.069 E11.7952
G1 X92.506 Y97.554 E11.837
G1 X92.289 Y97.019 E11.87733
G1 X92.153 Y96.447 E11.91839
G1 X92.11 Y95.838 E11.96103
G1 X92.152 Y95.263 E12.0013
G1 X92.288 Y94.689 E12.0425
G1 X92.502 Y94.162 E12.08223
G1 X92.8 Y93.652 E12.12349
G1 X93.189 Y93.181 E12.16616
G1 X93.62 Y92.798 E12.20643
G1 X94.103 Y92.483 E12.24671
G1 X94.657 Y92.237 E12.28904
G1 X95.223 Y92.082 E12.33003
G1 X95.794 Y92.016 E12.37018
G1 X96.383 Y92.037 E12.41135
G1 X96.948 Y92.144 E12.45151
G1 X97.525 Y92.352 E12.49435
G1 X98.046 Y92.636 E12.5358
G1 X98.502 Y92.984 E12.57586
G1 X98.918 Y93.418 E12.61785
G1 X99.257 Y93.904 E12.65924
G1 X99.505 Y94.403 E12.69816
G1 X99.69 Y94.994 E12.74141
G1 X99.776 Y95.545 E12.78036
G1 X99.779 Y96.13 E12.82122
G1 X99.686 Y96.732 E12.86377
G1 X99.512 Y97.288 E12.90446
G1 X99.253 Y97.809 E12.9451
G1 X98.912 Y98.297 E12.98668
G1 X98.505 Y98.72 E13.02768
G1 X98.034 Y99.078 E13.06901
G1 X97.508 Y99.361 E13.11072
G1 X96.975 Y99.555 E13.15034
G1 X96.387 Y99.669 E13.19218
G1 X95.798 Y99.69 E13.23334
G0 F3000 X95.6 Y99.667
G0 X95.52 Y100.362
G0 X97.816 Y100.315
G0 X100.319 Y97.924
G0 X100.855 Y95.657
G0 X101.828 Y95.327
G0 X107.223 Y100.412
;TYPE:SKIN
G1 F796.5 X105.336 Y98.526 E13.44391
G1 F737.7 X103.449 Y96.639 E13.67131
G0 F3000 X103.021 Y95.911
G0 X105.697 Y92.92
G1 F774.2 X104.54 Y94.071 E13.80382
G1 F697.7 X103.383 Y95.223 E13.95093
G0 F3000 X103.136 Y95.793
G1 F696.3 X103.404 Y96.594 E14.02718
G1 F693.6 X102.61 Y95.799 E14.12901
G1 F629.4 X102.282 Y95.421 E14.179
G1 X102.855 Y95.448 E14.23629
G1 F684.4 X103.161 Y95.357 E14.26561
G1 F672.9 X103.383 Y95.223 E14.28984
G1 X103.247 Y95.443 E14.314
G1 F687 X103.136 Y95.793 E14.3476
G0 F3000 X103.086 Y95.744
G0 X101.828 Y95.327
G0 X101.338 Y95.389
G1 F869.6 X100.888 Y95.669 E14.38591
G1 F814.5 X100.597 Y96.145 E14.42897
G1 X100.557 Y95.484 E14.48008
G1 F900 X100.452 Y94.814 E14.52745
G1 F843.1 X100.32 Y94.294 E14.56745
G1 F791.2 X100.285 Y94.046 E14.58735
G1 F841.1 X99.918 Y93.487 E14.63732
G1 F900 X99.512 Y92.907 E14.68677
G1 F814.5 X99.121 Y92.444 E14.73355
G1 X99.627 Y92.598 E14.77437
G1 F900 X100.03 Y92.561 E14.80263
G1 X100.27 Y92.446 E14.82122
G1 X100.567 Y92.149 E14.85056
G1 X100.646 Y92.768 E14.89415
G1 F873.8 X100.641 Y93.418 E14.94091
G1 F766 X100.676 Y93.731 E14.96676
G1 F743.8 X100.856 Y93.973 E14.99225
G1 F843.1 X101.229 Y94.315 E15.02998
G1 F900 X101.941 Y95.037 E15.1008
G1 F703.1 X102.215 Y95.388 E15.14061
G1 F665.4 X101.914 Y95.352 E15.16925
G1 F810.8 X101.338 Y95.389 E15.214
G0 F3000 X99.121 Y92.444
G1 F750 X98.545 Y91.98 E15.27599
G1 F764.3 X97.867 Y91.611 E15.33948
G1 F772.5 X97.196 Y91.367 E15.39758
G1 F762.7 X96.565 Y91.24 E15.45062
G1 F757.9 X95.833 Y91.192 E15.51147
G1 F759.5 X94.991 Y91.29 E15.58163
G1 F751.6 X94.292 Y91.504 E15.64277
G1 F754.7 X93.747 Y91.744 E15.69237
G1 F764.3 X93.194 Y92.093 E15.74616
G1 F767.6 X92.593 Y92.623 E15.81178
G1 F770.9 X92.156 Y93.155 E15.86792
G1 F761.1 X91.804 Y93.738 E15.92417
G1 F754.7 X91.531 Y94.359 E15.98067
G1 F762.7 X91.333 Y95.204 E16.0522
G1 F761.1 X91.292 Y95.912 E16.11077
G1 F762.7 X91.354 Y96.61 E16.16853
G1 F770.9 X91.515 Y97.271 E16.22401
G1 F772.5 X91.769 Y97.901 E16.27928
G1 F769.2 X92.123 Y98.507 E16.33663
G1 F756.3 X92.527 Y99.008 E16.39013
G1 F745.3 X92.925 Y99.39 E16.43665
G1 F743.8 X93.392 Y99.74 E16.48598
G1 F751.6 X93.782 Y99.979 E16.52423
G1 F756.3 X94.395 Y100.244 E16.57974
G1 F761.1 X95.051 Y100.422 E16.63588
G1 F769.2 X95.767 Y100.504 E16.69478
G1 X96.56 Y100.473 E16.75963
G1 F764.3 X97.213 Y100.335 E16.81452
G1 F753.1 X97.744 Y100.146 E16.86156
G1 F756.3 X98.385 Y99.829 E16.921
G1 F769.2 X99.089 Y99.297 E16.99311
G1 F770.9 X99.56 Y98.797 E17.04913
G1 F759.5 X99.876 Y98.35 E17.09443
G1 F748.4 X100.148 Y97.854 E17.14195
G1 F745.3 X100.368 Y97.305 E17.19183
G1 F748.4 X100.512 Y96.76 E17.23917
G1 X100.597 Y96.145 E17.29132
G0 F3000 X101.406 Y95.184
G1 F900 X100.557 Y94.335 E17.37518
G0 F3000 X100.433 Y93.644
G1 F900 X99.892 Y93.104 E17.42857
G0 F3000 X100.1 Y92.746
G1 F900 X100.445 Y93.091 E17.46265
G0 F3000 X100.685 Y95.028
G1 F900 X101.012 Y95.355 E17.49495
G0 F3000 X100.972 Y95.231
G1 F1800 E13.49495
G0 F3000 X99.58 Y99.654
G0 X100.758 Y100.886
G0 X100.446 Y101.539
;TYPE:WALL-INNER
G1 F1800 E17.49495
G1 F692.3 X100.446 Y109.165 E18.18739
G1 X100.966 Y109.165 E18.23461
G1 X100.966 Y101.045 E18.9719
G1 X100.446 Y101.539 E19.03703
G0 F3000 X100.674 Y101.632
G0 X101.154 Y100.645
G0 X100.947 Y100.428
;TYPE:WALL-OUTER
G1 F900 X100.287 Y101.06 E19.10086
G1 X99.986 Y101.296 E19.12757
G1 X99.986 Y109.625 E19.70932
G1 X101.426 Y109.625 E19.8099
G1 X101.426 Y99.826 E20.49432
G1 X100.947 Y100.428 E20.54806
G0 F3000 X100.803 Y100.566
G1 F1800 E16.54806
;MESH:NONMESH
G0 F600 X100.803 Y100.566 Z0.55
G0 F3000 X101.01 Y100.783
G0 X98.546 Y100.424
G0 X95.75 Y100.389
G0 X95.785 Y100.09
;TIME_ELAPSED:28.554453
;LAYER:1
;TYPE:WALL-INNER
;MESH:Logo_V1.STL
G1 F1800 E20.54806
G1 F2250 X95.145 Y100.018 E20.56948
G1 X94.53 Y99.847 E20.59071
G1 X93.912 Y99.573 E20.61319
G1 X93.379 Y99.226 E20.63435
G1 X92.906 Y98.808 E20.65534
G1 X92.492 Y98.311 E20.67686
G1 X92.144 Y97.725 E20.69952
G1 X91.909 Y97.143 E20.7204
G1 X91.76 Y96.524 E20.74158
G1 X91.71 Y95.883 E20.76296
G1 X91.754 Y95.205 E20.78556
G1 X91.905 Y94.573 E20.80717
G1 X92.139 Y93.994 E20.82794
G1 X92.496 Y93.389 E20.85131
G1 X92.923 Y92.882 E20.87335
G1 X93.374 Y92.482 E20.8934
G1 X93.896 Y92.141 E20.91414
G1 X94.539 Y91.855 E20.93755
G1 X95.153 Y91.688 E20.95871
G1 X95.773 Y91.616 E20.97947
G1 X96.412 Y91.638 E21.00074
G1 X97.093 Y91.768 E21.02379
G1 X97.696 Y91.988 E21.04514
G1 X98.243 Y92.286 E21.06586
G1 X98.754 Y92.672 E21.08716
G1 X99.222 Y93.153 E21.10948
G1 X99.615 Y93.726 E21.13259
G1 X99.884 Y94.268 E21.15272
G1 X100.086 Y94.932 E21.1758
G1 X100.172 Y95.483 E21.19435
G1 X100.175 Y96.213 E21.21863
G1 X100.074 Y96.834 E21.23956
G1 X99.884 Y97.438 E21.26062
G1 X99.605 Y98.003 E21.28157
G1 X99.228 Y98.544 E21.30351
G1 X98.764 Y99.027 E21.32578
G1 X98.254 Y99.414 E21.34708
G1 X97.705 Y99.712 E21.36785
G1 X97.107 Y99.934 E21.38907
G1 X96.423 Y100.067 E21.41224
G1 X95.785 Y100.09 E21.43348
G0 F4500 X95.75 Y100.389
G0 X97.136 Y100.175
G0 X98.384 Y99.615
G0 X99.405 Y98.705
G0 X100.83 Y95.879
G0 X101.461 Y95.754
G1 F2250 X101.784 Y95.737 E21.44424
G1 X102.013 Y95.832 E21.45248
G1 X107.059 Y100.809 E21.68821
G1 X108.169 Y100.808 E21.72513
G1 X103.753 Y96.33 E21.93431
G1 X103.587 Y95.816 E21.95228
G1 X103.724 Y95.518 E21.96318
G1 X106.017 Y93.165 E22.07246
G1 F1810.9 X106.226 Y92.812 E22.08941
G1 F1554.4 X108.104 Y90.909 E22.21813
G1 F1592.9 X107.319 Y90.909 E22.25501
G1 F1554.4 X105.808 Y92.392 E22.35694
G1 F1810.9 X105.453 Y92.598 E22.3739
G1 F2250 X103.093 Y94.878 E22.48304
G1 X102.793 Y95.011 E22.49396
G1 X102.571 Y95.001 E22.50135
G1 X102.342 Y94.9 E22.50967
G1 X101.144 Y93.676 E22.56664
G1 X101.026 Y93.352 E22.57811
G1 X101.026 Y92.749 E22.59816
G1 F1943.8 X100.963 Y91.761 E22.63628
G1 F1720.8 X100.966 Y90.888 E22.67424
G1 F1730.8 X100.446 Y90.888 E22.69673
G1 F1720.8 X100.441 Y91.716 E22.73274
G1 F1943.8 X100.05 Y92.14 E22.75494
G1 F2250 X99.914 Y92.199 E22.75987
G1 X99.646 Y92.22 E22.76881
G1 X99.38 Y92.111 E22.77837
G1 X98.9 Y91.724 E22.79888
G1 X98.375 Y91.395 E22.81949
G1 X97.81 Y91.13 E22.84024
G1 X97.215 Y90.938 E22.86104
G1 X96.615 Y90.822 E22.88136
G1 X95.99 Y90.777 E22.90221
G1 X95.367 Y90.81 E22.92296
G1 X94.766 Y90.916 E22.94325
G1 X94.166 Y91.102 E22.96415
G1 X93.606 Y91.349 E22.9845
G1 X93.066 Y91.676 E23.0055
G1 X92.587 Y92.05 E23.02571
G1 X92.148 Y92.488 E23.04634
G1 X91.762 Y92.987 E23.06732
G1 X91.443 Y93.517 E23.0879
G1 X91.19 Y94.085 E23.10858
G1 X91.01 Y94.678 E23.12919
G1 X90.906 Y95.278 E23.14944
G1 X90.873 Y95.907 E23.17039
G1 X90.917 Y96.525 E23.191
G1 X91.034 Y97.126 E23.21136
G1 X91.226 Y97.714 E23.23194
G1 X91.495 Y98.284 E23.2529
G1 X91.82 Y98.806 E23.27335
G1 X92.214 Y99.291 E23.29413
G1 X92.655 Y99.715 E23.31448
G1 X93.157 Y100.092 E23.33536
G1 X93.695 Y100.402 E23.35601
G1 X94.261 Y100.641 E23.37645
G1 X94.862 Y100.812 E23.39723
G1 X95.467 Y100.906 E23.4176
G1 X96.088 Y100.926 E23.43826
G1 X96.716 Y100.87 E23.45923
G1 X97.309 Y100.743 E23.4794
G1 X97.907 Y100.535 E23.50046
G1 X98.453 Y100.267 E23.52069
G1 X98.981 Y99.921 E23.54169
G1 X99.448 Y99.528 E23.56199
G1 X99.877 Y99.065 E23.58298
G1 X100.234 Y98.572 E23.60323
G1 X100.533 Y98.03 E23.62381
G1 X100.768 Y97.444 E23.64481
G1 X100.925 Y96.846 E23.66538
G1 X101.013 Y96.217 E23.6865
G1 X101.151 Y95.943 E23.6967
G1 X101.461 Y95.754 E23.70878
G0 F4500 X101.589 Y96.133
;TYPE:WALL-OUTER
G1 F1350 X101.766 Y96.156 E23.71472
G1 X106.895 Y101.209 E23.95419
G1 X109.124 Y101.208 E24.02833
G1 X104.038 Y96.049 E24.26928
G1 X103.983 Y95.877 E24.27528
G1 X104.028 Y95.778 E24.2789
G1 X109.249 Y90.427 E24.52756
G1 X107.124 Y90.427 E24.59824
G1 X102.837 Y94.57 E24.79652
G1 X102.737 Y94.615 E24.80017
G1 X102.593 Y94.585 E24.80506
G1 X101.426 Y93.397 E24.86045
G1 X101.426 Y90.428 E24.9592
G1 X99.986 Y90.428 E25.0071
G1 X99.983 Y91.636 E25.04727
G1 X99.874 Y91.781 E25.05331
G1 X99.67 Y91.833 E25.06031
G1 X99.133 Y91.398 E25.0833
G1 X98.567 Y91.043 E25.10552
G1 X97.957 Y90.757 E25.12793
G1 X97.315 Y90.55 E25.15036
G1 X96.667 Y90.424 E25.17232
G1 X95.994 Y90.376 E25.19476
G1 X95.321 Y90.412 E25.21717
G1 X94.672 Y90.526 E25.23909
G1 X94.025 Y90.726 E25.26161
G1 X93.421 Y90.994 E25.28359
G1 X92.839 Y91.346 E25.30621
G1 X92.321 Y91.75 E25.32806
G1 X91.848 Y92.223 E25.35031
G1 X91.431 Y92.76 E25.37293
G1 X91.087 Y93.332 E25.39513
G1 X90.814 Y93.945 E25.41745
G1 X90.62 Y94.585 E25.43969
G1 X90.507 Y95.233 E25.46157
G1 X90.472 Y95.911 E25.48415
G1 X90.52 Y96.578 E25.50639
G1 X90.646 Y97.226 E25.52834
G1 X90.854 Y97.862 E25.5506
G1 X91.143 Y98.476 E25.57317
G1 X91.494 Y99.039 E25.59524
G1 X91.919 Y99.562 E25.61765
G1 X92.395 Y100.02 E25.63962
G1 X92.936 Y100.427 E25.66214
