;FLAVOR:Marlin
;TIME:1174
;Filament used: 0.763548m
;Layer height: 0.2
;MINX:83.029
;MINY:78.866
;MINZ:0.35
;MAXX:116.972
;MAXY:121.132
;MAXZ:4.95
;TARGET_MACHINE.NAME:XYZprinting da Vinci 1.0 Pro
;Generated with Cura_SteamEngine 5.6.0
M140 S45
M105
M190 S45
M104 S190
M105
M109 S190
M82 ;absolute extrusion mode
G28 ; home all axes
G1 Z15 F5000 ; lift nozzle
G92 E0
G1 F200 E3

G92 E0
G92 E0
G1 F1800 E-4
;LAYER_COUNT:24
;LAYER:0
M106 S255
;MESH:right_gear_cover_gearbox_V1.stl
G0 F3000 X97.669 Y84.395 Z0.35
;TYPE:WALL-INNER
G1 F1800 E0
G1 F900 X96.88 Y84.376 E0.05512
G1 X96.161 Y84.102 E0.10887
G1 X95.571 Y83.587 E0.16357
G1 X95.206 Y82.919 E0.21674
G1 F774.2 X95.017 Y82.241 E0.27389
G1 F685.7 X95.017 Y82.066 E0.28993
G1 F691 X95.159 Y81.337 E0.3575
G1 F689.7 X95.544 Y80.695 E0.42573
G1 F688.3 X96.203 Y80.143 E0.50423
G1 X96.948 Y79.874 E0.57657
G1 F689.7 X97.77 Y79.887 E0.6515
G1 F692.3 X98.526 Y80.178 E0.72506
G1 F691 X99.121 Y80.707 E0.79749
G1 F688.3 X99.51 Y81.405 E0.87046
G1 F689.7 X99.637 Y82.146 E0.93899
G1 F684.4 X99.631 Y82.322 E0.95517
G1 F774.2 X99.411 Y83.01 E1.01382
G1 F900 X99.034 Y83.644 E1.06534
G1 X98.423 Y84.137 E1.12017
G1 X97.669 Y84.395 E1.17583
G0 F3000 X97.634 Y83.989
;TYPE:WALL-OUTER
G1 F900 X96.979 Y83.982 E1.22159
G1 X96.359 Y83.742 E1.26802
G1 X95.893 Y83.333 E1.31133
G1 X95.579 Y82.775 E1.35605
G1 X95.475 Y82.114 E1.40279
G1 X95.603 Y81.487 E1.44748
G1 X95.927 Y80.949 E1.49135
G1 X96.429 Y80.542 E1.53649
G1 X97.052 Y80.335 E1.58234
G1 X97.662 Y80.344 E1.62495
G1 X98.264 Y80.568 E1.66981
G1 X98.751 Y80.984 E1.71455
G1 X99.078 Y81.56 E1.76081
G1 X99.181 Y82.201 E1.80616
G1 X99.049 Y82.84 E1.85173
G1 X98.726 Y83.379 E1.89562
G1 X98.221 Y83.788 E1.94101
G1 X97.634 Y83.989 E1.98435
G0 F3000 X97.434 Y83.987
G0 X97.422 Y84.69
G0 X107.812 Y94.851
G0 X108.26 Y95.514
G0 X108.586 Y96.245
G0 X108.781 Y97.022
G0 X108.837 Y97.821
G0 X108.754 Y98.617
G0 X108.184 Y100.106
G0 X107.713 Y100.755
G0 X106.474 Y101.758
G0 X105.743 Y102.084
G0 X104.246 Y102.39
G0 X104.197 Y101.692
G1 F900 X103.47 Y101.616 E2.0354
G1 X102.841 Y101.435 E2.08112
G1 X102.228 Y101.139 E2.12867
G1 X101.67 Y100.739 E2.17662
G1 X101.176 Y100.23 E2.22616
G1 X100.793 Y99.665 E2.27384
G1 X100.519 Y99.057 E2.32042
G1 X100.345 Y98.374 E2.36965
G1 X100.297 Y97.677 E2.41844
G1 X100.364 Y97.016 E2.46485
G1 X100.552 Y96.344 E2.51359
G1 X100.848 Y95.728 E2.56132
G1 X101.253 Y95.165 E2.60976
G1 X101.746 Y94.684 E2.65787
G1 X102.328 Y94.291 E2.70692
G1 X102.974 Y94.003 E2.75632
G1 X103.609 Y93.844 E2.80205
G1 X104.295 Y93.795 E2.85008
G1 X104.997 Y93.866 E2.89936
G1 X105.653 Y94.053 E2.94701
G1 X106.265 Y94.349 E2.99449
G1 X106.832 Y94.758 E3.04332
G1 X107.316 Y95.259 E3.09198
G1 X107.701 Y95.83 E3.14008
G1 X107.979 Y96.451 E3.1876
G1 X108.147 Y97.119 E3.23571
G1 X108.195 Y97.812 E3.28423
G1 X108.119 Y98.513 E3.33348
G1 X107.934 Y99.156 E3.38021
G1 X107.634 Y99.774 E3.4282
G1 X107.233 Y100.328 E3.47596
G1 X106.734 Y100.811 E3.52447
G1 X106.159 Y101.198 E3.57288
G1 X105.516 Y101.484 E3.62203
G1 X104.885 Y101.642 E3.66747
G1 X104.197 Y101.692 E3.71565
G0 F3000 X103.998 Y101.672
G0 X103.924 Y102.37
G0 X107.274 Y114.915
G0 X107.788 Y115.39
G1 F900 X108.37 Y114.992 E3.7649
G1 X109.031 Y114.806 E3.81286
G1 X109.713 Y114.832 E3.86053
G1 X110.18 Y114.968 E3.8945
G1 X111.689 Y115.811 E4.01523
G1 X112.219 Y116.049 E4.05581
G1 X112.787 Y116.192 E4.09672
G1 X113.354 Y116.236 E4.13644
G1 X113.936 Y116.176 E4.17731
G1 X114.474 Y116.023 E4.21638
G1 X115.006 Y115.767 E4.25761
G1 X115.469 Y115.432 E4.29753
G1 X115.867 Y115.024 E4.33734
G1 X116.189 Y114.549 E4.37742
G1 X116.423 Y114.028 E4.41731
G1 X116.568 Y113.456 E4.45853
G1 X116.61 Y112.895 E4.49782
G1 X116.55 Y112.313 E4.53869
G1 X116.397 Y111.775 E4.57775
G1 X116.141 Y111.243 E4.61899
G1 X115.806 Y110.78 E4.65891
G1 X115.398 Y110.381 E4.69877
G1 X114.916 Y110.054 E4.73945
G1 X114.058 Y109.568 E4.80832
G1 X113.746 Y109.272 E4.83836
G1 X113.501 Y108.951 E4.86657
G1 X113.228 Y108.31 E4.91523
G1 X113.173 Y107.97 E4.93929
G1 X113.224 Y107.271 E4.98824
G1 X113.505 Y106.609 E5.03847
G1 X114.729 Y105.037 E5.17763
G1 X115.573 Y103.623 E5.29264
G1 X116.221 Y102.132 E5.40619
G1 X116.679 Y100.553 E5.52103
G1 X116.929 Y98.95 E5.63434
G1 X116.972 Y97.318 E5.74837
G1 X116.806 Y95.68 E5.86337
G1 X116.434 Y94.087 E5.97763
G1 X115.867 Y92.566 E6.091
G1 X115.107 Y91.12 E6.2051
G1 X114.159 Y89.774 E6.32009
G1 X113.066 Y88.574 E6.43346
G1 X111.82 Y87.518 E6.54754
G1 X110.448 Y86.628 E6.66177
G1 X108.969 Y85.918 E6.77636
G1 X107.412 Y85.404 E6.89088
G1 X105.815 Y85.095 E7.0045
G1 X104.172 Y84.989 E7.11949
G1 X102.579 Y84.987 E7.23076
G1 X102.111 Y84.873 E7.2644
G1 X101.803 Y84.741 E7.28781
G1 X101.246 Y84.331 E7.33611
G1 X100.853 Y83.782 E7.38327
G1 X100.711 Y83.424 E7.41017
G1 X100.618 Y83.011 E7.43974
G1 X100.625 Y82.225 E7.49464
G1 X100.585 Y81.655 E7.53455
G1 X100.442 Y81.081 E7.57587
G1 X100.209 Y80.562 E7.6156
G1 X99.888 Y80.086 E7.6557
G1 X99.488 Y79.671 E7.69596
G1 X99.029 Y79.339 E7.73553
G1 X98.505 Y79.084 E7.77623
G1 X97.96 Y78.927 E7.81585
G1 X97.379 Y78.866 E7.85665
G1 X96.812 Y78.908 E7.89636
G1 X96.243 Y79.049 E7.93731
G1 X95.723 Y79.281 E7.97708
G1 X95.248 Y79.602 E8.01712
G1 X94.833 Y80.003 E8.05743
G1 X94.501 Y80.462 E8.09699
G1 X94.246 Y80.985 E8.13763
G1 X94.089 Y81.531 E8.17732
G1 X94.027 Y82.124 E8.21896
G1 X94.012 Y83.054 E8.28393
G1 X93.864 Y83.587 E8.32256
G1 X93.7 Y83.924 E8.34874
G1 X93.485 Y84.221 E8.37435
G1 X93.231 Y84.473 E8.39934
G1 X92.904 Y84.7 E8.42714
G1 X92.541 Y84.864 E8.45497
G1 X92.178 Y84.958 E8.48116
G1 X91.841 Y84.988 E8.50479
G1 X83.509 Y84.989 E9.08675
G1 X83.311 Y85.061 E9.10146
G1 X83.16 Y85.186 E9.11515
G1 X83.063 Y85.351 E9.12852
G1 X83.031 Y85.523 E9.14074
G1 X83.107 Y85.815 E9.16182
G1 X83.321 Y86.025 E9.18276
G1 X85.744 Y87.027 E9.3659
G1 X88.01 Y88.188 E9.54373
G1 X90.179 Y89.531 E9.72192
G1 X92.222 Y91.037 E9.89919
G1 X94.148 Y92.712 E10.07748
G1 X95.924 Y94.533 E10.25514
G1 X97.563 Y96.507 E10.43435
G1 X99.027 Y98.604 E10.61298
G1 X100.33 Y100.835 E10.79344
G1 X101.39 Y103.039 E10.96426
G1 X102.318 Y105.438 E11.14392
G1 X103.036 Y107.873 E11.32123
G1 X103.561 Y110.392 E11.50096
G1 X103.874 Y112.88 E11.6761
G1 X103.985 Y115.434 E11.85466
G1 X103.89 Y117.983 E12.03282
G1 X103.587 Y120.589 E12.21607
G1 X103.621 Y120.773 E12.22913
G1 X103.722 Y120.941 E12.24283
G1 X103.869 Y121.062 E12.25612
G1 X104.042 Y121.124 E12.26896
G1 X104.225 Y121.122 E12.28174
G1 X104.495 Y120.992 E12.30267
G1 X104.626 Y120.834 E12.31701
G1 X107.505 Y115.693 E12.72856
G1 X107.788 Y115.39 E12.75752
G0 F3000 X107.953 Y115.278
G0 X107.562 Y114.692
G0 X108.957 Y114.163
G0 X109.814 Y114.195
G0 X111.371 Y114.91
G0 X113.146 Y115.476
G0 X113.279 Y114.792
G1 F900 X112.665 Y114.67 E12.80124
G1 X112.365 Y114.529 E12.8244
G1 X111.871 Y114.105 E12.86987
G1 X111.557 Y113.524 E12.91599
G1 X111.482 Y113.213 E12.93834
G1 X111.496 Y112.574 E12.98298
G1 X111.72 Y111.99 E13.02667
G1 X111.926 Y111.712 E13.05084
G1 X112.416 Y111.314 E13.09493
G1 X113.015 Y111.111 E13.1391
G1 X113.67 Y111.118 E13.18486
G1 X114.241 Y111.337 E13.22757
G1 X114.532 Y111.547 E13.25264
G1 X114.935 Y112.042 E13.29722
G1 X115.14 Y112.656 E13.34243
G1 X115.161 Y112.983 E13.36532
G1 X115.036 Y113.609 E13.40991
G1 X114.894 Y113.899 E13.43246
G1 X114.47 Y114.38 E13.47724
G1 X113.929 Y114.681 E13.52049
G1 X113.279 Y114.792 E13.56654
G0 F3000 X113.083 Y114.754
G0 X113.328 Y115.249
;TYPE:WALL-INNER
G1 F688.3 X112.532 Y115.113 E13.64029
G1 F680.5 X112.023 Y114.857 E13.69292
G1 F720 X111.53 Y114.315 E13.75689
G1 F800 X111.185 Y113.69 E13.81298
G1 F865.4 X111.083 Y113.244 E13.84622
G1 F900 X111.092 Y112.519 E13.89686
G1 X111.371 Y111.794 E13.95112
G1 X111.686 Y111.391 E13.98685
G1 F895.5 X112.223 Y110.957 E14.03531
G1 F884.5 X112.97 Y110.708 E14.09127
G1 F867.5 X113.636 Y110.707 E14.13953
G1 F727.3 X113.872 Y110.676 E14.16011
G1 F656.9 X114.428 Y110.913 E14.21794
G1 F689.7 X114.854 Y111.217 E14.26565
G1 F695 X115.33 Y111.795 E14.33337
G1 F691 X115.578 Y112.495 E14.40093
G1 X115.62 Y113.017 E14.44858
G1 F693.6 X115.496 Y113.69 E14.51059
G1 X115.275 Y114.158 E14.5575
G1 F692.3 X114.782 Y114.728 E14.62593
G1 F689.7 X114.089 Y115.122 E14.69859
G1 X113.328 Y115.249 E14.76891
G0 F3000 X113.364 Y115.485
G0 X111.981 Y115.242
G0 X110.405 Y114.363
G0 X108.957 Y114.163
G0 X108.099 Y114.405
G0 X106.951 Y115.265
G0 X107.168 Y115.466
G1 F900 X107.599 Y115.029 E14.81178
G1 X108.203 Y114.623 E14.86262
G1 X109.003 Y114.404 E14.92055
G1 X109.724 Y114.431 E14.97094
G1 X110.307 Y114.581 E15.01299
G1 X111.186 Y115.072 E15.08331
G1 F770.9 X111.718 Y115.291 E15.13023
G1 F680.5 X111.897 Y115.398 E15.14949
G1 F687 X112.371 Y115.611 E15.19704
G1 F681.8 X112.862 Y115.73 E15.24362
G1 X113.348 Y115.773 E15.2886
G1 F680.5 X113.847 Y115.716 E15.33499
G1 X114.31 Y115.589 E15.37934
G1 X114.766 Y115.364 E15.42631
G1 X115.166 Y115.081 E15.47157
G1 X115.503 Y114.727 E15.51672
G1 F681.8 X115.784 Y114.323 E15.56209
G1 F688.3 X115.985 Y113.876 E15.60685
G1 F681.8 X116.105 Y113.381 E15.65381
G1 F680.5 X116.146 Y112.902 E15.69822
G1 F687 X116.095 Y112.401 E15.7443
G1 F680.5 X115.958 Y111.941 E15.78863
G1 X115.742 Y111.481 E15.83557
G1 X115.451 Y111.086 E15.88089
G1 X115.105 Y110.741 E15.92603
G1 F685.7 X114.662 Y110.443 E15.97497
G1 F712.9 X114.075 Y110.143 E16.0331
G1 F814.5 X113.47 Y109.562 E16.09784
G1 F900 X113.135 Y109.111 E16.13708
G1 X112.859 Y108.475 E16.18551
G1 X112.769 Y107.97 E16.22133
G1 X112.834 Y107.151 E16.27872
G1 X113.159 Y106.4 E16.33587
G1 X114.398 Y104.811 E16.47661
G1 X115.216 Y103.44 E16.58812
G1 X115.844 Y101.996 E16.6981
G1 X116.288 Y100.466 E16.80938
G1 X116.53 Y98.914 E16.91909
G1 X116.572 Y97.333 E17.02955
G1 X116.41 Y95.746 E17.14098
G1 X116.05 Y94.203 E17.25164
G1 X115.501 Y92.73 E17.36144
G1 X114.765 Y91.329 E17.47198
G1 X113.846 Y90.025 E17.5834
G1 X112.788 Y88.862 E17.69322
G1 X111.581 Y87.84 E17.80368
G1 X110.252 Y86.978 E17.91432
G1 X108.819 Y86.29 E18.02535
G1 X107.311 Y85.792 E18.13628
G1 X105.764 Y85.493 E18.24633
G1 X104.159 Y85.389 E18.35867
G1 X102.544 Y85.389 E18.47147
G1 X101.97 Y85.247 E18.51277
G1 X101.609 Y85.091 E18.54024
G1 X100.954 Y84.615 E18.59679
G1 X100.509 Y83.987 E18.65055
G1 X100.321 Y83.512 E18.68623
G1 X100.228 Y83.099 E18.7158
G1 F774.2 X100.158 Y82.375 E18.77486
G1 F683.1 X100.163 Y82.237 E18.78757
G1 F680.5 X100.122 Y81.728 E18.83474
G1 X100.004 Y81.232 E18.88183
G1 X99.799 Y80.79 E18.92684
G1 X99.528 Y80.377 E18.97247
G1 X99.18 Y80.026 E19.01812
G1 X98.791 Y79.736 E19.06294
G1 F681.8 X98.337 Y79.522 E19.10922
G1 X97.872 Y79.382 E19.15399
G1 X97.372 Y79.335 E19.20029
G1 X96.885 Y79.365 E19.24528
G1 X96.396 Y79.493 E19.29188
G1 F680.5 X95.948 Y79.686 E19.33694
G1 F679.2 X95.544 Y79.967 E19.38248
G1 X95.183 Y80.307 E19.42838
G1 F680.5 X94.903 Y80.703 E19.47318
G1 X94.677 Y81.151 E19.51953
G1 F681.8 X94.55 Y81.62 E19.56432
G1 F680.5 X94.489 Y82.152 E19.61379
G1 F683.1 X94.49 Y82.279 E19.62547
G1 F774.2 X94.415 Y82.852 E19.6724
G1 F900 X94.405 Y83.144 E19.6928
G1 X94.261 Y83.665 E19.73056
G1 X94.079 Y84.065 E19.76125
G1 X93.787 Y84.483 E19.79687
G1 X93.45 Y84.811 E19.82971
G1 X93.096 Y85.051 E19.85959
G1 X92.74 Y85.216 E19.88699
G1 X92.316 Y85.338 E19.91781
G1 X91.877 Y85.386 E19.94865
G1 X83.579 Y85.389 E20.52824
G1 X83.441 Y85.508 E20.54097
G1 X83.515 Y85.672 E20.55353
G1 X85.926 Y86.671 E20.73582
G1 X88.178 Y87.824 E20.91253
G1 X90.416 Y89.209 E21.09635
G1 X92.451 Y90.708 E21.27289
G1 X94.434 Y92.432 E21.45642
G1 X96.211 Y94.253 E21.63414
G1 X97.861 Y96.238 E21.81442
G1 X99.373 Y98.402 E21.99881
G1 X99.516 Y98.649 E22.01875
G1 F737.7 X99.93 Y99.183 E22.07632
G1 F649.8 X100.052 Y99.291 E22.09208
G1 F772.5 X99.941 Y98.366 E22.16789
G1 F900 X99.894 Y97.684 E22.21564
G1 X99.971 Y96.925 E22.26893
G1 X100.181 Y96.185 E22.32265
G1 X100.511 Y95.506 E22.37538
G1 X100.959 Y94.889 E22.42864
G1 X101.476 Y94.389 E22.47888
G1 X102.112 Y93.954 E22.5327
G1 X102.832 Y93.628 E22.5879
G1 X103.558 Y93.444 E22.64021
G1 X104.346 Y93.396 E22.69535
G1 X105.073 Y93.473 E22.74641
G1 X105.779 Y93.673 E22.79767
G1 X106.499 Y94.023 E22.85358
G1 X107.09 Y94.452 E22.90459
G1 X107.628 Y95.009 E22.95868
G1 X108.055 Y95.644 E23.01213
G1 X108.354 Y96.311 E23.06318
G1 X108.544 Y97.056 E23.11688
G1 X108.595 Y97.822 E23.1705
G1 X108.52 Y98.55 E23.22162
G1 X108.311 Y99.291 E23.2754
G1 X107.978 Y99.979 E23.32878
G1 X107.549 Y100.574 E23.38002
G1 X106.985 Y101.123 E23.43499
G1 X106.385 Y101.529 E23.48559
G1 X105.663 Y101.86 E23.54107
G1 X104.899 Y102.044 E23.59596
G1 X104.173 Y102.095 E23.64679
G1 X103.411 Y102.014 E23.70031
G1 X102.688 Y101.808 E23.75282
G1 X102.006 Y101.476 E23.8058
G1 X101.435 Y101.063 E23.85502
G1 X101.355 Y100.993 E23.86245
G1 F782.6 X100.765 Y100.554 E23.92152
G1 X100.977 Y101.256 E23.98042
G1 F900 X101.763 Y102.894 E24.10732
G1 X102.696 Y105.305 E24.28789
G1 X103.422 Y107.767 E24.46717
G1 X103.958 Y110.342 E24.65088
G1 X104.272 Y112.844 E24.827
G1 X104.385 Y115.399 E25.00563
G1 X104.291 Y117.982 E25.18617
G1 X103.987 Y120.612 E25.37109
G1 X104.069 Y120.708 E25.3799
G1 X104.132 Y120.722 E25.38441
G1 X104.264 Y120.66 E25.3946
G1 X107.168 Y115.466 E25.81023
G0 F3000 X106.951 Y115.265
G0 X101.976 Y102.783
G0 X101.12 Y101.058
G0 X100.775 Y100.562
G1 F583.5 X100.365 Y99.915 E25.89276
G1 F573.2 X100.034 Y99.275 E25.97177
G0 F3000 X99.796 Y98.704
G0 X99.654 Y97.685
G0 X99.735 Y96.878
G0 X99.956 Y96.102
G0 X100.306 Y95.381
G0 X100.777 Y94.732
G0 X102.016 Y93.729
G0 X102.747 Y93.403
G0 X103.524 Y93.208
G0 X105.118 Y93.235
G0 X105.888 Y93.455
G0 X107.255 Y94.276
G0 X107.812 Y94.851
G0 X108.26 Y95.514
G0 X108.586 Y96.245
G0 X108.781 Y97.022
G0 X106.862 Y115.234
;TYPE:SKIN
G1 F900 X104.505 Y119.454 E26.30938
G1 X104.665 Y118.077 E26.4062
G1 X104.765 Y115.46 E26.58913
G1 X104.651 Y112.797 E26.7753
G1 X104.324 Y110.227 E26.95625
G1 X103.8 Y107.709 E27.13589
G1 X103.06 Y105.194 E27.319
G1 X102.116 Y102.752 E27.50186
G1 X101.581 Y101.638 E27.58818
G1 X101.801 Y101.797 E27.60714
G1 X102.545 Y102.158 E27.6649
G1 X103.347 Y102.39 E27.72321
G1 X104.187 Y102.475 E27.78218
G1 X105.013 Y102.416 E27.84002
G1 X105.768 Y102.227 E27.89438
G1 X106.535 Y101.881 E27.95316
G1 X107.227 Y101.416 E28.01139
G1 X107.823 Y100.844 E28.06909
G1 X108.304 Y100.175 E28.12664
G1 X108.654 Y99.459 E28.1823
G1 X108.889 Y98.651 E28.24108
G1 X108.975 Y97.831 E28.29866
G1 X108.917 Y96.987 E28.35775
G1 X108.711 Y96.177 E28.41613
G1 X108.394 Y95.469 E28.47031
G1 X107.918 Y94.759 E28.53002
G1 X107.337 Y94.161 E28.58825
G1 X106.687 Y93.692 E28.64424
G1 X105.898 Y93.311 E28.70543
G1 X105.145 Y93.1 E28.76005
G1 X104.383 Y93.017 E28.81359
G1 X103.495 Y93.067 E28.87571
G1 X102.72 Y93.261 E28.93151
G1 X101.942 Y93.613 E28.99116
G1 X101.273 Y94.059 E29.04732
G1 X100.662 Y94.65 E29.10669
G1 X100.195 Y95.293 E29.1622
G1 X99.833 Y96.03 E29.21955
G1 X99.595 Y96.865 E29.28019
G1 X99.514 Y97.667 E29.33649
G1 X99.532 Y97.968 E29.35756
G1 X98.163 Y96.006 E29.52466
G1 X96.485 Y93.989 E29.70791
G1 X94.674 Y92.134 E29.88899
G1 X92.687 Y90.409 E30.07277
G1 X90.64 Y88.901 E30.25036
G1 X88.423 Y87.526 E30.43257
G1 X86.097 Y86.33 E30.61525
G1 X84.735 Y85.768 E30.71816
G1 X91.833 Y85.768 E31.21393
G1 X92.285 Y85.731 E31.24561
G1 X92.866 Y85.574 E31.28764
G1 X93.232 Y85.407 E31.31574
G1 X93.668 Y85.122 E31.35212
G1 X94.032 Y84.78 E31.38701
G1 X94.33 Y84.387 E31.42146
G1 X94.616 Y83.8 E31.46707
G1 X94.776 Y83.226 E31.50869
G1 X94.798 Y82.884 E31.53262
G1 X94.852 Y83.067 E31.54595
G1 X95.275 Y83.836 E31.60725
G1 X95.977 Y84.434 E31.67166
G1 X96.826 Y84.76 E31.73518
G1 X97.742 Y84.771 E31.79917
G1 X98.595 Y84.478 E31.86216
G1 X99.327 Y83.899 E31.92735
G1 X99.754 Y83.176 E31.986
G1 X99.814 Y82.999 E31.99905
G1 X99.986 Y83.716 E32.05055
G1 X100.168 Y84.154 E32.08368
G1 X100.675 Y84.883 E32.1457
G1 X101.363 Y85.388 E32.20531
G1 X101.861 Y85.614 E32.24351
G1 X102.48 Y85.764 E32.288
G1 X104.144 Y85.77 E32.40422
G1 X105.719 Y85.872 E32.51446
G1 X107.209 Y86.16 E32.62046
G1 X108.676 Y86.643 E32.72833
G1 X110.065 Y87.311 E32.83599
G1 X111.358 Y88.15 E32.94364
G1 X112.528 Y89.141 E33.05074
G1 X113.545 Y90.259 E33.1563
