;FLAVOR:Marlin
;TIME:6637
;Filament used: 4.83334m
;Layer height: 0.2
;MINX:67.914
;MINY:70.096
;MINZ:0.25
;MAXX:132.088
;MAXY:129.903
;MAXZ:11.55
;TARGET_MACHINE.NAME:XYZprinting da Vinci 1.0 Pro
;Generated with Cura_SteamEngine 5.6.0
M140 S45
M105
M190 S45
M104 S190
M105
M109 S190
M82 ;absolute extrusion mode
G28 ; home all axes
G1 Z15 F5000 ; lift nozzle
G92 E0
G1 F200 E3

G92 E0
G92 E0
G1 F1800 E-4
;LAYER_COUNT:57
;LAYER:0
M106 S255
G0 F3000 X73.092 Y83.689 Z0.35
;TYPE:SKIRT
G1 F1800 E0
G1 X73.532 Y83.373 E0.03784
G1 X74.015 Y83.141 E0.07526
G1 X74.543 Y82.993 E0.11356
G1 X75.079 Y82.939 E0.15119
G1 X75.611 Y82.979 E0.18845
G1 X76.139 Y83.115 E0.22654
G1 X76.627 Y83.335 E0.26392
G1 X77.073 Y83.639 E0.30162
G1 X77.463 Y84.021 E0.33975
G1 X77.774 Y84.454 E0.37699
G1 X78.008 Y84.939 E0.4146
G1 X78.155 Y85.466 E0.45282
G1 X78.209 Y86 E0.4903
G1 X78.17 Y86.533 E0.52763
G1 X78.033 Y87.062 E0.5658
G1 X77.812 Y87.552 E0.60334
G1 X77.507 Y87.999 E0.64114
G1 X77.133 Y88.383 E0.67858
G1 X76.692 Y88.699 E0.71647
G1 X76.212 Y88.931 E0.75371
G1 X75.682 Y89.079 E0.79215
G1 X75.146 Y89.133 E0.82977
G1 X74.614 Y89.093 E0.86704
G1 X74.086 Y88.957 E0.90512
G1 X73.598 Y88.737 E0.94251
G1 X73.152 Y88.433 E0.98021
G1 X72.761 Y88.052 E1.01834
G1 X72.45 Y87.617 E1.05569
G1 X72.217 Y87.133 E1.09321
G1 X72.07 Y86.607 E1.13135
G1 X72.016 Y86.068 E1.16919
G1 X72.056 Y85.537 E1.20638
G1 X72.19 Y85.012 E1.24423
G1 X72.414 Y84.517 E1.28218
G1 X72.718 Y84.072 E1.31982
G1 X73.092 Y83.689 E1.35721
G0 F3000 X73.352 Y83.995
G1 F1800 X73.735 Y83.72 E1.39014
G1 X74.159 Y83.516 E1.42301
G1 X74.616 Y83.388 E1.45615
G1 X75.083 Y83.341 E1.48894
G1 X75.55 Y83.376 E1.52165
G1 X76.001 Y83.492 E1.55417
G1 X76.432 Y83.686 E1.58719
G1 X76.822 Y83.952 E1.62016
G1 X77.157 Y84.281 E1.65295
G1 X77.428 Y84.657 E1.68533
G1 X77.634 Y85.085 E1.7185
G1 X77.76 Y85.537 E1.75128
G1 X77.807 Y86.005 E1.78413
G1 X77.773 Y86.47 E1.81669
G1 X77.656 Y86.924 E1.84944
G1 X77.461 Y87.357 E1.88261
G1 X77.196 Y87.745 E1.91543
G1 X76.869 Y88.08 E1.94813
G1 X76.487 Y88.354 E1.98096
G1 X76.07 Y88.555 E2.01329
G1 X75.609 Y88.684 E2.04673
G1 X75.142 Y88.731 E2.07951
G1 X74.675 Y88.696 E2.11222
G1 X74.224 Y88.58 E2.14475
G1 X73.792 Y88.385 E2.17785
G1 X73.403 Y88.12 E2.21073
G1 X73.067 Y87.792 E2.24353
G1 X72.797 Y87.414 E2.27597
G1 X72.591 Y86.987 E2.30908
G1 X72.465 Y86.534 E2.34193
G1 X72.418 Y86.064 E2.37492
G1 X72.452 Y85.599 E2.40748
G1 X72.568 Y85.146 E2.44014
G1 X72.762 Y84.717 E2.47303
G1 X73.031 Y84.323 E2.50635
G1 X73.352 Y83.995 E2.53841
G0 F3000 X73.613 Y84.3
G1 F1800 X73.941 Y84.065 E2.56659
G1 X74.303 Y83.891 E2.59464
G1 X74.69 Y83.782 E2.62273
G1 X75.087 Y83.743 E2.65059
G1 X75.483 Y83.772 E2.67832
G1 X75.874 Y83.873 E2.70653
G1 X76.235 Y84.036 E2.73419
G1 X76.563 Y84.259 E2.7619
G1 X76.851 Y84.541 E2.79005
G1 X77.084 Y84.865 E2.81792
G1 X77.258 Y85.226 E2.84591
G1 X77.366 Y85.611 E2.87384
G1 X77.406 Y86.011 E2.90192
G1 X77.377 Y86.407 E2.92965
G1 X77.277 Y86.792 E2.95744
G1 X77.11 Y87.162 E2.98579
G1 X76.886 Y87.49 E3.01353
G1 X76.609 Y87.774 E3.04124
G1 X76.286 Y88.006 E3.06902
G1 X75.922 Y88.182 E3.09726
G1 X75.537 Y88.29 E3.12519
G1 X75.138 Y88.329 E3.15319
G1 X74.742 Y88.3 E3.18092
G1 X74.351 Y88.199 E3.20913
G1 X73.99 Y88.036 E3.23679
G1 X73.661 Y87.812 E3.26459
G1 X73.371 Y87.529 E3.2929
G1 X73.142 Y87.21 E3.32032
G1 X72.966 Y86.843 E3.34875
G1 X72.859 Y86.461 E3.37646
G1 X72.819 Y86.059 E3.40468
G1 X72.848 Y85.665 E3.43227
G1 X72.947 Y85.28 E3.46004
G1 X73.116 Y84.908 E3.48858
G1 X73.338 Y84.581 E3.51618
G1 X73.613 Y84.3 E3.54364
G1 F1800 E-0.45636
G0 F3000 X95.548 Y90.491
G1 F1800 E3.54364
G1 X97.933 Y88.443 E3.76322
G1 X100.901 Y89.483 E3.98288
G1 X101.486 Y92.577 E4.20281
G1 X99.101 Y94.626 E4.42243
G1 X96.133 Y93.586 E4.64209
G1 X95.548 Y90.491 E4.86209
G0 F3000 X95.984 Y90.644
G1 F1800 X98.019 Y88.896 E5.04947
G1 X100.551 Y89.783 E5.23686
G1 X101.05 Y92.424 E5.42458
G1 X99.015 Y94.173 E5.612
G1 X96.483 Y93.286 E5.79939
G1 X95.984 Y90.644 E5.98719
G0 F3000 X96.42 Y90.798
G1 F1800 X98.105 Y89.351 E6.14232
G1 X100.201 Y90.085 E6.29743
G1 X100.614 Y92.272 E6.45289
G1 X98.93 Y93.719 E6.60797
G1 X96.833 Y92.984 E6.76317
G1 X96.42 Y90.798 E6.91856
G1 F1800 E2.91856
G0 F3000 X121.748 Y86.214
G1 F1800 E6.91856
G1 X121.694 Y85.676 E6.95632
G1 X121.734 Y85.145 E6.99352
G1 X121.868 Y84.619 E7.03143
G1 X122.09 Y84.129 E7.069
G1 X122.397 Y83.679 E7.10705
G1 X122.775 Y83.293 E7.14479
G1 X123.211 Y82.98 E7.18227
G1 X123.693 Y82.747 E7.21967
G1 X124.217 Y82.601 E7.25766
G1 X124.758 Y82.547 E7.29563
G1 X125.289 Y82.587 E7.33283
G1 X125.815 Y82.721 E7.37074
G1 X126.305 Y82.943 E7.40831
G1 X126.753 Y83.249 E7.44621
G1 X127.139 Y83.626 E7.48389
G1 X127.454 Y84.063 E7.52152
G1 X127.687 Y84.546 E7.55898
G1 X127.833 Y85.07 E7.59697
G1 X127.887 Y85.608 E7.63474
G1 X127.847 Y86.142 E7.67214
G1 X127.713 Y86.668 E7.71005
G1 X127.491 Y87.158 E7.74762
G1 X127.186 Y87.604 E7.78536
G1 X126.809 Y87.993 E7.8232
G1 X126.374 Y88.305 E7.86059
G1 X125.883 Y88.54 E7.89861
G1 X125.361 Y88.686 E7.93647
G1 X124.823 Y88.74 E7.97423
G1 X124.292 Y88.7 E8.01143
G1 X123.766 Y88.566 E8.04934
G1 X123.276 Y88.344 E8.08691
G1 X122.829 Y88.038 E8.12475
G1 X122.441 Y87.662 E8.16249
G1 X122.129 Y87.227 E8.19988
G1 X121.894 Y86.736 E8.2379
G1 X121.748 Y86.214 E8.27576
G0 F3000 X122.143 Y86.14
G1 F1800 X122.096 Y85.672 E8.30861
G1 X122.13 Y85.206 E8.34124
G1 X122.246 Y84.753 E8.37391
G1 X122.438 Y84.329 E8.40642
G1 X122.71 Y83.93 E8.44014
G1 X123.035 Y83.599 E8.47254
G1 X123.416 Y83.325 E8.50532
G1 X123.836 Y83.122 E8.53791
G1 X124.289 Y82.996 E8.57075
G1 X124.762 Y82.949 E8.60395
G1 X125.228 Y82.983 E8.63658
G1 X125.681 Y83.099 E8.66924
G1 X126.105 Y83.291 E8.70175
G1 X126.498 Y83.56 E8.73502
G1 X126.834 Y83.887 E8.76776
G1 X127.109 Y84.27 E8.8007
G1 X127.313 Y84.692 E8.83344
G1 X127.438 Y85.143 E8.86612
G1 X127.485 Y85.613 E8.89911
G1 X127.451 Y86.081 E8.93189
G1 X127.335 Y86.534 E8.96455
G1 X127.142 Y86.959 E8.99715
G1 X126.875 Y87.35 E9.03022
G1 X126.545 Y87.69 E9.06332
G1 X126.17 Y87.96 E9.09559
G1 X125.742 Y88.164 E9.12871
G1 X125.287 Y88.291 E9.1617
G1 X124.819 Y88.338 E9.19456
G1 X124.353 Y88.304 E9.22719
G1 X123.9 Y88.188 E9.25985
G1 X123.475 Y87.995 E9.29245
G1 X123.084 Y87.728 E9.32552
G1 X122.744 Y87.398 E9.35862
G1 X122.474 Y87.023 E9.39089
G1 X122.27 Y86.595 E9.42401
G1 X122.143 Y86.14 E9.457
G0 F3000 X122.537 Y86.067
G1 F1800 X122.497 Y85.667 E9.48508
G1 X122.526 Y85.273 E9.51268
G1 X122.625 Y84.887 E9.54051
G1 X122.792 Y84.52 E9.56867
G1 X123.017 Y84.189 E9.59663
G1 X123.295 Y83.905 E9.62438
G1 X123.621 Y83.671 E9.65241
G1 X123.984 Y83.496 E9.68056
G1 X124.361 Y83.391 E9.70789
G1 X124.767 Y83.35 E9.7364
G1 X125.161 Y83.379 E9.76399
G1 X125.547 Y83.478 E9.79182
G1 X125.914 Y83.645 E9.81999
G1 X126.244 Y83.869 E9.84784
G1 X126.529 Y84.149 E9.87575
G1 X126.764 Y84.474 E9.90376
G1 X126.938 Y84.834 E9.93169
G1 X127.043 Y85.214 E9.95923
G1 X127.084 Y85.618 E9.98759
G1 X127.055 Y86.014 E10.01532
G1 X126.956 Y86.4 E10.04315
G1 X126.791 Y86.764 E10.07107
G1 X126.564 Y87.096 E10.09916
G1 X126.283 Y87.385 E10.12731
G1 X125.962 Y87.616 E10.15494
G1 X125.601 Y87.788 E10.18287
G1 X125.214 Y87.897 E10.21095
G1 X124.814 Y87.937 E10.23903
G1 X124.42 Y87.908 E10.26662
G1 X124.034 Y87.809 E10.29445
G1 X123.67 Y87.644 E10.32237
G1 X123.338 Y87.417 E10.35046
G1 X123.049 Y87.136 E10.37861
G1 X122.818 Y86.815 E10.40624
G1 X122.646 Y86.454 E10.43417
G1 X122.537 Y86.067 E10.46225
G1 F1800 E6.46225
G0 F3000 X99.918 Y121.144
G1 F1800 E10.46225
G1 X100.365 Y121.45 E10.50009
G1 X100.753 Y121.826 E10.53782
G1 X101.065 Y122.261 E10.57521
G1 X101.3 Y122.752 E10.61323
G1 X101.446 Y123.274 E10.65109
G1 X101.5 Y123.808 E10.68858
G1 X101.46 Y124.343 E10.72605
G1 X101.326 Y124.869 E10.76397
G1 X101.104 Y125.359 E10.80154
G1 X100.798 Y125.807 E10.83943
G1 X100.419 Y126.195 E10.87732
G1 X99.983 Y126.508 E10.9148
G1 X99.501 Y126.741 E10.9522
G1 X98.977 Y126.887 E10.99019
G1 X98.436 Y126.941 E11.02816
G1 X97.905 Y126.901 E11.06536
G1 X97.379 Y126.767 E11.10327
G1 X96.889 Y126.545 E11.14084
G1 X96.441 Y126.239 E11.17874
G1 X96.053 Y125.86 E11.21662
G1 X95.74 Y125.424 E11.25411
G1 X95.507 Y124.942 E11.2915
G1 X95.361 Y124.418 E11.3295
G1 X95.307 Y123.877 E11.36747
G1 X95.347 Y123.346 E11.40466
G1 X95.481 Y122.82 E11.44258
G1 X95.703 Y122.33 E11.48015
G1 X96.009 Y121.883 E11.51799
G1 X96.385 Y121.495 E11.55572
G1 X96.82 Y121.183 E11.59311
G1 X97.311 Y120.948 E11.63113
G1 X97.833 Y120.802 E11.66899
G1 X98.371 Y120.748 E11.70676
G1 X98.902 Y120.788 E11.74395
G1 X99.428 Y120.922 E11.78187
G1 X99.918 Y121.144 E11.81944
G0 F3000 X99.719 Y121.493
G1 F1800 X100.11 Y121.76 E11.85251
G1 X100.45 Y122.09 E11.8856
G1 X100.72 Y122.465 E11.91788
G1 X100.924 Y122.893 E11.95099
G1 X101.051 Y123.347 E11.98392
G1 X101.098 Y123.813 E12.01664
G1 X101.064 Y124.282 E12.04948
G1 X100.948 Y124.735 E12.08214
G1 X100.756 Y125.159 E12.11465
G1 X100.487 Y125.552 E12.14791
G1 X100.156 Y125.892 E12.18106
G1 X99.778 Y126.163 E12.21354
G1 X99.358 Y126.366 E12.24613
G1 X98.905 Y126.492 E12.27897
G1 X98.432 Y126.539 E12.31217
G1 X97.966 Y126.505 E12.3448
G1 X97.513 Y126.389 E12.37746
G1 X97.089 Y126.197 E12.40997
G1 X96.696 Y125.928 E12.44324
G1 X96.356 Y125.597 E12.47638
G1 X96.085 Y125.219 E12.50887
G1 X95.882 Y124.799 E12.54145
G1 X95.756 Y124.346 E12.57429
G1 X95.709 Y123.873 E12.60749
G1 X95.743 Y123.407 E12.64012
G1 X95.859 Y122.954 E12.67279
G1 X96.052 Y122.529 E12.70539
G1 X96.319 Y122.138 E12.73846
G1 X96.649 Y121.798 E12.77155
G1 X97.024 Y121.528 E12.80383
G1 X97.452 Y121.324 E12.83694
G1 X97.907 Y121.197 E12.86994
G1 X98.375 Y121.15 E12.90279
G1 X98.841 Y121.184 E12.93543
G1 X99.294 Y121.3 E12.96809
G1 X99.719 Y121.493 E13.00069
G0 F3000 X99.524 Y121.844
G1 F1800 X99.856 Y122.071 E13.02878
G1 X100.145 Y122.352 E13.05693
G1 X100.376 Y122.673 E13.08456
G1 X100.548 Y123.034 E13.11249
G1 X100.657 Y123.421 E13.14057
G1 X100.697 Y123.819 E13.16851
G1 X100.668 Y124.215 E13.19624
G1 X100.569 Y124.601 E13.22407
G1 X100.402 Y124.968 E13.25224
G1 X100.178 Y125.298 E13.28009
G1 X99.898 Y125.584 E13.30805
G1 X99.573 Y125.817 E13.33598
G1 X99.21 Y125.992 E13.36413
G1 X98.833 Y126.097 E13.39146
G1 X98.427 Y126.138 E13.41996
G1 X98.033 Y126.109 E13.44756
G1 X97.647 Y126.01 E13.47539
G1 X97.28 Y125.843 E13.50355
G1 X96.95 Y125.619 E13.53141
G1 X96.664 Y125.339 E13.55937
G1 X96.431 Y125.014 E13.5873
G1 X96.256 Y124.651 E13.61545
G1 X96.151 Y124.274 E13.64278
G1 X96.11 Y123.868 E13.67128
G1 X96.139 Y123.474 E13.69888
G1 X96.238 Y123.088 E13.72671
G1 X96.403 Y122.724 E13.75462
G1 X96.63 Y122.392 E13.78271
G1 X96.911 Y122.103 E13.81087
G1 X97.232 Y121.872 E13.83849
G1 X97.593 Y121.7 E13.86642
G1 X97.98 Y121.591 E13.8945
G1 X98.38 Y121.551 E13.92258
G1 X98.774 Y121.58 E13.95018
G1 X99.16 Y121.679 E13.97801
G1 X99.524 Y121.844 E14.00592
G0 F3000 X99.332 Y122.198
;TYPE:SUPPORT
G1 F900 X99.604 Y122.384 Z0.25 E14.02997
G1 X99.838 Y122.61 E14.0527
G1 X100.028 Y122.873 E14.07536
G1 X100.177 Y123.184 E14.09944
G1 X100.26 Y123.486 E14.12132
G1 X100.295 Y123.824 E14.14505
G1 X100.271 Y124.144 E14.16747
G1 X100.189 Y124.469 E14.19088
G1 X100.049 Y124.777 E14.21451
G1 X99.867 Y125.043 E14.23702
G1 X99.639 Y125.277 E14.25984
G1 X99.377 Y125.466 E14.28241
G1 X99.063 Y125.618 E14.30677
G1 X98.762 Y125.701 E14.32858
G1 X98.422 Y125.736 E14.35245
G1 X98.099 Y125.71 E14.37509
G1 X97.779 Y125.63 E14.39813
G1 X97.471 Y125.49 E14.42176
G1 X97.205 Y125.308 E14.44427
G1 X96.968 Y125.077 E14.46738
G1 X96.781 Y124.817 E14.48975
G1 X96.63 Y124.504 E14.51403
G1 X96.547 Y124.203 E14.53584
G1 X96.512 Y123.863 E14.55971
G1 X96.536 Y123.544 E14.58205
G1 X96.618 Y123.22 E14.6054
G1 X96.757 Y122.916 E14.62874
G1 X96.943 Y122.644 E14.65176
G1 X97.169 Y122.41 E14.67448
G1 X97.432 Y122.22 E14.69714
G1 X97.743 Y122.071 E14.72123
G1 X98.045 Y121.988 E14.74311
G1 X98.385 Y121.953 E14.76698
G1 X98.708 Y121.979 E14.78961
G1 X99.028 Y122.059 E14.81265
G1 X99.332 Y122.198 E14.836
G0 F3000 X99.676 Y122.682
G1 F900 X97.151 Y122.682 E15.01236
G1 F1800 E11.01236
G0 F3000 X98.679 Y122.162
G1 F1800 E15.01236
G1 F900 X98.679 Y125.529 E15.24753
G0 F3000 X99.206 Y125.349
G1 F900 X97.548 Y125.349 E15.36334
G1 F1800 E11.36334
G0 F3000 X97.548 Y125.349 Z0.35
G0 X98.844 Y93.264
G1 F1800 E15.36334
G1 F900 X97.182 Y92.682 Z0.25 E15.48653
G1 X96.857 Y90.95 E15.60962
G1 X98.191 Y89.806 E15.73236
G1 X99.852 Y90.387 E15.85527
G1 X100.178 Y92.118 E15.9783
G1 X98.844 Y93.264 E16.10113
G0 F3000 X98.679 Y93.036
G1 F900 X98.679 Y90.147 E16.30292
G1 F1800 E12.30292
G0 F3000 X99.745 Y90.678
G1 F1800 E16.30292
G1 F900 X97.421 Y90.678 E16.46524
G1 F1800 E12.46524
G0 F3000 X97.421 Y90.678 Z0.35
G0 X76.98 Y86.337
G1 F1800 E16.46524
G1 F900 X76.898 Y86.658 Z0.25 E16.48941
G1 X76.754 Y86.973 E16.51361
G1 X76.576 Y87.235 E16.53573
G1 X76.351 Y87.465 E16.5582
G1 X76.082 Y87.66 E16.58141
G1 X75.777 Y87.806 E16.60503
G1 X75.466 Y87.894 E16.6276
G1 X75.135 Y87.927 E16.65084
G1 X74.804 Y87.901 E16.67403
G1 X74.491 Y87.822 E16.69657
G1 X74.181 Y87.681 E16.72036
G1 X73.912 Y87.498 E16.74308
G1 X73.68 Y87.272 E16.76571
G1 X73.49 Y87.008 E16.78842
G1 X73.341 Y86.698 E16.81245
G1 X73.256 Y86.39 E16.83477
G1 X73.221 Y86.053 E16.85843
G1 X73.245 Y85.737 E16.88056
G1 X73.328 Y85.41 E16.90413
G1 X73.469 Y85.099 E16.92798
G1 X73.651 Y84.834 E16.95043
G1 X73.869 Y84.609 E16.97232
G1 X74.145 Y84.411 E16.99604
G1 X74.452 Y84.263 E17.01985
G1 X74.755 Y84.179 E17.04181
G1 X75.09 Y84.146 E17.06532
G1 X75.421 Y84.171 E17.0885
G1 X75.734 Y84.25 E17.11105
G1 X76.044 Y84.391 E17.13484
G1 X76.308 Y84.57 E17.15712
G1 X76.545 Y84.801 E17.18023
G1 X76.739 Y85.071 E17.20345
G1 X76.884 Y85.372 E17.22679
G1 X76.969 Y85.681 E17.24917
G1 X77.004 Y86.016 E17.2727
G1 X76.98 Y86.337 E17.29518
G1 F1800 E13.29518
G0 F3000 X76.684 Y85.344
G1 F1800 E17.29518
G1 F900 X73.534 Y85.344 E17.5152
G1 F1800 E13.5152
G0 F3000 X74.676 Y84.382
G1 F1800 E17.5152
G1 F900 X74.676 Y87.691 E17.74632
G1 F1800 E13.74632
G0 F3000 X74.676 Y87.691 Z0.35
G0 X122.899 Y85.662
G1 F1800 E17.74632
G1 F900 X122.923 Y85.343 Z0.25 E17.76973
G1 X123.005 Y85.019 E17.79307
G1 X123.145 Y84.713 E17.81658
G1 X123.325 Y84.448 E17.83895
G1 X123.562 Y84.206 E17.86261
G1 X123.817 Y84.022 E17.88457
G1 X124.131 Y83.87 E17.90894
G1 X124.432 Y83.787 E17.93075
G1 X124.772 Y83.752 E17.95462
G1 X125.095 Y83.778 E17.97726
G1 X125.415 Y83.858 E18.00029
G1 X125.723 Y83.998 E18.02393
G1 X125.985 Y84.177 E18.04609
G1 X126.225 Y84.411 E18.0695
G1 X126.414 Y84.673 E18.09206
G1 X126.564 Y84.982 E18.11606
G1 X126.647 Y85.285 E18.138
G1 X126.682 Y85.623 E18.16173
G1 X126.658 Y85.943 E18.18415
G1 X126.576 Y86.268 E18.20756
G1 X126.437 Y86.572 E18.23091
G1 X126.251 Y86.845 E18.25398
G1 X126.025 Y87.078 E18.27665
G1 X125.762 Y87.268 E18.29931
G1 X125.451 Y87.417 E18.3234
G1 X125.149 Y87.5 E18.34527
G1 X124.809 Y87.535 E18.36915
G1 X124.486 Y87.509 E18.39178
G1 X124.166 Y87.429 E18.41482
G1 X123.862 Y87.291 E18.43814
G1 X123.59 Y87.104 E18.46119
G1 X123.356 Y86.877 E18.48396
G1 X123.166 Y86.615 E18.50657
G1 X123.017 Y86.304 E18.53066
G1 X122.934 Y86.002 E18.55253
G1 X122.899 Y85.662 E18.57641
G0 F3000 X123.112 Y85.344
G1 F900 X126.471 Y85.344 E18.81102
G1 F1800 E14.81102
G0 F3000 X125.349 Y84.008
G1 F1800 E18.81102
G1 F900 X125.349 Y87.276 E19.03928
G1 F1800 E15.03928
;MESH:right_gearbox_2_V1_1.stl
G0 F3000 X125.349 Y87.276 Z0.35
G0 X125.606 Y89.969
G0 X124.878 Y90.543
G0 X124.85 Y90.245
;TYPE:WALL-INNER
G1 F1800 E19.03928
G1 F900 X124.081 Y90.189 E19.09313
G1 X123.271 Y89.989 E19.15141
G1 X122.521 Y89.644 E19.20907
G1 X121.879 Y89.207 E19.26331
G1 X121.313 Y88.654 E19.31858
G1 X120.817 Y87.963 E19.37799
G1 X120.498 Y87.298 E19.42951
G1 X120.272 Y86.504 E19.48717
G1 X120.189 Y85.699 E19.54369
G1 X120.246 Y84.925 E19.5979
G1 X120.46 Y84.091 E19.65804
G1 X120.782 Y83.387 E19.71211
G1 X121.231 Y82.728 E19.76781
G1 X121.79 Y82.157 E19.82362
G1 X122.459 Y81.677 E19.88113
G1 X123.164 Y81.338 E19.93577
G1 X123.942 Y81.121 E19.99218
G1 X124.739 Y81.042 E20.04812
G1 X125.538 Y81.101 E20.10408
G1 X126.315 Y81.299 E20.16009
