;FLAVOR:Marlin
;TIME:12000
;Filament used: 7.83638m
;Layer height: 0.2
;MINX:67.911
;MINY:70.097
;MINZ:0.25
;MAXX:132.086
;MAXY:129.902
;MAXZ:22.95
;TARGET_MACHINE.NAME:XYZprinting da Vinci 1.0 Pro
;Generated with Cura_SteamEngine 5.6.0
M140 S45
M105
M190 S45
M104 S190
M105
M109 S190
M82 ;absolute extrusion mode
G28 ; home all axes
G1 Z15 F5000 ; lift nozzle
G92 E0
G1 F200 E3

G92 E0
G92 E0
G1 F1800 E-4
;LAYER_COUNT:114
;LAYER:0
M106 S255
G0 F3000 X73.852 Y82.805 Z0.35
;TYPE:SKIRT
G1 F1800 E0
G1 X76.988 Y83.049 E0.2197
G1 X78.347 Y85.887 E0.43948
G1 X76.566 Y88.483 E0.65937
G1 X73.43 Y88.239 E0.87907
G1 X72.071 Y85.401 E1.09885
G1 X73.852 Y82.805 E1.31874
G0 F3000 X74.051 Y83.222
G1 F1800 X76.727 Y83.43 E1.50621
G1 X77.886 Y85.851 E1.69369
G1 X76.367 Y88.066 E1.88128
G1 X73.691 Y87.858 E2.06875
G1 X72.532 Y85.437 E2.25623
G1 X74.051 Y83.222 E2.44382
G0 F3000 X74.251 Y83.639
G1 F1800 X76.465 Y83.811 E2.59893
G1 X77.425 Y85.815 E2.75413
G1 X76.167 Y87.649 E2.90947
G1 X73.953 Y87.477 E3.06457
G1 X72.993 Y85.473 E3.21978
G1 X74.251 Y83.639 E3.37512
G1 F1800 E-0.62488
G0 F3000 X72.118 Y121.381
G1 F1800 E3.37512
G1 X75.256 Y121.625 E3.59496
G1 X76.613 Y124.463 E3.81467
G1 X74.832 Y127.06 E4.03462
G1 X71.696 Y126.816 E4.25432
G1 X70.338 Y123.976 E4.4742
G1 X72.118 Y121.381 E4.69399
G0 F3000 X72.317 Y121.798
G1 F1800 X74.994 Y122.006 E4.88153
G1 X76.152 Y124.427 E5.06898
G1 X74.633 Y126.643 E5.25663
G1 X71.958 Y126.435 E5.44403
G1 X70.799 Y124.012 E5.63163
G1 X72.317 Y121.798 E5.81913
G0 F3000 X72.517 Y122.215
G1 F1800 X74.733 Y122.387 E5.97438
G1 X75.691 Y124.391 E6.12952
G1 X74.433 Y126.226 E6.28491
G1 X72.219 Y126.054 E6.44002
G1 X71.26 Y124.048 E6.59532
G1 X72.517 Y122.215 E6.75056
G1 F1800 E2.75056
G0 F3000 X98.458 Y123.602
G1 F1800 E6.75056
G1 X100.239 Y121.006 E6.97045
G1 X103.377 Y121.25 E7.19029
G1 X104.734 Y124.088 E7.41001
G1 X102.953 Y126.684 E7.6299
G1 X99.817 Y126.44 E7.8496
G1 X98.458 Y123.602 E8.06938
G0 F3000 X98.919 Y123.638
G1 F1800 X100.438 Y121.423 E8.25697
G1 X103.115 Y121.631 E8.44451
G1 X104.273 Y124.052 E8.63196
G1 X102.754 Y126.267 E8.81955
G1 X100.078 Y126.059 E9.00702
G1 X98.919 Y123.638 E9.1945
G0 F3000 X99.38 Y123.674
G1 F1800 X100.638 Y121.84 E9.34984
G1 X102.854 Y122.012 E9.50508
G1 X103.812 Y124.016 E9.66023
G1 X102.554 Y125.85 E9.81556
G1 X100.34 Y125.678 E9.97067
G1 X99.38 Y123.674 E10.12587
G1 F1800 E6.12587
G0 F3000 X122.577 Y88.174
G1 F1800 E10.12587
G1 X121.882 Y85.105 E10.34566
G1 X124.192 Y82.968 E10.56546
G1 X127.198 Y83.9 E10.78527
G1 X127.892 Y86.968 E11.00498
G1 X125.583 Y89.105 E11.22472
G1 X122.577 Y88.174 E11.44452
G0 F3000 X122.917 Y87.861
G1 F1800 X122.323 Y85.241 E11.63216
G1 X124.294 Y83.419 E11.81964
G1 X126.858 Y84.214 E12.00713
G1 X127.452 Y86.832 E12.19464
G1 X125.481 Y88.655 E12.38216
G1 X122.917 Y87.861 E12.56964
G0 F3000 X123.255 Y87.547
G1 F1800 X122.764 Y85.378 E12.72497
G1 X124.396 Y83.869 E12.88022
G1 X126.52 Y84.527 E13.03553
G1 X127.01 Y86.695 E13.19077
G1 X125.379 Y88.204 E13.34597
G1 X123.255 Y87.547 E13.50126
G0 F3000 X123.595 Y87.234
;TYPE:SUPPORT
G1 F900 X123.206 Y85.517 Z0.25 E13.62442
G1 X124.5 Y84.321 E13.7475
G1 X126.179 Y84.841 E13.87026
G1 X126.567 Y86.556 E13.99308
G1 X125.274 Y87.752 E14.1161
G1 X123.595 Y87.234 E14.23883
G1 F1800 E10.23883
G0 F3000 X125.349 Y87.465
G1 F1800 E14.23883
G1 F900 X125.349 Y84.753 E14.42825
G0 F3000 X126.129 Y85.344
G1 F900 X123.629 Y85.344 E14.60287
G1 F1800 E10.60287
G0 F3000 X123.629 Y85.344 Z0.35
G0 X102.591 Y122.393
G1 F1800 E14.60287
G1 F900 X102.591 Y122.393 Z0.25 E14.60985
G1 X103.351 Y123.983 E14.73294
G1 X102.356 Y125.433 E14.85577
G1 X100.602 Y125.297 E14.97865
G1 X99.841 Y123.709 E15.10164
G1 X100.837 Y122.257 E15.22462
G1 X102.591 Y122.393 E15.3475
G0 F3000 X102.551 Y122.682
G1 F900 X100.74 Y122.682 E15.47399
G0 F3000 X101.346 Y122.458
G1 F900 X101.346 Y125.194 E15.66509
G1 F1800 E11.66509
G0 F3000 X101.346 Y125.194 Z0.35
G0 X75.23 Y124.358
G1 F1800 E15.66509
G1 F900 X74.234 Y125.809 Z0.25 E15.78822
G1 X72.482 Y125.673 E15.91096
G1 X71.721 Y124.082 E16.03414
G1 X72.716 Y122.632 E16.15697
G1 X74.47 Y122.769 E16.27985
G1 X75.23 Y124.358 E16.40288
G0 F3000 X74.676 Y124.883
G1 F900 X74.676 Y123.572 E16.49445
G1 F1800 E12.49445
G0 F3000 X74.354 Y125.349
G1 F1800 E16.49445
G1 F900 X72.503 Y125.349 E16.62373
G1 F1800 E12.62373
G0 F3000 X72.009 Y124.313
G1 F1800 E16.62373
G1 F900 X72.009 Y123.944 E16.64951
G1 F1800 E12.64951
G0 F3000 X72.009 Y123.944 Z0.35
G0 X74.215 Y87.096
G1 F1800 E16.64951
G1 F900 X73.454 Y85.508 Z0.25 E16.7727
G1 X74.449 Y84.056 E16.89564
G1 X76.203 Y84.192 E17.01852
G1 X76.964 Y85.781 E17.14158
G1 X75.969 Y87.232 E17.26446
G1 X74.215 Y87.096 E17.38734
G0 F3000 X74.676 Y86.97
G1 F900 X74.676 Y84.235 E17.57837
G1 F1800 E13.57837
G0 F3000 X73.761 Y85.344
G1 F1800 E17.57837
G1 F900 X76.578 Y85.344 E17.77513
G1 F1800 E13.77513
;MESH:right_gearbox_1_V1_1.stl
G0 F3000 X76.578 Y85.344 Z0.35
G0 X78.229 Y86.477
G0 X79.106 Y87.078
G0 X77.163 Y90.333
G0 X77.189 Y89.995
;TYPE:WALL-INNER
G1 F1800 E17.77513
G1 F900 X76.967 Y90.019 E17.79073
G1 X72.713 Y89.689 E18.08874
G1 X72.408 Y89.511 E18.11341
G1 X72.301 Y89.356 E18.12656
G1 X70.468 Y85.527 E18.42307
G1 X70.435 Y85.284 E18.4402
G1 X70.54 Y84.98 E18.46266
G1 X72.909 Y81.528 E18.75509
G1 X73.07 Y81.369 E18.77089
G1 X73.264 Y81.284 E18.78569
G1 X73.451 Y81.269 E18.79879
G1 X77.642 Y81.595 E19.0924
G1 X77.959 Y81.728 E19.11641
G1 X78.107 Y81.912 E19.13291
G1 X79.942 Y85.748 E19.42991
G1 X79.976 Y86.065 E19.45218
G1 X79.878 Y86.308 E19.47048
G1 X77.49 Y89.787 E19.76521
G1 X77.345 Y89.921 E19.779
G1 X77.189 Y89.995 E19.79106
G0 F3000 X77.036 Y89.623
;TYPE:WALL-OUTER
G1 F900 X72.786 Y89.288 E20.08883
G1 X72.682 Y89.226 E20.09729
G1 X70.843 Y85.379 E20.39511
G1 X70.842 Y85.247 E20.40433
G1 X73.269 Y81.711 E20.70389
G1 X73.377 Y81.665 E20.71208
G1 X77.633 Y82 E21.01027
G1 X77.733 Y82.068 E21.01872
G1 X79.57 Y85.894 E21.31515
G1 X79.562 Y86.059 E21.32669
G1 X77.157 Y89.561 E21.62342
G1 X77.036 Y89.623 E21.63292
G0 F3000 X76.837 Y89.608
G0 X76.783 Y90.303
G0 X80.342 Y86.042
G0 X81.253 Y80.57
G0 X81.125 Y79.883
G1 F900 X80.653 Y79.888 E21.66589
G1 X80.258 Y79.822 E21.69386
G1 X79.809 Y79.664 E21.7271
G1 X79.44 Y79.45 E21.7569
G1 X79.096 Y79.165 E21.7881
G1 X78.843 Y78.87 E21.81524
G1 X78.599 Y78.453 E21.84899
G1 X78.459 Y78.082 E21.87669
G1 X78.378 Y77.659 E21.90677
G1 X78.373 Y77.186 E21.93981
G1 X78.439 Y76.79 E21.96785
G1 X78.589 Y76.357 E21.99985
G1 X78.796 Y75.991 E22.02922
G1 X79.076 Y75.649 E22.0601
G1 X79.406 Y75.366 E22.09046
G1 X79.799 Y75.134 E22.12234
G1 X80.179 Y74.991 E22.15069
G1 X80.622 Y74.907 E22.18219
G1 X81.075 Y74.905 E22.21383
G1 X81.471 Y74.971 E22.24187
G1 X81.919 Y75.129 E22.27505
G1 X82.262 Y75.323 E22.30257
G1 X82.629 Y75.625 E22.33577
G1 X82.909 Y75.959 E22.36621
G1 X83.127 Y76.331 E22.39633
G1 X83.27 Y76.711 E22.42469
G1 X83.351 Y77.136 E22.4549
G1 X83.356 Y77.608 E22.48787
G1 X83.29 Y78.003 E22.51585
G1 X83.132 Y78.451 E22.54903
G1 X82.928 Y78.81 E22.57787
G1 X82.658 Y79.14 E22.60765
G1 X82.335 Y79.42 E22.6375
G1 X81.943 Y79.652 E22.66932
G1 X81.55 Y79.802 E22.6987
G1 X81.125 Y79.883 E22.72892
G0 F3000 X80.925 Y79.885
G0 X80.932 Y80.588
G0 X91.805 Y98.486
G0 X93.147 Y100.054
G0 X94.742 Y101.365
G0 X96.54 Y102.38
G0 X98.292 Y102.998
G0 X100.454 Y103.455
G0 X100.569 Y102.766
G1 F900 X98.645 Y102.445 E22.86516
G1 X96.808 Y101.798 E23.00119
G1 X95.102 Y100.835 E23.13803
G1 X93.588 Y99.588 E23.27502
G1 X92.328 Y98.116 E23.41036
G1 X91.336 Y96.436 E23.54663
G1 X90.647 Y94.602 E23.68347
G1 X90.291 Y92.693 E23.81911
G1 X90.274 Y90.714 E23.95734
G1 X90.588 Y88.823 E24.09122
G1 X91.25 Y86.945 E24.23031
G1 X92.2 Y85.265 E24.36511
G1 X93.432 Y83.767 E24.50058
G1 X94.913 Y82.495 E24.63694
G1 X96.621 Y81.487 E24.77546
G1 X98.42 Y80.812 E24.90967
G1 X100.335 Y80.453 E25.04576
G1 X102.321 Y80.434 E25.18448
G1 X104.214 Y80.748 E25.3185
G1 X106.093 Y81.41 E25.45765
G1 X107.756 Y82.35 E25.59108
G1 X109.288 Y83.609 E25.72958
G1 X110.543 Y85.074 E25.86432
G1 X111.543 Y86.765 E26.00153
G1 X112.233 Y88.606 E26.13885
G1 X112.587 Y90.517 E26.2746
G1 X112.606 Y92.465 E26.41067
G1 X112.289 Y94.375 E26.5459
G1 X111.627 Y96.253 E26.68498
G1 X110.682 Y97.925 E26.81913
G1 X109.439 Y99.437 E26.95584
G1 X107.936 Y100.722 E27.09396
G1 X106.256 Y101.71 E27.23009
G1 X104.458 Y102.386 E27.36425
G1 X102.528 Y102.747 E27.50139
G1 X100.569 Y102.766 E27.63823
G0 F3000 X100.372 Y102.734
G0 X100.257 Y103.423
G0 X110.47 Y118.367
G0 X111.088 Y118.687
G1 F900 X115.476 Y111.052 E28.2533
G1 X120.199 Y103.617 E28.86853
G1 X125.243 Y96.393 E29.48392
G1 X130.587 Y89.414 E30.09787
G1 X131.228 Y88.46 E30.17815
G1 X131.695 Y87.423 E30.25759
G1 X131.988 Y86.304 E30.33838
G1 X132.086 Y85.174 E30.4176
G1 X131.995 Y84.043 E30.49686
G1 X131.708 Y82.917 E30.57802
G1 X128.789 Y74.475 E31.20191
G1 X128.221 Y73.422 E31.28548
G1 X127.473 Y72.455 E31.37087
G1 X126.594 Y71.646 E31.45431
G1 X125.573 Y70.977 E31.53957
G1 X124.481 Y70.497 E31.62288
G1 X123.3 Y70.198 E31.70797
G1 X122.1 Y70.099 E31.79207
G1 X80.877 Y70.098 E34.67135
G1 X79.692 Y70.193 E34.75438
G1 X78.539 Y70.478 E34.83734
G1 X77.465 Y70.937 E34.91891
G1 X76.474 Y71.567 E35.00093
G1 X75.582 Y72.36 E35.0843
G1 X74.838 Y73.277 E35.16678
G1 X69.194 Y81.509 E35.86391
G1 X68.623 Y82.497 E35.94362
G1 X68.219 Y83.547 E36.0222
G1 X67.978 Y84.66 E36.10174
G1 X67.912 Y85.789 E36.18073
G1 F897.8 X68.677 Y124.291 E38.87721
G1 X68.763 Y125.127 E38.93605
G1 F900 X68.976 Y125.893 E38.99158
G1 X69.326 Y126.629 E39.04851
G1 X69.792 Y127.294 E39.10522
G1 X70.356 Y127.867 E39.16138
G1 X71.018 Y128.342 E39.21829
G1 X71.741 Y128.696 E39.27452
G1 X72.517 Y128.921 E39.33095
G1 X73.33 Y129.018 E39.38814
G1 X101.396 Y129.902 E41.34942
G1 X102.395 Y129.852 E41.41928
G1 X103.363 Y129.642 E41.48846
G1 X104.286 Y129.275 E41.55784
G1 X105.143 Y128.759 E41.62771
G1 X105.891 Y128.121 E41.69638
G1 X106.527 Y127.369 E41.76517
G1 X107.04 Y126.509 E41.83511
G1 X111.088 Y118.687 E42.45028
G0 F3000 X111.187 Y118.514
G0 X110.584 Y118.167
G0 X106.73 Y124.244
G0 X103.817 Y128.49
G0 X103.428 Y127.824
G1 F900 X99.214 Y127.497 E42.74549
G1 X99.079 Y127.446 E42.75557
G1 X97.229 Y123.576 E43.05518
G1 X97.25 Y123.417 E43.06638
G1 X99.667 Y119.895 E43.36473
G1 X99.807 Y119.869 E43.37468
G1 X104.006 Y120.197 E43.66886
G1 X104.128 Y120.273 E43.67889
G1 X105.952 Y124.082 E43.97387
G1 X105.95 Y124.262 E43.98644
G1 X103.567 Y127.735 E44.28063
G1 X103.428 Y127.824 E44.29216
G0 F3000 X103.229 Y127.809
G0 X103.175 Y128.505
G0 X75.996 Y128.454
G0 X75.308 Y128.196
G1 F900 X71.093 Y127.873 E44.58742
G1 F888.9 X70.96 Y127.824 E44.59745
G1 F869.6 X69.095 Y123.936 E44.90918
G1 F873.8 X69.134 Y123.781 E44.92068
G1 F895.5 X71.505 Y120.33 E45.21459
G1 F900 X71.647 Y120.241 E45.22629
G1 X75.894 Y120.574 E45.52384
G1 X75.999 Y120.644 E45.53265
G1 X77.838 Y124.474 E45.8294
G1 X77.849 Y124.608 E45.8388
G1 X75.446 Y128.111 E46.1355
G1 X75.308 Y128.196 E46.14682
G0 F3000 X75.109 Y128.181
G0 X75.086 Y128.482
G0 X126.378 Y90.821
G0 X125.904 Y90.307
G1 F900 X125.752 Y90.312 E46.15744
G1 X121.72 Y89.054 E46.45245
G1 X121.63 Y88.968 E46.46115
G1 X120.688 Y84.811 E46.75886
G1 X120.74 Y84.661 E46.76995
G1 X123.86 Y81.78 E47.06657
G1 X123.993 Y81.755 E47.07602
G1 X128.065 Y83.017 E47.37378
G1 X128.149 Y83.129 E47.38356
G1 X129.083 Y87.236 E47.67774
G1 X129.065 Y87.384 E47.68815
G1 X125.904 Y90.307 E47.98886
G0 F3000 X125.752 Y90.312
G0 X125.707 Y90.298
G0 X125.5 Y90.963
G0 X121.108 Y89.533
G0 X119.969 Y84.512
G0 X122.335 Y80.586
G0 X122.328 Y79.886
G1 F900 X121.89 Y79.888 E48.01946
G1 X121.495 Y79.822 E48.04743
G1 X121.047 Y79.665 E48.08059
G1 X120.674 Y79.45 E48.11066
G1 X120.358 Y79.19 E48.13924
G1 X120.07 Y78.857 E48.16999
G1 X119.838 Y78.462 E48.20199
G1 X119.697 Y78.088 E48.2299
G1 X119.614 Y77.649 E48.26111
G1 X119.61 Y77.186 E48.29345
G1 X119.676 Y76.79 E48.32149
G1 X119.833 Y76.342 E48.35465
G1 X120.049 Y75.967 E48.38487
G1 X120.329 Y75.631 E48.41542
G1 X120.655 Y75.357 E48.44517
G1 X121.042 Y75.132 E48.47643
G1 X121.415 Y74.991 E48.50429
G1 X121.842 Y74.909 E48.53466
G1 X122.296 Y74.903 E48.56637
G1 X122.725 Y74.974 E48.59674
G1 X123.138 Y75.12 E48.62734
G1 X123.51 Y75.33 E48.65717
G1 X123.852 Y75.61 E48.68804
G1 X124.131 Y75.935 E48.71796
G1 X124.353 Y76.306 E48.74816
G1 X124.507 Y76.711 E48.77842
G1 X124.591 Y77.174 E48.81129
G1 X124.595 Y77.572 E48.83909
G1 X124.526 Y78.003 E48.86958
G1 X124.387 Y78.405 E48.89929
G1 X124.172 Y78.795 E48.93039
G1 X123.872 Y79.161 E48.96345
G1 X123.543 Y79.439 E48.99353
G1 X123.159 Y79.661 E49.02451
G1 X122.763 Y79.809 E49.05404
G1 X122.328 Y79.886 E49.08489
G0 F3000 X122.128 Y79.886
G0 X121.87 Y80.292
;TYPE:WALL-INNER
G1 F900 X121.329 Y80.191 E49.12333
G1 X120.85 Y80.013 E49.15903
G1 X120.42 Y79.759 E49.19391
G1 X120.061 Y79.46 E49.22654
G1 X119.728 Y79.066 E49.26257
G1 X119.505 Y78.691 E49.29305
G1 X119.306 Y78.179 E49.33141
G1 X119.219 Y77.713 E49.36452
G1 X119.208 Y77.213 E49.39946
G1 X119.282 Y76.724 E49.434
G1 X119.441 Y76.242 E49.46945
G1 X119.706 Y75.753 E49.5083
G1 X120.069 Y75.327 E49.54739
G1 X120.452 Y75.013 E49.58198
G1 X120.9 Y74.758 E49.61799
G1 X121.377 Y74.588 E49.65336
G1 X121.773 Y74.515 E49.68148
G1 X122.329 Y74.504 E49.72032
G1 X122.823 Y74.586 E49.7553
G1 X123.299 Y74.753 E49.79053
G1 X123.73 Y74.995 E49.82506
G1 X124.123 Y75.316 E49.8605
G1 X124.447 Y75.69 E49.89506
G1 X124.705 Y76.116 E49.92985
G1 X124.885 Y76.58 E49.96461
G1 X124.983 Y77.081 E50.00027
G1 X124.995 Y77.568 E50.03429
G1 X124.92 Y78.069 E50.06967
G1 X124.759 Y78.551 E50.10517
G1 X124.522 Y78.989 E50.13995
G1 X124.172 Y79.432 E50.17939
G1 X123.745 Y79.785 E50.21808
G1 X123.301 Y80.035 E50.25367
G1 X122.825 Y80.205 E50.28898
G1 X122.434 Y80.277 E50.31675
G1 X121.87 Y80.292 E50.35615
G0 F3000 X121.821 Y80.585
G0 X119.969 Y84.512
G0 X121.108 Y89.533
G0 X125.717 Y91.03
G0 X125.813 Y90.72
G1 F900 X125.633 Y90.694 E50.36886
G1 X121.637 Y89.452 E50.66113
G1 X121.438 Y89.345 E50.67691
G1 X121.249 Y89.077 E50.69982
G1 X120.302 Y84.931 E50.99686
G1 X120.291 Y84.732 E51.01078
G1 X120.425 Y84.407 E51.03533
G1 X123.626 Y81.447 E51.33985
G1 X123.874 Y81.359 E51.35823
G1 X124.078 Y81.359 E51.37248
G1 X128.138 Y82.621 E51.66944
G1 X128.309 Y82.706 E51.68278
G1 X128.457 Y82.857 E51.69754
G1 X128.528 Y82.998 E51.70857
G1 X129.475 Y87.157 E52.0065
G1 X129.435 Y87.523 E52.03221
G1 X129.321 Y87.694 E52.04657
G1 X126.22 Y90.561 E52.34155
G1 X126.021 Y90.684 E52.35789
G1 X125.813 Y90.72 E52.37263
G0 F3000 X125.717 Y91.03
G0 X106.549 Y102.282
G0 X104.615 Y103.008
G0 X102.789 Y103.347
G0 X100.483 Y103.46
G0 X100.533 Y103.164
G1 F900 X98.544 Y102.832 E52.51348
G1 X96.633 Y102.158 E52.65501
G1 X94.898 Y101.18 E52.79412
G1 X93.333 Y99.898 E52.93542
G1 X92.01 Y98.358 E53.07723
G1 X90.964 Y96.585 E53.22101
G1 X90.262 Y94.712 E53.36072
G1 X89.894 Y92.744 E53.50056
G1 X89.871 Y90.699 E53.64341
G1 X90.204 Y88.706 E53.78454
G1 X90.87 Y86.815 E53.92457
G1 X91.872 Y85.036 E54.06718
G1 X93.155 Y83.474 E54.20837
G1 X94.689 Y82.16 E54.34945
G1 X96.432 Y81.131 E54.49082
G1 X98.329 Y80.42 E54.63232
G1 X100.306 Y80.052 E54.77278
G1 X102.342 Y80.031 E54.91499
G1 X104.326 Y80.361 E55.05547
G1 X106.247 Y81.038 E55.19773
G1 X107.998 Y82.03 E55.3383
G1 X109.58 Y83.335 E55.48154
G1 X110.891 Y84.873 E55.62269
G1 X111.903 Y86.592 E55.76202
G1 X112.623 Y88.517 E55.90557
G1 X112.983 Y90.457 E56.04339
G1 X113.005 Y92.497 E56.18588
G1 X112.674 Y94.492 E56.32713
G1 X111.999 Y96.407 E56.46895
G1 X111.02 Y98.139 E56.60791
G1 X109.735 Y99.707 E56.74951
G1 X108.187 Y101.038 E56.8921
G1 X106.444 Y102.067 E57.03348
G1 X104.548 Y102.777 E57.17489
G1 X102.566 Y103.145 E57.31569
G1 X100.533 Y103.164 E57.45769
G0 F3000 X100.483 Y103.46
G0 X106.73 Y124.244
G0 X103.817 Y128.49
G0 X103.482 Y128.23
G1 F900 X99.183 Y127.896 E57.75887
G1 X98.87 Y127.778 E57.78223
G1 X98.688 Y127.557 E57.80223
G1 X96.88 Y123.781 E58.09464
G1 X96.826 Y123.444 E58.11848
G1 X96.89 Y123.242 E58.13328
G1 X99.366 Y119.629 E58.4392
G1 X99.62 Y119.493 E58.45933
G1 X99.774 Y119.465 E58.47026
G1 X104.092 Y119.806 E58.7728
G1 X104.231 Y119.855 E58.78309
