;FLAVOR:Marlin
;TIME:9637
;Filament used: 6.92412m
;Layer height: 0.2
;MINX:73.438
;MINY:81.182
;MINZ:0.25
;MAXX:126.559
;MAXY:118.816
;MAXZ:34.75
;TARGET_MACHINE.NAME:XYZprinting da Vinci 1.0 Pro
;Generated with Cura_SteamEngine 5.6.0
M140 S45
M105
M190 S45
M104 S190
M105
M109 S190
M82 ;absolute extrusion mode
G28 ; home all axes
G1 Z15 F5000 ; lift nozzle
G92 E0
G1 F200 E3

G92 E0
G92 E0
G1 F1800 E-4
;LAYER_COUNT:173
;LAYER:0
M106 S255
G0 F3000 X95.577 Y89.109 Z0.35
;TYPE:SKIRT
G1 F1800 E0
G1 X95.838 Y88.855 E0.02544
G1 X96.134 Y88.651 E0.05055
G1 X96.465 Y88.498 E0.07602
G1 X96.812 Y88.408 E0.10105
G1 X97.169 Y88.376 E0.12609
G1 X97.529 Y88.408 E0.15133
G1 X97.878 Y88.499 E0.17652
G1 X98.209 Y88.653 E0.20202
G1 X98.5 Y88.852 E0.22665
G1 X98.763 Y89.108 E0.25228
G1 X98.972 Y89.4 E0.27736
G1 X99.125 Y89.718 E0.30201
G1 X99.227 Y90.07 E0.32761
G1 X99.267 Y90.431 E0.35298
G1 X99.208 Y91.316 E0.41493
G1 X99.239 Y91.437 E0.42365
G1 X99.313 Y91.505 E0.43067
G1 X100.21 Y91.988 E0.50183
G1 X99.889 Y92.362 E0.53625
G1 X99.87 Y92.389 E0.53856
G1 X99.577 Y92.877 E0.57832
G1 X98.83 Y92.177 E0.64982
G1 X98.716 Y92.124 E0.6586
G1 X98.617 Y92.138 E0.66559
G1 X97.793 Y92.475 E0.72777
G1 X97.443 Y92.552 E0.7528
G1 X97.078 Y92.568 E0.77832
G1 X96.724 Y92.522 E0.80325
G1 X96.383 Y92.418 E0.82815
G1 X96.061 Y92.253 E0.85342
G1 X95.772 Y92.037 E0.87862
G1 X95.521 Y91.768 E0.90432
G1 X95.33 Y91.477 E0.92863
G1 X95.182 Y91.139 E0.9544
G1 X95.098 Y90.79 E0.97948
G1 X95.074 Y90.428 E1.00482
G1 X95.113 Y90.071 E1.0299
G1 X95.213 Y89.724 E1.05512
G1 X95.369 Y89.4 E1.08024
G1 X95.577 Y89.109 E1.10522
G0 F3000 X95.883 Y89.369
G1 F1800 X96.092 Y89.165 E1.12562
G1 X96.333 Y88.999 E1.14606
G1 X96.598 Y88.877 E1.16644
G1 X96.877 Y88.804 E1.18658
G1 X97.169 Y88.779 E1.20705
G1 X97.464 Y88.804 E1.22773
G1 X97.739 Y88.876 E1.24758
G1 X98.013 Y89.003 E1.26868
G1 X98.248 Y89.164 E1.28857
G1 X98.457 Y89.368 E1.30897
G1 X98.625 Y89.603 E1.32915
G1 X98.75 Y89.862 E1.34924
G1 X98.834 Y90.155 E1.37053
G1 X98.866 Y90.439 E1.39049
G1 X98.809 Y91.289 E1.44999
G1 X98.835 Y91.506 E1.46526
G1 X98.936 Y91.699 E1.48047
G1 X99.124 Y91.857 E1.49762
G1 X99.584 Y92.104 E1.53409
G1 X99.527 Y92.183 E1.5409
G1 X99.489 Y92.246 E1.54603
G1 X99.103 Y91.885 E1.58295
G1 X98.919 Y91.767 E1.59822
G1 X98.706 Y91.723 E1.61341
G1 X98.466 Y91.768 E1.63046
G1 X97.676 Y92.091 E1.69008
G1 X97.386 Y92.154 E1.7108
G1 X97.1 Y92.167 E1.7308
G1 X96.81 Y92.129 E1.75123
G1 X96.53 Y92.044 E1.77167
G1 X96.274 Y91.913 E1.79175
G1 X96.042 Y91.74 E1.81197
G1 X95.835 Y91.517 E1.83322
G1 X95.684 Y91.288 E1.85238
G1 X95.562 Y91.009 E1.87365
G1 X95.495 Y90.729 E1.89375
G1 X95.475 Y90.436 E1.91427
G1 X95.506 Y90.154 E1.93408
G1 X95.589 Y89.864 E1.95515
G1 X95.714 Y89.605 E1.97524
G1 X95.883 Y89.369 E1.99551
G0 F3000 X96.187 Y89.631
G1 F1800 X96.349 Y89.473 E2.01132
G1 X96.528 Y89.35 E2.02649
G1 X96.735 Y89.255 E2.0424
G1 X96.949 Y89.199 E2.05785
G1 X97.17 Y89.179 E2.07335
G1 X97.393 Y89.199 E2.08898
G1 X97.603 Y89.254 E2.10415
G1 X97.815 Y89.352 E2.12046
G1 X97.992 Y89.473 E2.13543
G1 X98.154 Y89.631 E2.15124
G1 X98.28 Y89.808 E2.16642
G1 X98.376 Y90.007 E2.18185
G1 X98.439 Y90.227 E2.19783
G1 X98.464 Y90.452 E2.21364
G1 X98.41 Y91.262 E2.27034
G1 X98.418 Y91.372 E2.27805
G1 X98.315 Y91.397 E2.28545
G1 X97.555 Y91.708 E2.34281
G1 X97.335 Y91.756 E2.35853
G1 X97.117 Y91.766 E2.37378
G1 X96.889 Y91.736 E2.38984
G1 X96.682 Y91.673 E2.40495
G1 X96.488 Y91.573 E2.4202
G1 X96.309 Y91.439 E2.43581
G1 X96.151 Y91.27 E2.45197
G1 X96.035 Y91.094 E2.4667
G1 X95.943 Y90.884 E2.48271
G1 X95.892 Y90.668 E2.49821
G1 X95.877 Y90.447 E2.51368
G1 X95.901 Y90.226 E2.52921
G1 X95.963 Y90.009 E2.54497
G1 X96.059 Y89.811 E2.56034
G1 X96.187 Y89.631 E2.57577
G1 F1800 E-1.42423
G0 F3000 X107.179 Y87.944
G1 F1800 E2.57577
G1 X107.121 Y87.592 E2.60069
G1 X107.126 Y87.226 E2.62625
G1 X107.195 Y86.859 E2.65234
G1 X107.323 Y86.524 E2.67738
G1 X107.514 Y86.204 E2.70341
G1 X107.746 Y85.931 E2.72844
G1 X108.027 Y85.701 E2.7538
G1 X108.354 Y85.521 E2.77987
G1 X108.701 Y85.399 E2.80556
G1 X109.051 Y85.341 E2.83034
G1 X109.424 Y85.346 E2.8564
G1 X109.78 Y85.414 E2.88171
G1 X110.12 Y85.541 E2.90706
G1 X110.44 Y85.733 E2.93313
G1 X110.713 Y85.968 E2.95829
G1 X110.946 Y86.253 E2.984
G1 X111.123 Y86.567 E3.00917
G1 X111.243 Y86.913 E3.03475
G1 X111.302 Y87.276 E3.06044
G1 X111.298 Y87.64 E3.08587
G1 X111.229 Y87.999 E3.1114
G1 X111.1 Y88.344 E3.13713
G1 X110.913 Y88.658 E3.16265
G1 X110.678 Y88.93 E3.18776
G1 X110.387 Y89.168 E3.21402
G1 X110.077 Y89.343 E3.23888
G1 X109.731 Y89.463 E3.26446
G1 X109.368 Y89.522 E3.29015
G1 X109.004 Y89.518 E3.31557
G1 X108.644 Y89.449 E3.34118
G1 X108.305 Y89.322 E3.36646
G1 X107.984 Y89.13 E3.39259
G1 X107.706 Y88.892 E3.41815
G1 X107.482 Y88.617 E3.44292
G1 X107.299 Y88.289 E3.46915
G1 X107.179 Y87.944 E3.49467
G0 F3000 X107.569 Y87.847
G1 F1800 X107.522 Y87.56 E3.51498
G1 X107.525 Y87.266 E3.53552
G1 X107.582 Y86.968 E3.55671
G1 X107.685 Y86.697 E3.57696
G1 X107.838 Y86.44 E3.59785
G1 X108.027 Y86.218 E3.61821
G1 X108.252 Y86.034 E3.63851
G1 X108.52 Y85.886 E3.6599
G1 X108.797 Y85.788 E3.68042
G1 X109.082 Y85.742 E3.70058
G1 X109.383 Y85.745 E3.72161
G1 X109.668 Y85.8 E3.74188
G1 X109.95 Y85.905 E3.7629
G1 X110.203 Y86.057 E3.78351
G1 X110.425 Y86.247 E3.80392
G1 X110.613 Y86.478 E3.82473
G1 X110.757 Y86.732 E3.84512
G1 X110.854 Y87.011 E3.86575
G1 X110.902 Y87.306 E3.88663
G1 X110.899 Y87.599 E3.90709
G1 X110.843 Y87.887 E3.92758
G1 X110.737 Y88.17 E3.94869
G1 X110.585 Y88.425 E3.96943
G1 X110.396 Y88.644 E3.98963
G1 X110.16 Y88.837 E4.01093
G1 X109.912 Y88.977 E4.03082
G1 X109.633 Y89.074 E4.05145
G1 X109.338 Y89.122 E4.07232
G1 X109.044 Y89.119 E4.09286
G1 X108.756 Y89.063 E4.11335
G1 X108.474 Y88.957 E4.13439
G1 X108.22 Y88.806 E4.15503
G1 X107.993 Y88.611 E4.17594
G1 X107.813 Y88.39 E4.19584
G1 X107.665 Y88.125 E4.21704
G1 X107.569 Y87.847 E4.23759
G0 F3000 X107.959 Y87.749
G1 F1800 X107.922 Y87.529 E4.25317
G1 X107.925 Y87.305 E4.26882
G1 X107.967 Y87.08 E4.2848
G1 X108.047 Y86.872 E4.30037
G1 X108.168 Y86.669 E4.31687
G1 X108.308 Y86.504 E4.33199
G1 X108.474 Y86.369 E4.34693
G1 X108.684 Y86.253 E4.36369
G1 X108.897 Y86.178 E4.37946
G1 X109.114 Y86.142 E4.39483
G1 X109.343 Y86.145 E4.41082
G1 X109.564 Y86.187 E4.42653
G1 X109.772 Y86.265 E4.44205
G1 X109.969 Y86.383 E4.45809
G1 X110.136 Y86.526 E4.47345
G1 X110.281 Y86.704 E4.48948
G1 X110.394 Y86.904 E4.50553
G1 X110.464 Y87.106 E4.52046
G1 X110.501 Y87.337 E4.5368
G1 X110.499 Y87.558 E4.55224
G1 X110.456 Y87.783 E4.56824
G1 X110.377 Y87.994 E4.58397
G1 X110.261 Y88.189 E4.59982
G1 X110.115 Y88.358 E4.61542
G1 X109.94 Y88.501 E4.6312
G1 X109.74 Y88.614 E4.64725
G1 X109.538 Y88.684 E4.66218
G1 X109.307 Y88.721 E4.67852
G1 X109.085 Y88.719 E4.69403
G1 X108.861 Y88.676 E4.70996
G1 X108.654 Y88.598 E4.72541
G1 X108.453 Y88.478 E4.74176
G1 X108.279 Y88.329 E4.75776
G1 X108.146 Y88.166 E4.77245
G1 X108.033 Y87.964 E4.78862
G1 X107.959 Y87.749 E4.8045
G1 F1800 E0.8045
G0 F3000 X116.693 Y87.674
G1 F1800 E4.8045
G1 X116.795 Y87.139 E4.84254
G1 X116.982 Y86.642 E4.87963
G1 X117.262 Y86.172 E4.91784
G1 X117.61 Y85.769 E4.95503
G1 X118.033 Y85.422 E4.99325
G1 X118.504 Y85.159 E5.03093
G1 X119.016 Y84.98 E5.06881
G1 X119.538 Y84.894 E5.10576
G1 X120.082 Y84.901 E5.14376
G1 X120.617 Y85.003 E5.1818
G1 X121.114 Y85.19 E5.21889
G1 X121.584 Y85.47 E5.2571
G1 X121.987 Y85.818 E5.29429
G1 X122.334 Y86.241 E5.33251
G1 X122.598 Y86.712 E5.37022
G1 X122.777 Y87.223 E5.40804
G1 X122.862 Y87.746 E5.44505
G1 X122.855 Y88.29 E5.48305
G1 X122.753 Y88.825 E5.52109
G1 X122.566 Y89.323 E5.55824
G1 X122.284 Y89.796 E5.59671
G1 X121.935 Y90.201 E5.63405
G1 X121.518 Y90.541 E5.67163
G1 X121.048 Y90.805 E5.70928
G1 X120.532 Y90.985 E5.74745
G1 X120.01 Y91.07 E5.78439
G1 X119.466 Y91.063 E5.82239
G1 X118.931 Y90.961 E5.86043
G1 X118.433 Y90.774 E5.89759
G1 X117.96 Y90.492 E5.93605
G1 X117.555 Y90.143 E5.97339
G1 X117.215 Y89.726 E6.01097
G1 X116.95 Y89.255 E6.04872
G1 X116.771 Y88.741 E6.08673
G1 X116.686 Y88.218 E6.12374
G1 X116.693 Y87.674 E6.16174
G0 F3000 X117.092 Y87.715
G1 F1800 X117.181 Y87.251 E6.19474
G1 X117.347 Y86.811 E6.22759
G1 X117.586 Y86.408 E6.26031
G1 X117.89 Y86.056 E6.2928
G1 X118.26 Y85.753 E6.3262
G1 X118.67 Y85.523 E6.35904
G1 X119.11 Y85.37 E6.39158
G1 X119.569 Y85.295 E6.42406
G1 X120.041 Y85.3 E6.45703
G1 X120.505 Y85.389 E6.49003
G1 X120.945 Y85.555 E6.52288
G1 X121.348 Y85.794 E6.5556
G1 X121.7 Y86.098 E6.58809
G1 X122.003 Y86.468 E6.62149
G1 X122.232 Y86.877 E6.65423
G1 X122.388 Y87.32 E6.68704
G1 X122.461 Y87.777 E6.71936
G1 X122.456 Y88.249 E6.75233
G1 X122.367 Y88.713 E6.78533
G1 X122.201 Y89.154 E6.81824
G1 X121.961 Y89.558 E6.85106
G1 X121.656 Y89.913 E6.88375
G1 X121.29 Y90.211 E6.91672
G1 X120.881 Y90.44 E6.94946
G1 X120.438 Y90.595 E6.98224
G1 X119.979 Y90.669 E7.01471
G1 X119.507 Y90.664 E7.04768
G1 X119.043 Y90.575 E7.08068
G1 X118.602 Y90.409 E7.11359
G1 X118.196 Y90.168 E7.14657
G1 X117.843 Y89.864 E7.17911
G1 X117.547 Y89.5 E7.21188
G1 X117.314 Y89.086 E7.24506
G1 X117.161 Y88.647 E7.27753
G1 X117.087 Y88.187 E7.31007
G1 X117.092 Y87.715 E7.34304
G0 F3000 X117.492 Y87.755
G1 F1800 X117.568 Y87.358 E7.37128
G1 X117.707 Y86.989 E7.39882
G1 X117.912 Y86.644 E7.42685
G1 X118.173 Y86.342 E7.45473
G1 X118.487 Y86.084 E7.48311
G1 X118.832 Y85.891 E7.51072
G1 X119.209 Y85.759 E7.53862
G1 X119.601 Y85.695 E7.56636
G1 X120.001 Y85.7 E7.59431
G1 X120.398 Y85.776 E7.62254
G1 X120.767 Y85.915 E7.65008
G1 X121.112 Y86.12 E7.67811
G1 X121.414 Y86.381 E7.70599
G1 X121.672 Y86.695 E7.73437
G1 X121.866 Y87.042 E7.76214
G1 X121.998 Y87.418 E7.78997
G1 X122.061 Y87.806 E7.81743
G1 X122.056 Y88.209 E7.84558
G1 X121.98 Y88.606 E7.87381
G1 X121.841 Y88.976 E7.90142
G1 X121.632 Y89.327 E7.92995
G1 X121.376 Y89.624 E7.95734
G1 X121.065 Y89.878 E7.98539
G1 X120.717 Y90.073 E8.01325
G1 X120.337 Y90.206 E8.04137
G1 X119.949 Y90.269 E8.06882
G1 X119.547 Y90.264 E8.0969
G1 X119.15 Y90.188 E8.12514
G1 X118.78 Y90.049 E8.15274
G1 X118.429 Y89.84 E8.18128
G1 X118.132 Y89.584 E8.20866
G1 X117.879 Y89.275 E8.23656
G1 X117.681 Y88.921 E8.26489
G1 X117.55 Y88.546 E8.29263
G1 X117.487 Y88.158 E8.32009
G1 X117.492 Y87.755 E8.34824
G1 F1800 E4.34824
G0 F3000 X111.265 Y98.033
G1 F1800 E8.34824
G1 X111.557 Y98.252 E8.37373
G1 X111.807 Y98.519 E8.39928
G1 X112.003 Y98.818 E8.42425
G1 X112.15 Y99.153 E8.4498
G1 X112.232 Y99.493 E8.47423
G1 X112.256 Y99.856 E8.49964
G1 X112.217 Y100.217 E8.525
G1 X112.116 Y100.567 E8.55045
G1 X111.962 Y100.888 E8.57531
G1 X111.753 Y101.18 E8.60039
G1 X111.49 Y101.436 E8.62603
G1 X111.2 Y101.635 E8.65059
G1 X110.874 Y101.787 E8.67572
G1 X110.51 Y101.882 E8.70199
G1 X110.16 Y101.912 E8.72653
G1 X109.8 Y101.88 E8.75177
G1 X109.454 Y101.79 E8.77674
G1 X109.127 Y101.641 E8.80184
G1 X108.828 Y101.434 E8.82724
G1 X108.57 Y101.182 E8.85243
G1 X108.358 Y100.887 E8.87781
G1 X108.202 Y100.564 E8.90286
G1 X108.101 Y100.218 E8.92804
G1 X108.063 Y99.858 E8.95332
G1 X108.122 Y98.974 E9.0152
G1 X108.091 Y98.853 E9.02393
G1 X108.017 Y98.785 E9.03095
G1 X107.117 Y98.297 E9.10245
G1 X107.469 Y97.889 E9.14009
G1 X107.489 Y97.861 E9.14249
G1 X107.754 Y97.414 E9.17879
G1 X108.5 Y98.112 E9.25015
G1 X108.614 Y98.165 E9.25893
G1 X108.713 Y98.151 E9.26591
G1 X109.537 Y97.814 E9.32809
G1 X109.888 Y97.737 E9.35319
G1 X110.255 Y97.721 E9.37885
G1 X110.597 Y97.764 E9.40292
G1 X110.957 Y97.877 E9.42928
G1 X111.265 Y98.033 E9.45339
G0 F3000 X111.055 Y98.375
G1 F1800 X111.29 Y98.551 E9.4739
G1 X111.491 Y98.766 E9.49446
G1 X111.649 Y99.007 E9.51459
G1 X111.77 Y99.283 E9.53563
G1 X111.835 Y99.554 E9.5551
G1 X111.855 Y99.851 E9.57589
G1 X111.824 Y100.134 E9.59578
G1 X111.74 Y100.425 E9.61693
G1 X111.615 Y100.685 E9.63708
G1 X111.447 Y100.92 E9.65726
G1 X111.24 Y101.122 E9.67746
G1 X111.001 Y101.286 E9.6977
G1 X110.735 Y101.41 E9.7182
G1 X110.445 Y101.486 E9.73914
G1 X110.161 Y101.51 E9.75905
G1 X109.865 Y101.484 E9.7798
G1 X109.589 Y101.412 E9.79973
G1 X109.323 Y101.291 E9.82014
G1 X109.082 Y101.124 E9.84062
G1 X108.875 Y100.922 E9.86082
G1 X108.703 Y100.681 E9.8815
G1 X108.576 Y100.419 E9.90183
G1 X108.496 Y100.143 E9.92191
G1 X108.464 Y99.848 E9.94263
G1 X108.521 Y99.001 E10.00192
G1 X108.495 Y98.784 E10.01719
G1 X108.394 Y98.591 E10.0324
G1 X108.208 Y98.434 E10.04941
G1 X107.744 Y98.183 E10.08625
G1 X107.772 Y98.15 E10.08927
G1 X107.833 Y98.065 E10.09658
G1 X107.844 Y98.046 E10.09812
G1 X108.227 Y98.404 E10.13473
G1 X108.411 Y98.522 E10.15
G1 X108.625 Y98.566 E10.16526
G1 X108.864 Y98.521 E10.18225
G1 X109.654 Y98.198 E10.24186
G1 X109.944 Y98.135 E10.26259
G1 X110.233 Y98.121 E10.2828
G1 X110.512 Y98.157 E10.30245
G1 X110.805 Y98.248 E10.32387
G1 X111.055 Y98.375 E10.34346
G0 F3000 X110.843 Y98.715
G1 F1800 X111.018 Y98.847 E10.35877
G1 X111.176 Y99.016 E10.37493
G1 X111.297 Y99.201 E10.39037
G1 X111.389 Y99.411 E10.40638
G1 X111.438 Y99.615 E10.42104
G1 X111.453 Y99.84 E10.43679
G1 X111.429 Y100.06 E10.45225
G1 X111.366 Y100.281 E10.4683
G1 X111.27 Y100.48 E10.48373
G1 X111.144 Y100.657 E10.4989
G1 X110.98 Y100.816 E10.51486
G1 X110.806 Y100.936 E10.52962
G1 X110.599 Y101.032 E10.54556
G1 X110.374 Y101.091 E10.56181
G1 X110.161 Y101.109 E10.57674
G1 X109.936 Y101.089 E10.59251
G1 X109.727 Y101.034 E10.60761
G1 X109.518 Y100.939 E10.62364
G1 X109.34 Y100.816 E10.63876
G1 X109.178 Y100.659 E10.65451
G1 X109.047 Y100.476 E10.67023
G1 X108.951 Y100.276 E10.68573
G1 X108.888 Y100.061 E10.70138
G1 X108.866 Y99.845 E10.71654
G1 X108.92 Y99.028 E10.77373
G1 X108.912 Y98.917 E10.7815
G1 X109.015 Y98.892 E10.7889
G1 X109.775 Y98.581 E10.84626
G1 X109.995 Y98.533 E10.86199
G1 X110.218 Y98.523 E10.87758
G1 X110.427 Y98.55 E10.8923
G1 X110.656 Y98.621 E10.90904
G1 X110.843 Y98.715 E10.92366
G1 F1800 E6.92366
G0 F3000 X100.151 Y102.345
G1 F1800 E10.92366
G1 X100.209 Y102.696 E10.94851
G1 X100.204 Y103.069 E10.97457
G1 X100.137 Y103.424 E10.9998
G1 X100.009 Y103.765 E11.02524
G1 X99.817 Y104.085 E11.05131
G1 X99.582 Y104.358 E11.07647
G1 X99.297 Y104.59 E11.10213
G1 X98.986 Y104.765 E11.12706
G1 X98.63 Y104.889 E11.15339
G1 X98.274 Y104.948 E11.17859
G1 X97.91 Y104.943 E11.20402
G1 X97.551 Y104.874 E11.22955
G1 X97.206 Y104.745 E11.25528
G1 X96.889 Y104.556 E11.28106
G1 X96.617 Y104.321 E11.30616
G1 X96.388 Y104.04 E11.33148
G1 X96.207 Y103.72 E11.35716
G1 X96.086 Y103.372 E11.3829
G1 X96.028 Y103.012 E11.40836
G1 X96.032 Y102.649 E11.43372
G1 X96.101 Y102.289 E11.45932
G1 X96.228 Y101.95 E11.48461
G1 X96.42 Y101.629 E11.51073
G1 X96.655 Y101.354 E11.536
G1 X96.933 Y101.126 E11.56111
G1 X97.26 Y100.946 E11.58718
G1 X97.607 Y100.824 E11.61287
G1 X97.957 Y100.766 E11.63765
G1 X98.324 Y100.771 E11.66329
G1 X98.691 Y100.84 E11.68937
G1 X99.026 Y100.968 E11.71442
G1 X99.346 Y101.159 E11.74045
G1 X99.621 Y101.393 E11.76567
G1 X99.848 Y101.672 E11.79079
G1 X100.03 Y101.997 E11.81681
G1 X100.151 Y102.345 E11.84254
G0 F3000 X99.761 Y102.439
G1 F1800 X99.808 Y102.727 E11.86292
G1 X99.805 Y103.024 E11.88367
G1 X99.75 Y103.313 E11.90422
G1 X99.645 Y103.595 E11.92524
G1 X99.493 Y103.848 E11.94585
G1 X99.303 Y104.07 E11.96626
G1 X99.072 Y104.258 E11.98706
G1 X98.817 Y104.401 E12.00748
G1 X98.536 Y104.499 E12.02827
G1 X98.243 Y104.547 E12.04901
G1 X97.951 Y104.544 E12.0694
G1 X97.663 Y104.488 E12.0899
G1 X97.38 Y104.382 E12.111
G1 X97.125 Y104.23 E12.13174
G1 X96.904 Y104.039 E12.15214
G1 X96.719 Y103.812 E12.17259
G1 X96.573 Y103.555 E12.19324
G1 X96.474 Y103.269 E12.21438
G1 X96.428 Y102.982 E12.23468
G1 X96.431 Y102.689 E12.25515
G1 X96.487 Y102.401 E12.27564
G1 X96.593 Y102.119 E12.29668
G1 X96.744 Y101.865 E12.31732
G1 X96.938 Y101.638 E12.33818
G1 X97.155 Y101.461 E12.35773
G1 X97.426 Y101.311 E12.37937
G1 X97.703 Y101.213 E12.39989
G1 X97.988 Y101.167 E12.42006
G1 X98.284 Y101.17 E12.44073
G1 X98.582 Y101.227 E12.46192
G1 X98.853 Y101.33 E12.48217
G1 X99.11 Y101.483 E12.50306
G1 X99.333 Y101.673 E12.52353
G1 X99.517 Y101.899 E12.54388
G1 X99.665 Y102.163 E12.56502
G1 X99.761 Y102.439 E12.58543
G0 F3000 X99.372 Y102.539
G1 F1800 X99.408 Y102.759 E12.601
