;FLAVOR:Marlin
;TIME:2396
;Filament used: 1.59981m
;Layer height: 0.2
;MINX:82.2
;MINY:87.701
;MINZ:0.25
;MAXX:117.8
;MAXY:112.295
;MAXZ:17.55
;TARGET_MACHINE.NAME:XYZprinting da Vinci 1.0 Pro
;Generated with Cura_SteamEngine 5.6.0
M140 S45
M105
M190 S45
M104 S190
M105
M109 S190
M82 ;absolute extrusion mode
G28 ; home all axes
G1 Z15 F5000 ; lift nozzle
G92 E0
G1 F200 E3

G92 E0
G92 E0
G1 F1800 E-4
;LAYER_COUNT:87
;LAYER:0
M106 S255
G0 F3000 X87.426 Y91.776 Z0.35
;TYPE:SKIRT
G1 F1800 E0
G1 X90.574 Y91.776 E0.21988
G1 X92.147 Y94.501 E0.43964
G1 X90.574 Y97.226 E0.65941
G1 X87.426 Y97.226 E0.87928
G1 X85.853 Y94.501 E1.09905
G1 X87.426 Y91.776 E1.31881
G0 F3000 X87.658 Y92.176
G1 F1800 X90.342 Y92.176 E1.50628
G1 X91.685 Y94.501 E1.69382
G1 X90.342 Y96.826 E1.88136
G1 X87.658 Y96.826 E2.06883
G1 X86.315 Y94.501 E2.25636
G1 X87.658 Y92.176 E2.4439
G0 F3000 X87.888 Y92.576
G1 F1800 X90.112 Y92.576 E2.59924
G1 X91.223 Y94.501 E2.75448
G1 X90.112 Y96.426 E2.90972
G1 X87.888 Y96.426 E3.06506
G1 X86.777 Y94.501 E3.2203
G1 X87.888 Y92.576 E3.37554
G1 F1800 E-0.62446
G0 F3000 X95.428 Y94.222
G1 F1800 E3.37554
G1 X95.499 Y93.958 E3.39463
G1 X95.617 Y93.705 E3.41413
G1 X95.784 Y93.466 E3.4345
G1 X95.965 Y93.285 E3.45238
G1 X96.204 Y93.118 E3.47274
G1 X96.457 Y93 E3.49224
G1 X96.721 Y92.929 E3.51133
G1 X97.038 Y92.901 E3.53356
G1 X110.962 Y92.901 E4.5061
G1 X111.279 Y92.929 E4.52833
G1 X111.543 Y93 E4.54742
G1 X111.796 Y93.118 E4.56692
G1 X112.035 Y93.285 E4.58729
G1 X112.216 Y93.466 E4.60516
G1 X112.383 Y93.705 E4.62553
G1 X112.501 Y93.958 E4.64503
G1 X112.572 Y94.222 E4.66412
G1 X112.596 Y94.501 E4.68368
G1 X112.572 Y94.78 E4.70324
G1 X112.501 Y95.044 E4.72234
G1 X112.383 Y95.297 E4.74183
G1 X112.216 Y95.536 E4.7622
G1 X112.035 Y95.717 E4.78008
G1 X111.796 Y95.884 E4.80044
G1 X111.543 Y96.002 E4.81994
G1 X111.279 Y96.073 E4.83904
G1 X110.962 Y96.101 E4.86126
G1 X97.038 Y96.101 E5.8338
G1 X96.721 Y96.073 E5.85603
G1 X96.457 Y96.002 E5.87512
G1 X96.204 Y95.884 E5.89462
G1 X95.965 Y95.717 E5.91499
G1 X95.784 Y95.536 E5.93287
G1 X95.617 Y95.297 E5.95323
G1 X95.499 Y95.044 E5.97273
G1 X95.428 Y94.78 E5.99182
G1 X95.404 Y94.501 E6.01138
G1 X95.428 Y94.222 E6.03094
G0 F3000 X95.824 Y94.292
G1 F1800 X95.877 Y94.094 E6.04526
G1 X95.966 Y93.904 E6.05991
G1 X96.091 Y93.725 E6.07516
G1 X96.224 Y93.592 E6.0883
G1 X96.403 Y93.467 E6.10355
G1 X96.593 Y93.378 E6.1182
G1 X96.791 Y93.325 E6.13252
G1 X97.063 Y93.301 E6.15159
G1 X110.937 Y93.301 E7.12064
G1 X111.209 Y93.325 E7.13971
G1 X111.407 Y93.378 E7.15403
G1 X111.597 Y93.467 E7.16868
G1 X111.776 Y93.592 E7.18393
G1 X111.909 Y93.725 E7.19707
G1 X112.034 Y93.904 E7.21232
G1 X112.123 Y94.094 E7.22697
G1 X112.176 Y94.292 E7.24129
G1 X112.194 Y94.501 E7.25594
G1 X112.176 Y94.71 E7.27059
G1 X112.123 Y94.908 E7.28491
G1 X112.034 Y95.098 E7.29956
G1 X111.909 Y95.277 E7.31481
G1 X111.776 Y95.41 E7.32795
G1 X111.597 Y95.535 E7.3432
G1 X111.407 Y95.624 E7.35786
G1 X111.209 Y95.677 E7.37217
G1 X110.937 Y95.701 E7.39124
G1 X97.063 Y95.701 E8.36029
G1 X96.791 Y95.677 E8.37936
G1 X96.593 Y95.624 E8.39368
G1 X96.403 Y95.535 E8.40833
G1 X96.224 Y95.41 E8.42358
G1 X96.091 Y95.277 E8.43672
G1 X95.966 Y95.098 E8.45197
G1 X95.877 Y94.908 E8.46662
G1 X95.824 Y94.71 E8.48094
G1 X95.806 Y94.501 E8.49559
G1 X95.824 Y94.292 E8.51024
G0 F3000 X96.219 Y94.361
G1 F1800 X96.253 Y94.236 E8.51929
G1 X96.317 Y94.098 E8.52992
G1 X96.395 Y93.987 E8.53939
G1 X96.486 Y93.896 E8.54838
G1 X96.597 Y93.818 E8.55786
G1 X96.735 Y93.754 E8.56848
G1 X96.86 Y93.72 E8.57753
G1 X97.075 Y93.701 E8.59261
G1 X110.925 Y93.701 E9.55998
G1 X111.14 Y93.72 E9.57505
G1 X111.265 Y93.754 E9.5841
G1 X111.403 Y93.818 E9.59473
G1 X111.514 Y93.896 E9.6042
G1 X111.605 Y93.987 E9.61319
G1 X111.683 Y94.098 E9.62267
G1 X111.747 Y94.236 E9.63329
G1 X111.781 Y94.361 E9.64234
G1 X111.793 Y94.501 E9.65215
G1 X111.781 Y94.641 E9.66197
G1 X111.747 Y94.766 E9.67102
G1 X111.683 Y94.904 E9.68164
G1 X111.605 Y95.015 E9.69112
G1 X111.514 Y95.106 E9.7001
G1 X111.403 Y95.184 E9.70958
G1 X111.265 Y95.248 E9.72021
G1 X111.14 Y95.282 E9.72925
G1 X110.925 Y95.301 E9.74433
G1 X97.075 Y95.301 E10.7117
G1 X96.86 Y95.282 E10.72678
G1 X96.735 Y95.248 E10.73582
G1 X96.597 Y95.184 E10.74645
G1 X96.486 Y95.106 E10.75592
G1 X96.395 Y95.015 E10.76491
G1 X96.317 Y94.904 E10.77439
G1 X96.253 Y94.766 E10.78501
G1 X96.219 Y94.641 E10.79406
G1 X96.207 Y94.501 E10.80388
G1 X96.219 Y94.361 E10.81369
G0 F3000 X96.629 Y94.388
;TYPE:SUPPORT
G1 F900 X96.757 Y94.2 Z0.25 E10.83104
G1 X96.869 Y94.136 E10.84005
G1 X97.101 Y94.101 E10.85644
G1 X110.899 Y94.101 E11.82018
G1 X111.131 Y94.136 E11.83657
G1 X111.251 Y94.206 E11.84627
G1 X111.378 Y94.417 E11.86347
G1 X111.362 Y94.629 E11.87832
G1 X111.243 Y94.801 E11.89293
G1 X111.131 Y94.866 E11.90198
G1 X110.899 Y94.901 E11.91836
G1 X97.101 Y94.901 E12.8821
G1 X96.878 Y94.867 E12.89786
G1 X96.7 Y94.744 E12.91297
G1 X96.634 Y94.629 E12.92223
G1 X96.629 Y94.388 E12.93907
G1 F1800 E8.93907
G0 F3000 X98.679 Y94.261
G1 F1800 E12.93907
G1 F900 X98.679 Y94.741 E12.97259
G1 F1800 E8.97259
G0 F3000 X101.346 Y94.741
G1 F1800 E12.97259
G1 F900 X101.346 Y94.261 E13.00612
G1 F1800 E9.00612
G0 F3000 X104.013 Y94.261
G1 F1800 E13.00612
G1 F900 X104.013 Y94.741 E13.03965
G1 F1800 E9.03965
G0 F3000 X106.68 Y94.741
G1 F1800 E13.03965
G1 F900 X106.68 Y94.261 E13.07317
G1 F1800 E9.07317
G0 F3000 X109.347 Y94.261
G1 F1800 E13.07317
G1 F900 X109.347 Y94.741 E13.1067
G1 F1800 E9.1067
G0 F3000 X109.347 Y94.741 Z0.35
G0 X90.761 Y94.501
G1 F1800 E13.1067
G1 F900 X90.761 Y94.501 Z0.25 E13.11368
G1 X89.88 Y96.026 E13.2367
G1 X88.12 Y96.026 E13.35963
G1 X87.238 Y94.501 E13.48267
G1 X88.12 Y92.976 E13.60572
G1 X89.88 Y92.976 E13.72865
G1 X90.761 Y94.501 E13.85166
G1 F1800 E9.85166
G0 F3000 X89.908 Y93.345
G1 F1800 E13.85166
G1 F900 X88.092 Y93.345 E13.9785
G1 X88.011 Y93.483
G1 X88.011 Y95.518 E14.12064
G1 F1800 E10.12064
;MESH:right_wheel_suspension_2_V1.stl
G0 F3000 X88.011 Y95.518 Z0.35
G0 X88.011 Y97.461
G0 X88.011 Y98.526
G0 X91.168 Y99.026
G0 X91.168 Y98.726
;TYPE:WALL-INNER
G1 F1800 E14.12064
G1 F900 X86.797 Y98.726 E14.42594
G1 X86.583 Y98.632 E14.44226
G1 X86.387 Y98.427 E14.46207
G1 X84.294 Y94.801 E14.7545
G1 X84.222 Y94.605 E14.76908
G1 X84.215 Y94.453 E14.77971
G1 X84.294 Y94.201 E14.79816
G1 X86.422 Y90.521 E15.09507
G1 X86.593 Y90.364 E15.11129
G1 X86.907 Y90.276 E15.13406
G1 X91.093 Y90.276 E15.42644
G1 X91.413 Y90.368 E15.4497
G1 X91.613 Y90.576 E15.46985
G1 F859.2 X92.356 Y91.865 E15.5787
G1 F784.3 X93.1 Y93.154 E15.69799
G1 F722.9 X93.843 Y94.443 E15.82737
G1 F737.7 X94.026 Y93.594 E15.90137
G1 F839.2 X94.311 Y92.95 E15.95413
G1 F900 X94.659 Y92.47 E15.99554
G1 X94.969 Y92.16 E16.02616
G1 X95.45 Y91.812 E16.06763
G1 X95.992 Y91.572 E16.10903
G1 X96.46 Y91.448 E16.14285
G1 X96.951 Y91.403 E16.17728
G1 X111.049 Y91.403 E17.16198
G1 X111.577 Y91.455 E17.19903
G1 X112.083 Y91.596 E17.23572
G1 X112.564 Y91.823 E17.27287
G1 X112.997 Y92.128 E17.30987
G1 X113.373 Y92.504 E17.34701
G1 X113.678 Y92.936 E17.38394
G1 X113.904 Y93.418 E17.42113
G1 X114.045 Y93.924 E17.45781
G1 X114.099 Y94.524 E17.49989
G1 X114.053 Y95.041 E17.53614
G1 X113.929 Y95.509 E17.56996
G1 X113.71 Y96.003 E17.6077
G1 X113.408 Y96.452 E17.6455
G1 X112.999 Y96.876 E17.68665
G1 X112.533 Y97.196 E17.72613
G1 X112.093 Y97.4 E17.76
G1 X111.539 Y97.554 E17.80017
G1 X110.996 Y97.602 E17.83824
G1 X96.95 Y97.599 E18.8193
G1 X96.458 Y97.553 E18.85382
G1 X95.94 Y97.414 E18.89128
G1 X95.494 Y97.21 E18.92553
G1 X95.05 Y96.909 E18.963
G1 X94.659 Y96.532 E19.00093
G1 X94.311 Y96.052 E19.04234
G1 F839.2 X94.026 Y95.408 E19.0951
G1 F737.7 X93.844 Y94.558 E19.16917
G1 F722.9 X93.088 Y95.867 E19.30062
G1 F784.3 X92.331 Y97.176 E19.42182
G1 F859.2 X91.574 Y98.486 E19.53251
G1 F900 X91.303 Y98.689 E19.55616
G1 X91.168 Y98.726 E19.56594
G0 F3000 X91.168 Y99.026
G0 X95.826 Y106.313
G0 X95.738 Y106.597
G1 F900 X108.728 Y111.484 E20.53533
G1 X109.728 Y111.771 E20.60799
G1 X110.76 Y111.894 E20.68058
G1 X111.785 Y111.85 E20.75224
G1 X112.79 Y111.643 E20.82391
G1 X113.748 Y111.279 E20.89549
G1 X114.642 Y110.76 E20.96769
G1 X115.435 Y110.112 E21.03922
G1 X116.122 Y109.333 E21.11177
G1 X116.67 Y108.464 E21.18353
G1 X117.067 Y107.531 E21.25435
G1 X117.316 Y106.518 E21.32721
G1 X117.4 Y105.473 E21.40043
G1 X117.4 Y94.521 E22.16539
G1 X117.32 Y93.509 E22.23629
G1 X117.082 Y92.519 E22.30741
G1 X116.696 Y91.59 E22.37768
G1 X116.173 Y90.736 E22.44762
G1 X115.524 Y89.977 E22.51737
G1 X114.766 Y89.328 E22.58707
G1 X113.911 Y88.805 E22.65708
G1 X112.975 Y88.417 E22.72785
G1 X111.999 Y88.183 E22.79795
G1 X110.972 Y88.102 E22.8699
G1 X89.028 Y88.101 E24.40261
G1 X88.001 Y88.183 E24.47457
G1 X87.024 Y88.417 E24.54474
G1 X86.089 Y88.805 E24.61545
G1 X85.234 Y89.328 E24.68545
G1 X84.476 Y89.977 E24.75515
G1 X83.828 Y90.737 E24.82491
G1 X83.304 Y91.59 E24.89483
G1 X82.917 Y92.519 E24.96512
G1 X82.68 Y93.509 E25.03623
G1 X82.6 Y94.515 E25.10671
G1 X82.601 Y100.215 E25.50484
G1 X82.67 Y101.159 E25.57095
G1 X82.876 Y102.081 E25.63693
G1 X83.207 Y102.953 E25.70208
G1 X83.662 Y103.762 E25.76691
G1 X84.214 Y104.462 E25.82917
G1 X84.864 Y105.055 E25.89063
G1 X85.615 Y105.544 E25.95322
G1 X86.416 Y105.892 E26.01422
G1 X87.286 Y106.111 E26.07688
G1 X88.195 Y106.187 E26.1406
G1 X93.477 Y106.188 E26.50952
G1 X94.195 Y106.23 E26.55976
G1 X95.051 Y106.384 E26.62051
G1 X95.738 Y106.597 E26.67075
G0 F3000 X95.826 Y106.313
G0 X111.051 Y108.7
G0 X111.026 Y108.4
G1 F900 X110.464 Y108.35 E26.71015
G1 X109.976 Y108.213 E26.74556
G1 X109.505 Y107.985 E26.78211
G1 X109.099 Y107.69 E26.81716
G1 X108.813 Y107.405 E26.84536
G1 X108.515 Y106.995 E26.88076
G1 X108.294 Y106.537 E26.91628
G1 X108.156 Y106.06 E26.95096
G1 X108.103 Y105.554 E26.9865
G1 X108.138 Y105.047 E27.022
G1 X108.259 Y104.561 E27.05698
G1 X108.463 Y104.099 E27.09225
G1 X108.745 Y103.679 E27.12759
G1 X109.098 Y103.313 E27.1631
G1 X109.547 Y102.987 E27.20186
G1 X110.06 Y102.76 E27.24104
G1 X110.495 Y102.645 E27.27247
G1 X110.999 Y102.602 E27.3078
G1 X111.51 Y102.646 E27.34362
G1 X111.996 Y102.778 E27.3788
G1 X112.448 Y102.988 E27.41361
G1 X112.902 Y103.313 E27.45261
G1 X113.255 Y103.679 E27.48812
G1 X113.537 Y104.099 E27.52346
G1 X113.741 Y104.561 E27.55873
G1 X113.862 Y105.047 E27.59371
G1 X113.899 Y105.476 E27.62379
G1 X113.859 Y105.989 E27.65973
G1 X113.715 Y106.521 E27.69822
G1 X113.501 Y106.972 E27.73309
G1 X113.214 Y107.377 E27.76776
G1 X112.858 Y107.73 E27.80278
G1 X112.452 Y108.012 E27.83731
G1 X111.998 Y108.224 E27.8723
G1 X111.523 Y108.353 E27.90668
G1 X111.026 Y108.4 E27.94155
G0 F3000 X110.982 Y108
;TYPE:WALL-OUTER
G1 F900 X110.547 Y107.959 E27.97207
G1 X110.16 Y107.855 E28.00006
G1 X109.766 Y107.675 E28.03031
G1 X109.381 Y107.406 E28.06312
G1 X109.095 Y107.121 E28.09132
G1 X108.843 Y106.766 E28.12173
G1 X108.645 Y106.338 E28.15466
G1 X108.542 Y105.956 E28.1823
G1 X108.501 Y105.519 E28.21295
G1 X108.536 Y105.082 E28.24358
G1 X108.645 Y104.665 E28.27368
G1 X108.826 Y104.267 E28.30422
G1 X109.095 Y103.882 E28.33702
G1 X109.381 Y103.596 E28.36527
G1 X109.766 Y103.327 E28.39808
G1 X110.164 Y103.146 E28.42862
G1 X110.564 Y103.039 E28.45754
G1 X111.018 Y103.002 E28.48935
G1 X111.453 Y103.043 E28.51987
G1 X111.855 Y103.152 E28.54896
G1 X112.25 Y103.335 E28.57937
G1 X112.619 Y103.596 E28.61094
G1 X112.905 Y103.882 E28.63919
G1 X113.174 Y104.267 E28.67199
G1 X113.355 Y104.665 E28.70253
G1 X113.464 Y105.082 E28.73263
G1 X113.499 Y105.519 E28.76326
G1 X113.463 Y105.932 E28.79221
G1 X113.353 Y106.345 E28.82206
G1 X113.174 Y106.737 E28.85216
G1 X112.914 Y107.112 E28.88403
G1 X112.604 Y107.42 E28.91456
G1 X112.251 Y107.666 E28.94461
G1 X111.856 Y107.85 E28.97505
G1 X111.419 Y107.965 E29.00661
G1 X110.982 Y108 E29.03723
G0 F3000 X110.783 Y107.982
G0 X110.722 Y108.679
G0 X109.926 Y108.454
G0 X108.981 Y107.908
G0 X108.278 Y107.071
G0 X107.905 Y106.047
G0 X107.905 Y104.956
G0 X111.651 Y97.836
G0 X111.471 Y97.16
G1 F900 X110.996 Y97.202 E29.07053
G1 X96.986 Y97.201 E30.04908
G1 X96.512 Y97.156 E30.08234
G1 X96.078 Y97.038 E30.11375
G1 X95.664 Y96.848 E30.14557
G1 X95.252 Y96.559 E30.18072
G1 X94.942 Y96.249 E30.21134
G1 X94.653 Y95.836 E30.24655
G1 X94.457 Y95.405 E30.27962
G1 X94.345 Y94.99 E30.30964
G1 X94.301 Y94.519 E30.34268
G1 X94.345 Y94.012 E30.37823
G1 X94.457 Y93.597 E30.40825
G1 X94.653 Y93.166 E30.44132
G1 X94.942 Y92.753 E30.47653
G1 X95.252 Y92.443 E30.50715
G1 X95.666 Y92.154 E30.54241
G1 X96.096 Y91.958 E30.57542
G1 X96.529 Y91.842 E30.60673
G1 X96.986 Y91.801 E30.63878
G1 X111.014 Y91.801 E31.61858
G1 X111.464 Y91.841 E31.65014
G1 X111.929 Y91.966 E31.68377
G1 X112.355 Y92.165 E31.71661
G1 X112.737 Y92.432 E31.74916
G1 X113.069 Y92.764 E31.78195
G1 X113.336 Y93.146 E31.81451
G1 X113.543 Y93.597 E31.84917
G1 X113.661 Y94.047 E31.88166
G1 X113.699 Y94.519 E31.91474
G1 X113.659 Y94.972 E31.9465
G1 X113.543 Y95.405 E31.97781
G1 X113.347 Y95.835 E32.01082
G1 X113.058 Y96.249 E32.04608
G1 X112.748 Y96.559 E32.0767
G1 X112.345 Y96.843 E32.11114
G1 X111.904 Y97.044 E32.14499
G1 X111.471 Y97.16 E32.1763
G0 F3000 X111.272 Y97.177
G0 X111.332 Y97.875
G0 X95.877 Y106.331
G0 X95.631 Y106.983
G1 F900 X108.602 Y111.864 E33.14429
G1 X109.649 Y112.165 E33.22039
G1 X110.745 Y112.295 E33.29747
G1 X111.834 Y112.248 E33.37361
G1 X112.902 Y112.029 E33.44976
G1 X113.921 Y111.641 E33.52591
G1 X114.87 Y111.09 E33.60256
G1 X115.713 Y110.401 E33.67861
G1 X116.443 Y109.574 E33.75565
G1 X117.026 Y108.65 E33.83196
G1 X117.448 Y107.658 E33.90726
G1 X117.712 Y106.582 E33.98464
G1 X117.8 Y105.489 E34.06123
G1 X117.8 Y94.505 E34.82842
G1 X117.716 Y93.446 E34.90262
G1 X117.464 Y92.395 E34.97811
G1 X117.054 Y91.408 E35.05276
G1 X116.497 Y90.5 E35.12716
G1 X115.808 Y89.693 E35.20128
G1 X115.002 Y89.004 E35.27534
G1 X114.093 Y88.447 E35.3498
G1 X113.099 Y88.035 E35.42496
G1 X112.062 Y87.787 E35.49943
G1 X110.988 Y87.702 E35.57468
G1 X89.012 Y87.701 E37.10962
G1 X87.938 Y87.787 E37.18488
G1 X86.9 Y88.035 E37.25942
G1 X85.907 Y88.447 E37.33451
G1 X84.998 Y89.004 E37.40897
G1 X84.192 Y89.693 E37.48303
G1 X83.503 Y90.501 E37.5572
G1 X82.946 Y91.408 E37.63154
G1 X82.536 Y92.395 E37.70619
G1 X82.284 Y93.446 E37.78168
G1 X82.2 Y94.499 E37.85546
G1 X82.201 Y100.23 E38.25575
G1 X82.273 Y101.217 E38.32487
G1 X82.492 Y102.196 E38.39494
G1 X82.844 Y103.123 E38.4642
G1 X83.328 Y103.985 E38.53325
G1 X83.92 Y104.736 E38.60004
G1 X84.618 Y105.373 E38.66605
G1 X85.425 Y105.898 E38.73329
G1 X86.287 Y106.272 E38.79892
G1 X87.22 Y106.507 E38.86612
G1 X88.179 Y106.587 E38.93334
G1 X93.453 Y106.587 E39.30171
G1 X94.186 Y106.631 E39.353
G1 X94.933 Y106.766 E39.40602
G1 X95.631 Y106.983 E39.45707
G0 F3000 X95.818 Y107.053
G0 X96.064 Y106.401
G0 X91.128 Y99.026
G0 X91.128 Y98.324
G1 F900 X86.879 Y98.325 E39.75385
G1 X86.751 Y98.258 E39.76394
G1 X84.64 Y94.601 E40.05887
G1 X84.608 Y94.457 E40.06917
G1 X86.745 Y90.757 E40.36761
G1 X86.857 Y90.676 E40.37727
G1 X91.093 Y90.676 E40.67313
G1 F902.3 X91.232 Y90.715 E40.68319
G1 X93.359 Y94.401 E40.97969
G1 X93.392 Y94.544 E40.98992
G1 F900 X91.254 Y98.246 E41.28851
G1 X91.128 Y98.324 E41.29886
G0 F3000 X90.928 Y98.324
G0 X90.928 Y99.026
G0 X109.926 Y108.454
G0 X111.053 Y108.779
;TYPE:SKIN
G1 F900 X111.603 Y108.725 E41.33746
G1 X112.134 Y108.58 E41.37591
G1 X112.649 Y108.339 E41.41562
G1 X113.099 Y108.027 E41.45387
G1 X113.499 Y107.629 E41.49328
G1 X113.822 Y107.178 E41.53203
G1 X114.064 Y106.672 E41.5712
G1 X114.228 Y106.109 E41.61216
G1 X114.277 Y105.481 E41.65616
G1 X114.242 Y105.009 E41.68922
G1 X114.113 Y104.474 E41.72766
G1 X113.836 Y103.841 E41.77592
G1 X113.474 Y103.349 E41.81858
G1 X113.062 Y102.951 E41.85859
G1 X112.631 Y102.654 E41.89515
G1 X112.128 Y102.421 E41.93387
G1 X111.567 Y102.27 E41.97445
G1 X111.086 Y102.225 E42.00819
G1 X110.426 Y102.269 E42.05439
G1 X109.966 Y102.39 E42.08761
G1 X109.339 Y102.666 E42.13546
G1 X108.848 Y103.027 E42.17803
G1 X108.455 Y103.437 E42.2177
G1 X108.131 Y103.912 E42.25786
G1 X107.897 Y104.445 E42.29851
G1 X107.763 Y104.977 E42.33683
G1 X107.723 Y105.561 E42.37772
G1 X107.784 Y106.132 E42.41783
G1 X107.937 Y106.664 E42.45649
