;FLAVOR:Marlin
;TIME:2443
;Filament used: 1.40466m
;Layer height: 0.2
;MINX:87.578
;MINY:74.347
;MINZ:0.25
;MAXX:111.733
;MAXY:125.653
;MAXZ:13.75
;TARGET_MACHINE.NAME:XYZprinting da Vinci 1.0 Pro
;Generated with Cura_SteamEngine 5.6.0
M140 S45
M105
M190 S45
M104 S190
M105
M109 S190
M82 ;absolute extrusion mode
G28 ; home all axes
G1 Z15 F5000 ; lift nozzle
G92 E0
G1 F200 E3

G92 E0
G92 E0
G1 F1800 E-4
;LAYER_COUNT:68
;LAYER:0
M106 S255
G0 F3000 X99.65 Y77.65 Z0.35
;TYPE:SKIRT
G1 F1800 E0
G1 X100.85 Y77.65 E0.08382
G1 X100.85 Y122.35 E3.20594
G1 X99.65 Y122.35 E3.28976
G1 X99.65 Y77.65 E6.41189
G0 F3000 X100.05 Y78.05
G1 F1800 X100.45 Y78.05 E6.43983
G1 X100.45 Y121.95 E9.50608
G1 X100.05 Y121.95 E9.53402
G1 X100.05 Y78.05 E12.60027
G1 F1800 E8.60027
G0 F3000 X105.4 Y78.181
G1 F1800 E12.60027
G1 X105.545 Y78.046 E12.61411
G1 X105.564 Y78.026 E12.61603
G1 X105.97 Y77.528 E12.66091
G1 X106.165 Y77.376 E12.67818
G1 X106.724 Y77.141 E12.72054
G1 X106.969 Y77.105 E12.73783
G1 X108.574 Y77.1 E12.84993
G1 X109.159 Y77.27 E12.89249
G1 X109.642 Y77.642 E12.93507
G1 X110.034 Y78.228 E12.98431
G1 X110.06 Y78.26 E12.98719
G1 X110.403 Y78.596 E13.02073
G1 X110.423 Y78.613 E13.02256
G1 X110.752 Y78.86 E13.0513
G1 X110.872 Y78.9 E13.06013
G1 X110.921 Y78.9 E13.06355
G1 X110.922 Y90.5 E13.87377
G1 X110.878 Y90.5 E13.87684
G1 X110.751 Y90.545 E13.88625
G1 X110.374 Y90.853 E13.92026
G1 X110.352 Y90.875 E13.92243
G1 X110 Y91.27 E13.95938
G1 X109.991 Y91.28 E13.96032
G1 X109.527 Y91.876 E14.01308
G1 X109.337 Y92.023 E14.02986
G1 X108.776 Y92.259 E14.07237
G1 X108.53 Y92.295 E14.08973
G1 X107.025 Y92.3 E14.19485
G1 X106.449 Y92.172 E14.23607
G1 X106.214 Y92.059 E14.25428
G1 X105.84 Y91.75 E14.28816
G1 X105.288 Y91.107 E14.34735
G1 X105.25 Y91.073 E14.35092
G1 X104.871 Y90.811 E14.3831
G1 X104.937 Y90.6 E14.39854
G1 X109.543 Y90.6 E14.72025
G1 X109.662 Y90.561 E14.729
G1 X109.743 Y90.4 E14.74159
G1 X109.742 Y79 E15.53783
G1 X109.703 Y78.881 E15.54658
G1 X109.542 Y78.8 E15.55917
G1 X105.4 Y78.8 E15.84847
G1 X105.4 Y78.181 E15.89171
G0 F3000 X105.8 Y78.356
G1 F1800 X105.818 Y78.339 E15.89344
G1 X105.874 Y78.279 E15.89917
G1 X106.252 Y77.815 E15.94097
G1 X106.368 Y77.725 E15.95122
G1 X106.833 Y77.529 E15.98647
G1 X106.999 Y77.505 E15.99819
G1 X108.517 Y77.5 E16.10421
G1 X108.975 Y77.633 E16.13752
G1 X109.346 Y77.919 E16.17024
G1 X109.692 Y78.436 E16.21369
G1 X109.542 Y78.4 E16.22447
G1 X105.8 Y78.4 E16.48583
G1 X105.8 Y78.356 E16.48891
G1 F1800 E12.48891
G0 F3000 X106.745 Y78
G1 F1800 E16.48891
G1 X106.94 Y77.918 E16.50368
G1 X107.029 Y77.905 E16.50996
G1 X108.462 Y77.9 E16.61005
G1 X108.79 Y77.996 E16.63392
G1 X108.795 Y78 E16.63437
G1 X106.745 Y78 E16.77756
G1 F1800 E12.77756
G0 F3000 X110.119 Y78.878
G1 F1800 E16.77756
G1 X110.123 Y78.882 E16.77795
G1 X110.183 Y78.933 E16.78345
G1 X110.512 Y79.18 E16.81219
G1 X110.521 Y79.184 E16.81287
G1 X110.522 Y90.221 E17.58377
G1 X110.498 Y90.235 E17.58571
G1 X110.121 Y90.543 E17.61971
G1 X110.105 Y90.559 E17.62129
G1 X110.143 Y90.4 E17.63271
G1 X110.142 Y79 E18.42896
G1 X110.119 Y78.878 E18.43763
G1 F1800 E14.43763
G0 F3000 X109.737 Y90.964
G1 F1800 E18.43763
G1 X109.701 Y91.004 E18.44139
G1 X109.676 Y91.034 E18.44412
G1 X109.245 Y91.588 E18.49314
G1 X109.132 Y91.675 E18.5031
G1 X108.667 Y91.871 E18.53835
G1 X108.5 Y91.895 E18.55013
G1 X107.071 Y91.9 E18.64994
G1 X106.578 Y91.791 E18.68521
G1 X106.435 Y91.721 E18.69633
G1 X106.118 Y91.461 E18.72497
G1 X105.723 Y91 E18.76737
G1 X109.543 Y91 E19.03418
G1 X109.737 Y90.964 E19.04796
G1 F1800 E15.04796
G0 F3000 X108.755 Y91.4
G1 F1800 E19.04796
G1 X108.56 Y91.482 E19.06274
G1 X108.47 Y91.495 E19.06909
G1 X107.111 Y91.5 E19.16401
G1 X106.712 Y91.411 E19.19256
G1 X106.689 Y91.4 E19.19434
G1 X108.755 Y91.4 E19.33865
G1 F1800 E15.33865
G0 F3000 X108.594 Y107.701
G1 F1800 E19.33865
G1 X109.107 Y107.842 E19.37581
G1 X109.284 Y107.938 E19.38987
G1 X109.703 Y108.288 E19.428
G1 X109.988 Y108.728 E19.46462
G1 X110.004 Y108.749 E19.46646
G1 X110.35 Y109.151 E19.50351
G1 X110.382 Y109.181 E19.50657
G1 X110.753 Y109.46 E19.539
G1 X110.873 Y109.5 E19.54783
G1 X110.921 Y109.5 E19.55118
G1 X110.922 Y121.1 E20.3614
G1 X110.878 Y121.1 E20.36447
G1 X110.751 Y121.145 E20.37388
G1 X110.374 Y121.453 E20.40789
G1 X110.352 Y121.475 E20.41006
G1 X110 Y121.87 E20.44702
G1 X109.991 Y121.88 E20.44795
G1 X109.527 Y122.476 E20.50071
G1 X109.337 Y122.623 E20.51749
G1 X108.776 Y122.859 E20.56
G1 X108.53 Y122.895 E20.57737
G1 X107.025 Y122.9 E20.68248
G1 X106.45 Y122.772 E20.72363
G1 X106.217 Y122.66 E20.74169
G1 X105.813 Y122.311 E20.77897
G1 X105.491 Y121.906 E20.81511
G1 X105.476 Y121.89 E20.81665
G1 X105.4 Y121.813 E20.8242
G1 X105.4 Y121.2 E20.86702
G1 X109.543 Y121.2 E21.15639
G1 X109.662 Y121.161 E21.16514
G1 X109.743 Y121 E21.17773
G1 X109.742 Y109.6 E21.97397
G1 X109.703 Y109.481 E21.98272
G1 X109.542 Y109.4 E21.99531
G1 X104.883 Y109.4 E22.32072
G1 X104.822 Y109.18 E22.33667
G1 X105.179 Y108.967 E22.3657
G1 X105.214 Y108.941 E22.36875
G1 X105.574 Y108.602 E22.40329
G1 X105.591 Y108.584 E22.40502
G1 X105.969 Y108.128 E22.44639
G1 X106.163 Y107.977 E22.46356
G1 X106.724 Y107.741 E22.50607
G1 X106.969 Y107.705 E22.52336
G1 X108.594 Y107.701 E22.63686
G0 F3000 X108.539 Y108.101
G1 F1800 X108.958 Y108.216 E22.66721
G1 X109.056 Y108.27 E22.67503
G1 X109.401 Y108.557 E22.70637
G1 X109.652 Y108.945 E22.73865
G1 X109.701 Y109.01 E22.74433
G1 X109.732 Y109.046 E22.74765
G1 X109.542 Y109 E22.76131
G1 X105.734 Y109 E23.02728
G1 X105.848 Y108.893 E23.0382
G1 X105.899 Y108.839 E23.04339
G1 X106.249 Y108.417 E23.08168
G1 X106.365 Y108.326 E23.09198
G1 X106.833 Y108.129 E23.12745
G1 X106.999 Y108.105 E23.13916
G1 X108.539 Y108.101 E23.24673
G0 F3000 X108.488 Y108.501
G1 F1800 X108.805 Y108.589 E23.2697
G1 X108.826 Y108.6 E23.27136
G1 X106.745 Y108.6 E23.41671
G1 X106.94 Y108.518 E23.43149
G1 X107.029 Y108.505 E23.43777
G1 X108.488 Y108.501 E23.53967
G1 F1800 E19.53967
G0 F3000 X110.12 Y109.481
G1 F1800 E23.53967
G1 X110.141 Y109.501 E23.5417
G1 X110.512 Y109.78 E23.57412
G1 X110.521 Y109.784 E23.57481
G1 X110.522 Y120.821 E24.3457
G1 X110.498 Y120.835 E24.34764
G1 X110.121 Y121.143 E24.38165
G1 X110.105 Y121.159 E24.38323
G1 X110.143 Y121 E24.39465
G1 X110.142 Y109.6 E25.19089
G1 X110.12 Y109.481 E25.19935
G1 F1800 E21.19935
G0 F3000 X105.1 Y112.95
G1 F1800 E25.19935
G1 X105.1 Y117.65 E25.52762
G1 X104.4 Y117.65 E25.57652
G1 X104.4 Y112.95 E25.90479
G1 X105.1 Y112.95 E25.95369
G1 F1800 E21.95369
G0 F3000 X105.8 Y121.6
G1 F1800 E25.95369
G1 X109.543 Y121.6 E26.21512
G1 X109.737 Y121.564 E26.2289
G1 X109.701 Y121.604 E26.23266
G1 X109.676 Y121.634 E26.23539
G1 X109.245 Y122.188 E26.28441
G1 X109.132 Y122.275 E26.29438
G1 X108.667 Y122.471 E26.32962
G1 X108.5 Y122.495 E26.34141
G1 X107.071 Y122.5 E26.44122
G1 X106.58 Y122.391 E26.47635
G1 X106.439 Y122.323 E26.48728
G1 X106.1 Y122.03 E26.51858
G1 X105.804 Y121.657 E26.55183
G1 X105.8 Y121.653 E26.55223
G1 X105.8 Y121.6 E26.55593
G0 F3000 X106.689 Y122
G1 F1800 X108.755 Y122 E26.70023
G1 X108.56 Y122.082 E26.71501
G1 X108.47 Y122.095 E26.72136
G1 X107.112 Y122.1 E26.81621
G1 X106.711 Y122.011 E26.8449
G1 X106.689 Y122 E26.84662
G1 F1800 E22.84662
G0 F3000 X105.153 Y125.653
G0 X96.347 Y125.653
G0 X94.288 Y111.379
G1 F1800 E26.84662
G1 X94.034 Y111.669 E26.87355
G1 X93.835 Y111.824 E26.89116
G1 X93.276 Y112.059 E26.93352
G1 X93.03 Y112.095 E26.95088
G1 X91.515 Y112.1 E27.0567
G1 X91.329 Y112.075 E27.06981
G1 X90.832 Y111.924 E27.10609
G1 X90.308 Y111.527 E27.15201
G1 X89.991 Y111.046 E27.19224
G1 X89.974 Y111.024 E27.19419
G1 X89.623 Y110.623 E27.23141
G1 X89.592 Y110.594 E27.23437
G1 X89.246 Y110.339 E27.26439
G1 X89.127 Y110.3 E27.27314
G1 X89.079 Y110.3 E27.27649
G1 X89.079 Y103.441 E27.75557
G1 X89.078 Y103.421 E27.75697
G1 X89.039 Y103.027 E27.78462
G1 X89.032 Y102.991 E27.78718
G1 X88.892 Y102.515 E27.82184
G1 X88.875 Y102.475 E27.82487
G1 X88.682 Y102.124 E27.85285
G1 X88.66 Y102.091 E27.85562
G1 X88.399 Y101.783 E27.88382
G1 X88.361 Y101.748 E27.88743
G1 X87.773 Y101.336 E27.93758
G1 X87.658 Y101.3 E27.94599
G1 X87.578 Y101.3 E27.95158
G1 X87.578 Y98.7 E28.13318
G1 X87.649 Y98.7 E28.13814
G1 X87.76 Y98.667 E28.14623
G1 X88.322 Y98.293 E28.19338
G1 X88.36 Y98.259 E28.19694
G1 X88.626 Y97.961 E28.22484
G1 X88.65 Y97.929 E28.22763
G1 X88.853 Y97.583 E28.25565
G1 X88.871 Y97.541 E28.25885
G1 X89.029 Y97.025 E28.29654
G1 X89.037 Y96.986 E28.29932
G1 X89.077 Y96.59 E28.32712
G1 X89.078 Y96.57 E28.32852
G1 X89.078 Y89.7 E28.80836
G1 X89.123 Y89.7 E28.8115
G1 X89.25 Y89.655 E28.82092
G1 X89.627 Y89.346 E28.85496
G1 X89.649 Y89.324 E28.85714
G1 X90.011 Y88.917 E28.89518
G1 X90.02 Y88.907 E28.89612
G1 X90.473 Y88.324 E28.94769
G1 X90.663 Y88.177 E28.96447
G1 X91.224 Y87.941 E29.00698
G1 X91.469 Y87.905 E29.02427
G1 X93.094 Y87.901 E29.13777
G1 X93.546 Y88.026 E29.17053
G1 X93.784 Y88.14 E29.18896
G1 X94.119 Y88.417 E29.21932
G1 X94.296 Y88.65 E29.23976
G1 X94.553 Y89.283 E29.28748
G1 X94.565 Y89.308 E29.28941
G1 X94.647 Y89.45 E29.30087
G1 X94.561 Y89.6 E29.31294
G1 X90.457 Y89.6 E29.59959
G1 X90.338 Y89.639 E29.60834
G1 X90.257 Y89.8 E29.62093
G1 X90.258 Y110.2 E31.04579
G1 X90.297 Y110.319 E31.05454
G1 X90.458 Y110.4 E31.06713
G1 X94.686 Y110.4 E31.36244
G1 X94.399 Y111.196 E31.42154
G1 X94.288 Y111.379 E31.43649
G0 F3000 X93.962 Y111.144
G1 F1800 X93.759 Y111.376 E31.45802
G1 X93.632 Y111.475 E31.46927
G1 X93.167 Y111.671 E31.50451
G1 X93 Y111.695 E31.5163
G1 X91.545 Y111.7 E31.61792
G1 X91.414 Y111.682 E31.62716
G1 X91.017 Y111.561 E31.65615
G1 X90.605 Y111.249 E31.69224
G1 X90.325 Y110.825 E31.72773
G1 X90.275 Y110.761 E31.73341
G1 X90.269 Y110.755 E31.734
G1 X90.458 Y110.8 E31.74757
G1 X94.116 Y110.8 E32.00307
G1 X94.036 Y111.023 E32.01961
G1 X93.962 Y111.144 E32.02952
G0 F3000 X93.255 Y111.2
G1 F1800 X93.06 Y111.282 E32.0443
G1 X92.97 Y111.295 E32.05065
G1 X91.567 Y111.3 E32.14864
G1 X91.505 Y111.292 E32.15301
G1 X91.205 Y111.2 E32.17493
G1 X93.255 Y111.2 E32.31811
G1 F1800 E28.31811
G0 F3000 X89.88 Y110.319
G1 F1800 E32.31811
G1 X89.829 Y110.272 E32.32296
G1 X89.483 Y110.017 E32.35298
G1 X89.479 Y103.441 E32.81229
G1 X89.476 Y103.382 E32.81641
G1 X89.437 Y102.988 E32.84407
G1 X89.416 Y102.878 E32.85189
G1 X89.276 Y102.402 E32.88654
G1 X89.226 Y102.282 E32.89562
G1 X89.033 Y101.931 E32.9236
G1 X88.965 Y101.832 E32.93199
G1 X88.704 Y101.524 E32.96019
G1 X88.59 Y101.421 E32.97092
G1 X88.002 Y101.009 E33.02107
G1 X87.978 Y100.998 E33.02291
G1 X87.978 Y99.002 E33.16232
G1 X88.543 Y98.626 E33.20973
G1 X88.659 Y98.526 E33.22042
G1 X88.925 Y98.228 E33.24832
G1 X88.995 Y98.132 E33.25662
G1 X89.198 Y97.786 E33.28464
G1 X89.254 Y97.658 E33.2944
G1 X89.412 Y97.142 E33.33209
G1 X89.435 Y97.026 E33.34035
G1 X89.475 Y96.63 E33.36815
G1 X89.478 Y96.57 E33.37235
G1 X89.478 Y89.979 E33.8327
G1 X89.503 Y89.964 E33.83474
G1 X89.88 Y89.655 E33.86879
G1 X89.895 Y89.64 E33.87027
G1 X89.857 Y89.8 E33.88176
G1 X89.858 Y110.2 E35.30662
G1 X89.88 Y110.319 E35.31507
G1 F1800 E31.31507
G0 F3000 X94.9 Y106.85
G1 F1800 E35.31507
G1 X94.9 Y93.15 E36.27197
G1 X96.1 Y93.15 E36.35578
G1 X96.1 Y106.85 E37.31268
G1 X94.9 Y106.85 E37.39649
G0 F3000 X95.3 Y106.45
G1 F1800 X95.3 Y93.55 E38.29751
G1 X95.7 Y93.55 E38.32545
G1 X95.7 Y106.45 E39.22646
G1 X95.3 Y106.45 E39.2544
G1 F1800 E35.2544
G0 F3000 X89.458 Y101.874
G1 F1800 E39.2544
G1 X89.383 Y101.738 E39.26525
G1 X89.27 Y101.574 E39.27916
G1 X89.009 Y101.266 E39.30736
G1 X88.82 Y101.093 E39.32526
G1 X88.378 Y100.783 E39.36296
G1 X88.378 Y99.217 E39.47234
G1 X88.765 Y98.959 E39.50483
G1 X88.957 Y98.792 E39.5226
G1 X89.223 Y98.494 E39.5505
G1 X89.34 Y98.334 E39.56435
G1 X89.457 Y98.134 E39.58053
G1 X89.458 Y101.874 E39.84176
G1 F1800 E35.84176
G0 F3000 X90.263 Y89.236
G1 F1800 E39.84176
G1 X90.31 Y89.183 E39.8467
G1 X90.336 Y89.152 E39.84953
G1 X90.756 Y88.612 E39.89731
G1 X90.868 Y88.525 E39.90722
G1 X91.333 Y88.329 E39.94246
G1 X91.499 Y88.305 E39.95418
G1 X93.041 Y88.301 E40.06188
G1 X93.402 Y88.401 E40.08805
G1 X93.566 Y88.48 E40.10076
G1 X93.831 Y88.698 E40.12473
G1 X93.944 Y88.847 E40.13779
G1 X94.087 Y89.2 E40.16439
G1 X90.457 Y89.2 E40.41793
G1 X90.263 Y89.236 E40.43172
G1 F1800 E36.43172
G0 F3000 X91.245 Y88.8
G1 F1800 E40.43172
G1 X91.44 Y88.718 E40.44649
G1 X91.529 Y88.705 E40.45277
G1 X92.986 Y88.701 E40.55454
G1 X93.261 Y88.777 E40.57447
G1 X93.308 Y88.8 E40.57812
G1 X91.245 Y88.8 E40.72222
G1 F1800 E36.72222
G0 F3000 X90.504 Y89.847
G0 X88.918 Y100.501
;TYPE:SUPPORT
G1 F1800 E40.72222
G1 F529.4 X88.918 Y99.505 Z0.25 E40.84107
G1 F1800 E36.84107
;MESH:track_V1.STL
G0 F3000 X88.918 Y99.505 Z0.35
G0 X91.558 Y99.505
G0 X93.572 Y108.178
G0 X97.36 Y108.65
G0 X97.36 Y108.23
;TYPE:WALL-INNER
G1 F1800 E40.84107
G1 F823.8 X97 Y108.387 E40.87104
G1 F757.9 X94 Y108.387 E41.11987
G1 F823.8 X93.585 Y108.185 E41.15509
G1 F900 X93.4 Y107.856 E41.18145
G1 X93.4 Y92.145 E42.27881
G1 X93.585 Y91.815 E42.30523
G1 F816.3 X93.889 Y91.618 E42.33313
G1 F753.1 X97 Y91.613 E42.59279
G1 F823.8 X97.36 Y91.77 E42.62276
G1 X97.637 Y92.25 E42.66505
G1 F753.1 X97.632 Y107.861 E43.96804
G1 F818.2 X97.36 Y108.23 E44.00326
G0 F3000 X97.36 Y108.65
G0 X97.922 Y124.078
G0 X102.578 Y124.078
G0 X103.6 Y119.995
G0 X103.982 Y119.995
G1 F816.3 X104.389 Y119.668 E44.04347
G1 F746.9 X106.152 Y119.659 E44.19185
G1 F816.3 X106.702 Y119.7 E44.23432
G1 F900 X108.243 Y119.7 E44.34195
G1 X108.242 Y110.9 E44.9566
G1 X106.702 Y110.9 E45.06416
G1 F823.8 X106 Y110.937 E45.11781
G1 F756.3 X103.444 Y110.937 E45.33025
G1 F820 X103.139 Y110.781 E45.35651
G1 F816.3 X102.868 Y110.411 E45.39183
G1 F753.1 X102.863 Y89.7 E47.1205
G1 F823.8 X103.139 Y89.219 E47.16282
G1 F820 X103.444 Y89.063 E47.18908
G1 F750 X105.652 Y89.059 E47.37415
G1 F816.3 X106.335 Y89.1 E47.42683
G1 F900 X108.243 Y89.1 E47.5601
G1 X108.242 Y80.3 E48.17475
G1 X106.335 Y80.3 E48.30795
G1 F823.8 X105.5 Y80.337 E48.37172
G1 F757.9 X104.5 Y80.337 E48.45467
G1 F823.8 X103.982 Y80.005 E48.50162
G1 F900 X103.9 Y79.7 E48.52368
G1 X103.9 Y75.6 E48.81005
G1 X102.426 Y75.6 E48.913
G1 F823.8 X101.75 Y75.637 E48.96466
G1 F753.1 X98.598 Y75.641 E49.22775
G1 F816.3 X98.025 Y75.6 E49.27198
G1 F861.2 X97.578 Y75.6 E49.30461
G1 F789.5 X97.637 Y76.75 E49.3963
G1 F753.1 X97.632 Y90.611 E50.55322
G1 F818.2 X97.36 Y90.98 E50.58844
G1 F823.8 X97 Y91.137 E50.61841
G1 F753.1 X93.848 Y91.141 E50.8815
G1 F816.3 X93.298 Y91.1 E50.92397
G1 F900 X91.758 Y91.101 E51.03153
G1 X91.758 Y108.9 E52.27473
G1 X93.298 Y108.9 E52.38229
G1 F823.8 X94 Y108.863 E52.43593
G1 F757.9 X97 Y108.863 E52.68476
G1 F823.8 X97.36 Y109.02 E52.71473
G1 X97.637 Y109.5 E52.75702
G1 F753.1 X97.641 Y123.402 E53.91737
G1 F816.3 X97.6 Y123.975 E53.9616
G1 F861.2 X97.6 Y124.422 E53.99423
G1 F789.5 X98.75 Y124.363 E54.08592
G1 F753.1 X101.902 Y124.359 E54.34901
G1 F816.3 X102.426 Y124.4 E54.38948
G1 F900 X103.9 Y124.4 E54.49243
G1 X103.9 Y120.3 E54.7788
G1 X103.982 Y119.995 E54.80086
G0 F3000 X103.6 Y119.995
G0 X106.415 Y119.45
G0 X106.415 Y118.985
G1 F816.3 X106.111 Y119.182 E54.82876
G1 F746.9 X104.348 Y119.191 E54.97714
G1 F780.9 X103.373 Y119.145 E55.05571
G1 F857.1 X103.056 Y118.955 E55.08282
G1 F816.3 X102.868 Y118.661 E55.10969
G1 F753.1 X102.863 Y112.05 E55.66149
G1 F823.8 X103.139 Y111.569 E55.7038
G1 F820 X103.444 Y111.413 E55.73007
G1 F756.3 X106 Y111.413 E55.94251
G1 F823.8 X106.415 Y111.615 E55.97773
G1 F900 X106.6 Y111.944 E56.0041
G1 X106.6 Y118.656 E56.4729
G1 X106.415 Y118.985 E56.49927
G0 F3000 X106.415 Y119.45
G0 X103.672 Y119.472
G0 X102.578 Y124.078
G0 X102.154 Y123.695
G1 F816.3 X101.861 Y123.882 E56.52603
G1 F753.1 X98.75 Y123.887 E56.7857
G1 F823.8 X98.325 Y123.675 E56.82194
G1 F816.3 X98.118 Y123.361 E56.8509
G1 F753.1 X98.113 Y109.5 E58.00783
G1 F823.8 X98.15 Y108.625 E58.07465
G1 F818.2 X98.11 Y107.902 E58.13029
G1 F753.1 X98.113 Y92.25 E59.4367
G1 F823.8 X98.15 Y91.375 E59.50353
G1 F818.2 X98.11 Y90.652 E59.55917
G1 F753.1 X98.113 Y76.75 E60.71951
G1 F823.8 X98.325 Y76.325 E60.75576
G1 F816.3 X98.639 Y76.118 E60.78472
G1 F753.1 X101.75 Y76.113 E61.04438
G1 F823.8 X102.154 Y76.305 E61.07851
